ipveka/SupplierNet/data/supply_chain_dataset.csv
sku_id,week,current_inventory,pipeline_procurement,pipeline_manufacturing,avg_demand_lookback,demand_trend,demand_volatility,procurement_lead_time,manufacturing_lead_time,unit_cost,seasonality_sin,seasonality_cos,target_quantity,supply_method,actual_demand,stockout
SKU_000,0,640.5428728715362,0.0,0.0,190.63571821788406,0.0,0.0,2.295714161540503,1.1478570807702515,40.581311290499436,0.0,1.0,0.0,0,122.0,0.0
SKU_000,1,467.54287287153625,0.0,135.45712712846375,122.0,0.0,0.0,2.295714161540503,1.1478570807702515,40.581311290499436,0.12053668025532305,0.992708874098054,135.45712712846375,1,173.0,0.0
SKU_000,2,467.0,0.0,67.5,147.5,50.99999999999997,25.5,2.295714161540503,1.1478570807702515,40.581311290499436,0.23931566428755774,0.970941817426052,67.5,1,136.0,0.0
SKU_000,3,408.5,0.0,155.5,143.66666666666666,7.000000000000012,21.51485275080657,2.295714161540503,1.1478570807702515,40.581311290499436,0.3546048870425356,0.9350162426854148,155.5,1,126.0,0.0
SKU_000,4,411.0,0.0,166.5,139.25,-2.4999999999999925,20.141685629559408,2.295714161540503,1.1478570807702515,40.581311290499436,0.4647231720437685,0.8854560256532099,166.5,1,153.0,0.0
SKU_000,5,447.5,0.0,119.5,142.0,1.4999999999999776,18.83613548475377,2.295714161540503,1.1478570807702515,40.581311290499436,0.5680647467311558,0.8229838658936564,119.5,1,130.0,0.0
SKU_000,6,406.0,0.0,184.5,140.0,-0.8571428571428512,17.76701062831524,2.295714161540503,1.1478570807702515,40.581311290499436,0.6631226582407952,0.7485107481711011,184.5,1,161.0,0.0
SKU_000,7,445.5,0.0,91.0,143.0,1.7142857142857135,18.015866023353652,2.295714161540503,1.1478570807702515,40.581311290499436,0.7485107481711011,0.6631226582407953,91.0,1,145.0,0.0
SKU_000,8,420.5,0.0,124.5,143.25,1.3095238095237969,16.86527497552293,2.295714161540503,1.1478570807702515,40.581311290499436,0.8229838658936564,0.5680647467311559,124.5,1,116.0,0.0
SKU_000,9,398.0,0.0,196.0,142.5,-3.238095238095241,17.89553016817328,2.295714161540503,1.1478570807702515,40.581311290499436,0.8854560256532099,0.4647231720437686,196.0,1,147.0,0.0
SKU_000,10,451.0,0.0,150.5,139.25,0.404761904761897,13.997767679169419,2.295714161540503,1.1478570807702515,40.581311290499436,0.9350162426854148,0.35460488704253557,150.5,1,143.0,0.0
SKU_000,11,443.5,0.0,209.0,140.125,0.36904761904760613,13.986042149228638,2.295714161540503,1.1478570807702515,40.581311290499436,0.970941817426052,0.23931566428755804,209.0,1,158.0,0.0
SKU_000,12,492.5,0.0,125.5,144.125,0.3452380952380945,13.950246413594277,2.295714161540503,1.1478570807702515,40.581311290499436,0.992708874098054,0.120536680255323,125.5,1,160.0,0.0
SKU_000,13,478.0,0.0,180.0,145.0,2.6190476190476133,14.679918255903198,2.295714161540503,1.1478570807702515,40.581311290499436,1.0,-1.6081226496766366e-16,180.0,1,140.0,0.0
SKU_000,14,447.0,0.0,219.0,146.25,0.5952380952380935,13.745453793891274,2.295714161540503,1.1478570807702515,40.581311290499436,0.992708874098054,-0.12053668025532288,219.0,1,211.0,0.0
SKU_000,15,541.0,0.0,24.0,152.5,7.571428571428569,25.43127995205904,2.295714161540503,1.1478570807702515,40.581311290499436,0.9709418174260521,-0.2393156642875575,24.0,1,125.0,0.0
SKU_000,16,427.0,0.0,239.0,150.0,4.476190476190475,26.981475126464083,2.295714161540503,1.1478570807702515,40.581311290499436,0.9350162426854148,-0.35460488704253545,239.0,1,138.0,0.0
SKU_000,17,480.0,0.0,232.0,152.75,-0.16666666666667299,24.37083297714709,2.295714161540503,1.1478570807702515,40.581311290499436,0.8854560256532099,-0.4647231720437685,232.0,1,186.0,0.0
SKU_000,18,557.0,0.0,190.5,157.625,1.9880952380952264,26.53741462539258,2.295714161540503,1.1478570807702515,40.581311290499436,0.8229838658936565,-0.5680647467311557,190.5,1,155.0,0.0
SKU_000,19,542.5,0.0,269.0,159.125,0.20238095238095744,26.00210328031177,2.295714161540503,1.1478570807702515,40.581311290499436,0.7485107481711013,-0.663122658240795,269.0,1,205.0,0.0
SKU_000,20,615.5,0.0,196.5,165.0,3.90476190476189,30.074906483645133,2.295714161540503,1.1478570807702515,40.581311290499436,0.6631226582407952,-0.7485107481711012,196.5,1,196.0,0.0
SKU_000,21,593.0,0.0,239.0,169.5,5.952380952380952,31.64253466459348,2.295714161540503,1.1478570807702515,40.581311290499436,0.5680647467311558,-0.8229838658936564,239.0,1,219.0,0.0
SKU_000,22,631.0,0.0,177.5,179.375,6.916666666666662,33.18485158924174,2.295714161540503,1.1478570807702515,40.581311290499436,0.46472317204376906,-0.8854560256532096,177.5,1,201.0,0.0
SKU_000,23,630.5,0.0,204.5,178.125,12.107142857142856,32.14201883827461,2.295714161540503,1.1478570807702515,40.581311290499436,0.35460488704253584,-0.9350162426854147,204.5,1,178.0,0.0
SKU_000,24,609.0,0.0,340.0,184.75,6.404761904761896,25.227712936372175,2.295714161540503,1.1478570807702515,40.581311290499436,0.23931566428755768,-0.970941817426052,340.0,1,226.0,0.0
SKU_000,25,695.0,0.0,250.0,195.75,4.8333333333333295,21.329263934791562,2.295714161540503,1.1478570807702515,40.581311290499436,0.12053668025532308,-0.992708874098054,250.0,1,254.0,0.0
SKU_000,26,741.0,0.0,203.5,204.25,8.642857142857133,28.19463601467485,2.295714161540503,1.1478570807702515,40.581311290499436,-3.216245299353273e-16,-1.0,203.5,1,204.0,0.0
SKU_000,27,690.5,0.0,343.5,210.375,3.3452380952380856,21.312774924912993,2.295714161540503,1.1478570807702515,40.581311290499436,-0.12053668025532283,-0.992708874098054,343.5,1,254.0,0.0
SKU_000,28,772.0,0.0,258.0,216.5,6.404761904761893,25.514701644346147,2.295714161540503,1.1478570807702515,40.581311290499436,-0.23931566428755743,-0.9709418174260521,258.0,1,262.0,0.0
SKU_000,29,777.0,0.0,262.5,224.75,7.999999999999992,28.092481200492063,2.295714161540503,1.1478570807702515,40.581311290499436,-0.3546048870425356,-0.9350162426854148,262.5,1,253.0,0.0
SKU_000,30,772.5,0.0,273.5,229.0,9.738095238095234,29.440618200031057,2.295714161540503,1.1478570807702515,40.581311290499436,-0.46472317204376806,-0.8854560256532101,273.5,1,267.0,0.0
SKU_000,31,798.0,0.0,255.5,237.25,9.904761904761898,29.684802509028085,2.295714161540503,1.1478570807702515,40.581311290499436,-0.5680647467311556,-0.8229838658936566,255.5,1,248.0,0.0
SKU_000,32,782.5,0.0,313.5,246.0,4.452380952380949,19.5,2.295714161540503,1.1478570807702515,40.581311290499436,-0.663122658240795,-0.7485107481711013,313.5,1,271.0,0.0
SKU_000,33,820.0,0.0,268.0,251.625,4.392857142857133,19.4096464419113,2.295714161540503,1.1478570807702515,40.581311290499436,-0.7485107481711011,-0.6631226582407952,268.0,1,276.0,0.0
SKU_000,34,814.0,0.0,260.0,254.375,6.678571428571428,21.041254121368336,2.295714161540503,1.1478570807702515,40.581311290499436,-0.8229838658936564,-0.5680647467311559,260.0,1,274.0,0.0
SKU_000,35,797.0,0.0,258.0,263.125,2.916666666666662,9.854408911751126,2.295714161540503,1.1478570807702515,40.581311290499436,-0.8854560256532096,-0.4647231720437691,258.0,1,277.0,0.0
SKU_000,36,806.0,0.0,202.5,266.0,3.095238095238082,10.124228365658293,2.295714161540503,1.1478570807702515,40.581311290499436,-0.9350162426854147,-0.3546048870425359,202.5,1,249.0,0.0
SKU_000,37,762.5,0.0,257.0,264.375,1.2499999999999805,11.575161985907584,2.295714161540503,1.1478570807702515,40.581311290499436,-0.970941817426052,-0.23931566428755774,257.0,1,246.0,0.0
SKU_000,38,733.5,0.0,293.0,263.5,-1.500000000000016,12.619429464123963,2.295714161540503,1.1478570807702515,40.581311290499436,-0.992708874098054,-0.12053668025532357,293.0,1,286.0,0.0
SKU_000,39,780.5,0.0,126.0,265.875,0.7500000000000059,14.675127767757253,2.295714161540503,1.1478570807702515,40.581311290499436,-1.0,-1.8369701987210297e-16,126.0,1,246.0,0.0
SKU_000,40,709.5,0.0,214.5,265.625,-2.8214285714285747,14.991143218580763,2.295714161540503,1.1478570807702515,40.581311290499436,-0.992708874098054,0.1205366802553232,214.5,1,197.0,0.0
SKU_000,41,664.0,0.0,314.5,256.375,-7.96428571428571,26.911602980870537,2.295714161540503,1.1478570807702515,40.581311290499436,-0.9709418174260521,0.23931566428755738,314.5,1,260.0,0.0
SKU_000,42,754.5,0.0,192.0,254.375,-5.559523809523808,25.956393721008318,2.295714161540503,1.1478570807702515,40.581311290499436,-0.9350162426854148,0.35460488704253557,192.0,1,224.0,0.0
SKU_000,43,693.5,0.0,272.5,248.125,-5.988095238095248,26.492628691770093,2.295714161540503,1.1478570807702515,40.581311290499436,-0.8854560256532101,0.464723172043768,272.5,1,253.0,0.0
SKU_000,44,714.0,0.0,166.0,245.125,-2.48809523809525,24.323021502272287,2.295714161540503,1.1478570807702515,40.581311290499436,-0.822983865893657,0.5680647467311548,166.0,1,252.0,0.0
SKU_000,45,670.0,0.0,132.5,245.5,-1.5000000000000184,24.40286868382486,2.295714161540503,1.1478570807702515,40.581311290499436,-0.7485107481711011,0.6631226582407952,132.5,1,210.0,0.0
SKU_000,46,595.5,0.0,156.0,241.0,-4.404761904761911,27.069355367278327,2.295714161540503,1.1478570807702515,40.581311290499436,-0.6631226582407955,0.7485107481711007,156.0,1,207.0,0.0
SKU_000,47,584.5,0.0,135.0,231.125,-2.4166666666666807,22.947971043209897,2.295714161540503,1.1478570807702515,40.581311290499436,-0.5680647467311559,0.8229838658936564,135.0,1,167.0,0.0
SKU_000,48,532.5,0.0,285.9,221.25,-6.166666666666663,30.256197712204354,2.295714161540503,1.1478570807702515,40.581311290499436,-0.4647231720437684,0.88545602565321,285.9,1,187.0,0.0
SKU_000,49,624.4,0.0,147.60000000000002,220.0,-11.619047619047615,31.416556144810016,2.295714161540503,1.1478570807702515,40.581311290499436,-0.35460488704253595,0.9350162426854147,147.60000000000002,1,194.0,0.0
SKU_000,50,589.0,0.0,161.39999999999998,211.75,-9.500000000000009,28.34497309929928,2.295714161540503,1.1478570807702515,40.581311290499436,-0.2393156642875578,0.970941817426052,161.39999999999998,1,183.0,0.0
SKU_000,51,597.4,0.0,0.0,206.625,-10.58333333333334,29.355312551563813,2.295714161540503,1.1478570807702515,40.581311290499436,-0.12053668025532363,0.992708874098054,0.0,0,153.0,0.0
SKU_001,0,135.555835455514,0.0,39.944164544486,39.6389588638785,0.0,0.0,7.064032877982784,3.532016438991392,19.82177084203147,0.0,1.0,39.944164544486,1,23.0,0.0
SKU_001,1,119.555835455514,0.0,76.944164544486,23.0,0.0,0.0,7.064032877982784,3.532016438991392,19.82177084203147,0.12053668025532305,0.992708874098054,37.0,1,16.0,0.0
SKU_001,2,77.555835455514,0.0,160.944164544486,19.5,-7.000000000000002,3.5,7.064032877982784,3.532016438991392,19.82177084203147,0.23931566428755774,0.970941817426052,84.0,1,42.0,0.0
SKU_001,3,41.555835455514,0.0,192.444164544486,27.0,9.499999999999991,10.98483803552272,7.064032877982784,3.532016438991392,19.82177084203147,0.3546048870425356,0.9350162426854148,31.5,1,36.0,0.0
SKU_001,4,44.5,0.0,206.0,29.25,6.5,10.280442597476044,7.064032877982784,3.532016438991392,19.82177084203147,0.4647231720437685,0.8854560256532099,53.5,1,37.0,0.0
SKU_001,5,37.5,0.0,222.0,30.8,4.799999999999998,9.703607576566563,7.064032877982784,3.532016438991392,19.82177084203147,0.5680647467311558,0.8229838658936564,53.0,1,44.0,0.0
SKU_001,6,82.5,0.0,180.0,33.0,4.628571428571428,10.132456102380443,7.064032877982784,3.532016438991392,19.82177084203147,0.6631226582407952,0.7485107481711011,42.0,1,39.0,0.0
SKU_001,7,67.0,0.0,206.0,33.857142857142854,3.5357142857142856,9.612916480720413,7.064032877982784,3.532016438991392,19.82177084203147,0.7485107481711011,0.6631226582407953,57.5,1,47.0,0.0
SKU_001,8,77.5,0.0,179.0,35.5,3.4523809523809526,9.987492177719089,7.064032877982784,3.532016438991392,19.82177084203147,0.8229838658936564,0.5680647467311559,26.5,1,43.0,0.0
SKU_001,9,84.5,0.0,193.0,38.0,2.7380952380952355,9.0,7.064032877982784,3.532016438991392,19.82177084203147,0.8854560256532099,0.4647231720437686,67.0,1,46.0,0.0
SKU_001,10,80.5,0.0,195.5,41.75,1.0476190476190457,3.799671038392666,7.064032877982784,3.532016438991392,19.82177084203147,0.9350162426854148,0.35460488704253557,44.5,1,46.0,0.0
SKU_001,11,102.0,0.0,175.5,42.25,1.428571428571425,4.054318685056714,7.064032877982784,3.532016438991392,19.82177084203147,0.970941817426052,0.23931566428755804,37.5,1,36.0,0.0
SKU_001,12,71.5,0.0,249.5,42.25,0.23809523809524014,4.054318685056714,7.064032877982784,3.532016438991392,19.82177084203147,0.992708874098054,0.120536680255323,100.5,1,57.0,0.0
SKU_001,13,93.5,0.0,221.5,44.75,0.9047619047619028,5.825590098865522,7.064032877982784,3.532016438991392,19.82177084203147,1.0,-1.6081226496766366e-16,39.0,1,45.0,0.0
SKU_001,14,91.0,0.0,207.5,44.875,0.8452380952380945,5.818880906153691,7.064032877982784,3.532016438991392,19.82177084203147,0.992708874098054,-0.12053668025532288,30.5,1,47.0,0.0
SKU_001,15,63.5,0.0,229.0,45.875,0.39285714285714407,5.395310463726809,7.064032877982784,3.532016438991392,19.82177084203147,0.9709418174260521,-0.2393156642875575,59.0,1,65.0,0.0
SKU_001,16,111.0,0.0,135.0,48.125,2.1071428571428545,8.34322329798262,7.064032877982784,3.532016438991392,19.82177084203147,0.9350162426854148,-0.35460488704253545,6.5,1,53.0,0.0
SKU_001,17,116.0,0.0,139.0,49.375,1.9642857142857126,8.230089610690762,7.064032877982784,3.532016438991392,19.82177084203147,0.8854560256532099,-0.4647231720437685,43.0,1,34.0,0.0
SKU_001,18,103.5,0.0,198.0,47.875,0.3214285714285672,9.675193796508678,7.064032877982784,3.532016438991392,19.82177084203147,0.8229838658936565,-0.5680647467311557,89.5,1,43.0,0.0
SKU_001,19,128.5,0.0,173.0,47.5,-0.28571428571428936,9.797958971132712,7.064032877982784,3.532016438991392,19.82177084203147,0.7485107481711013,-0.663122658240795,34.0,1,34.0,0.0
SKU_001,20,76.0,0.0,249.5,47.25,-2.6428571428571432,10.108783309577865,7.064032877982784,3.532016438991392,19.82177084203147,0.6631226582407952,-0.7485107481711012,83.0,1,59.0,0.0
SKU_001,21,54.0,0.0,264.0,47.5,-0.6190476190476197,10.36822067666386,7.064032877982784,3.532016438991392,19.82177084203147,0.5680647467311558,-0.8229838658936564,57.5,1,65.0,0.0
SKU_001,22,100.5,0.0,192.0,50.0,0.5714285714285688,11.779218989389747,7.064032877982784,3.532016438991392,19.82177084203147,0.46472317204376906,-0.8854560256532096,17.5,1,43.0,0.0
SKU_001,23,84.5,0.0,221.5,49.5,-0.3333333333333331,11.979148550710939,7.064032877982784,3.532016438991392,19.82177084203147,0.35460488704253584,-0.9350162426854147,63.5,1,50.0,0.0
SKU_001,24,113.5,0.0,188.0,47.625,1.3690476190476182,10.487343562599635,7.064032877982784,3.532016438991392,19.82177084203147,0.23931566428755768,-0.970941817426052,49.5,1,54.0,0.0
SKU_001,25,123.0,0.0,165.0,47.75,2.476190476190475,10.556396165358706,7.064032877982784,3.532016438991392,19.82177084203147,0.12053668025532308,-0.992708874098054,34.5,1,48.0,0.0
SKU_001,26,88.5,0.0,205.5,49.5,1.0238095238095217,9.205976319760984,7.064032877982784,3.532016438991392,19.82177084203147,-3.216245299353273e-16,-1.0,58.0,1,52.0,0.0
SKU_001,27,105.0,0.0,199.5,50.625,0.5357142857142851,8.88731539892672,7.064032877982784,3.532016438991392,19.82177084203147,-0.12053668025532283,-0.992708874098054,57.5,1,47.0,0.0
SKU_001,28,109.5,0.0,193.5,52.25,-1.547619047619049,6.590713163232034,7.064032877982784,3.532016438991392,19.82177084203147,-0.23931566428755743,-0.9709418174260521,43.5,1,45.0,0.0
SKU_001,29,92.0,0.0,190.0,50.5,-1.4285714285714322,6.422616289332565,7.064032877982784,3.532016438991392,19.82177084203147,-0.3546048870425356,-0.9350162426854148,31.0,1,52.0,0.0
SKU_001,30,91.0,0.0,173.0,48.875,0.24999999999999575,3.550968177835448,7.064032877982784,3.532016438991392,19.82177084203147,-0.46472317204376806,-0.8854560256532101,41.0,1,59.0,0.0
SKU_001,31,102.5,0.0,142.0,50.875,0.4642857142857105,4.136348026943574,7.064032877982784,3.532016438991392,19.82177084203147,-0.5680647467311556,-0.8229838658936566,26.5,1,46.0,0.0
SKU_001,32,115.0,0.0,117.5,50.375,-0.03571428571428806,4.442338910979215,7.064032877982784,3.532016438991392,19.82177084203147,-0.663122658240795,-0.7485107481711013,19.0,1,31.0,0.0
SKU_001,33,106.0,0.0,150.5,47.5,-1.261904761904762,7.533259586659682,7.064032877982784,3.532016438991392,19.82177084203147,-0.7485107481711011,-0.6631226582407952,64.0,1,40.0,0.0
SKU_001,34,101.0,0.0,151.0,46.5,-1.833333333333339,7.92148975887743,7.064032877982784,3.532016438991392,19.82177084203147,-0.8229838658936564,-0.5680647467311559,41.5,1,46.0,0.0
SKU_001,35,89.5,0.0,141.5,45.75,-1.285714285714288,7.644442425710328,7.064032877982784,3.532016438991392,19.82177084203147,-0.8854560256532096,-0.4647231720437691,17.0,1,38.0,0.0
SKU_001,36,61.5,0.0,172.5,44.625,-1.7976190476190521,8.030216373174511,7.064032877982784,3.532016438991392,19.82177084203147,-0.9350162426854147,-0.3546048870425359,50.0,1,47.0,0.0
SKU_001,37,88.5,0.0,123.0,44.875,-1.5595238095238095,8.069038046756255,7.064032877982784,3.532016438991392,19.82177084203147,-0.970941817426052,-0.23931566428755774,14.5,1,37.0,0.0
SKU_001,38,98.0,0.0,89.5,43.0,-1.45238095238095,7.937253933193772,7.064032877982784,3.532016438991392,19.82177084203147,-0.992708874098054,-0.12053668025532357,8.0,1,32.0,0.0
SKU_001,39,75.0,0.0,106.5,39.625,-0.6547619047619029,5.893587617063142,7.064032877982784,3.532016438991392,19.82177084203147,-1.0,-1.8369701987210297e-16,34.0,1,40.0,0.0
SKU_001,40,93.0,0.0,66.0,38.875,0.059523809523806745,5.395310463726809,7.064032877982784,3.532016438991392,19.82177084203147,-0.992708874098054,0.1205366802553232,9.5,1,32.0,0.0
SKU_001,41,86.5,0.0,68.0,39.0,-1.357142857142859,5.220153254455275,7.064032877982784,3.532016438991392,19.82177084203147,-0.9709418174260521,0.23931566428755738,16.5,1,21.0,0.0
SKU_001,42,66.5,0.0,106.0,36.625,-2.7500000000000018,7.873015622999868,7.064032877982784,3.532016438991392,19.82177084203147,-0.9350162426854148,0.35460488704253557,46.0,1,28.0,0.0
SKU_001,43,75.5,0.0,79.0,34.375,-2.4642857142857175,7.431983248097374,7.064032877982784,3.532016438991392,19.82177084203147,-0.8854560256532101,0.464723172043768,7.0,1,25.0,0.0
SKU_001,44,56.0,0.0,116.5,32.75,-2.857142857142859,7.870038119348597,7.064032877982784,3.532016438991392,19.82177084203147,-0.822983865893657,0.5680647467311548,47.0,1,29.0,0.0
SKU_001,45,39.5,0.0,143.5,30.5,-1.6428571428571468,5.766281297335398,7.064032877982784,3.532016438991392,19.82177084203147,-0.7485107481711011,0.6631226582407952,43.5,1,33.0,0.0
SKU_001,46,69.5,0.0,112.0,30.0,-0.7380952380952395,5.338539126015656,7.064032877982784,3.532016438991392,19.82177084203147,-0.6631226582407955,0.7485107481711007,14.5,1,16.0,0.0
SKU_001,47,39.5,0.0,161.5,28.0,-1.690476190476192,6.96419413859206,7.064032877982784,3.532016438991392,19.82177084203147,-0.5680647467311559,0.8229838658936564,56.5,1,37.0,0.0
SKU_001,48,50.5,0.0,130.7,27.625,0.34523809523809385,6.362733296312206,7.064032877982784,3.532016438991392,19.82177084203147,-0.4647231720437684,0.88545602565321,16.19999999999999,1,36.0,0.0
SKU_001,49,62.0,0.0,92.0,28.125,1.5119047619047603,6.827105902210687,7.064032877982784,3.532016438991392,19.82177084203147,-0.35460488704253595,0.9350162426854147,4.800000000000011,1,32.0,0.0
SKU_001,50,47.5,0.0,77.5,29.5,1.0714285714285703,6.34428877022476,7.064032877982784,3.532016438991392,19.82177084203147,-0.2393156642875578,0.970941817426052,0.0,0,29.0,0.0
SKU_001,51,76.0,0.0,21.19999999999999,29.625,0.8690476190476184,6.323319934970869,7.064032877982784,3.532016438991392,19.82177084203147,-0.12053668025532363,0.992708874098054,0.19999999999998863,1,28.0,0.0
SKU_002,0,444.1351591249945,0.0,103.36484087500548,144.53378978124863,0.0,0.0,3.7515645332237275,1.8757822666118638,62.10592611560484,0.0,1.0,103.36484087500548,1,134.0,0.0
SKU_002,1,312.1351591249945,0.0,258.8648408750055,134.0,0.0,0.0,3.7515645332237275,1.8757822666118638,62.10592611560484,0.12053668025532305,0.992708874098054,155.5,1,132.0,0.0
SKU_002,2,275.5,0.0,344.0,133.0,-2.000000000000014,1.0,3.7515645332237275,1.8757822666118638,62.10592611560484,0.23931566428755774,0.970941817426052,188.5,1,140.0,0.0
SKU_002,3,274.0,0.0,396.5,135.33333333333334,2.999999999999997,3.39934634239519,3.7515645332237275,1.8757822666118638,62.10592611560484,0.3546048870425356,0.9350162426854148,208.0,1,157.0,0.0
SKU_002,4,293.5,0.0,414.0,140.75,7.70000000000002,9.832980219648569,3.7515645332237275,1.8757822666118638,62.10592611560484,0.4647231720437685,0.8854560256532099,206.0,1,169.0,0.0
SKU_002,5,322.5,0.0,393.0,146.4,9.49999999999999,14.319217855735,3.7515645332237275,1.8757822666118638,62.10592611560484,0.5680647467311558,0.8229838658936564,187.0,1,179.0,0.0
SKU_002,6,344.5,0.0,370.5,151.83333333333334,10.085714285714284,17.84579004197411,3.7515645332237275,1.8757822666118638,62.10592611560484,0.6631226582407952,0.7485107481711011,183.5,1,184.0,0.0
SKU_002,7,344.5,0.0,339.5,156.42857142857142,9.750000000000004,19.99183506804103,3.7515645332237275,1.8757822666118638,62.10592611560484,0.7485107481711011,0.6631226582407953,156.0,1,187.0,0.0
SKU_002,8,373.0,0.0,281.0,160.25,9.047619047619039,21.258821698297393,3.7515645332237275,1.8757822666118638,62.10592611560484,0.8229838658936564,0.5680647467311559,125.0,1,155.0,0.0
SKU_002,9,367.0,0.0,329.0,162.875,5.797619047619045,19.035739413009413,3.7515645332237275,1.8757822666118638,62.10592611560484,0.8854560256532099,0.4647231720437686,204.0,1,162.0,0.0
SKU_002,10,312.0,0.0,416.5,166.625,2.4166666666666528,15.140487937976108,3.7515645332237275,1.8757822666118638,62.10592611560484,0.9350162426854148,0.35460488704253557,212.5,1,180.0,0.0
SKU_002,11,339.0,0.0,402.0,171.625,0.6785714285714328,11.746675061480163,3.7515645332237275,1.8757822666118638,62.10592611560484,0.970941817426052,0.23931566428755804,189.5,1,177.0,0.0
SKU_002,12,362.5,0.0,409.5,174.125,-0.440476190476206,10.421582173547355,3.7515645332237275,1.8757822666118638,62.10592611560484,0.992708874098054,0.120536680255323,220.0,1,189.0,0.0
SKU_002,13,355.0,0.0,432.0,176.625,0.24999999999999808,11.257636297198449,3.7515645332237275,1.8757822666118638,62.10592611560484,1.0,-1.6081226496766366e-16,212.0,1,197.0,0.0
SKU_002,14,388.0,0.0,413.0,178.875,2.202380952380951,13.147599590799835,3.7515645332237275,1.8757822666118638,62.10592611560484,0.992708874098054,-0.12053668025532288,201.0,1,187.0,0.0
SKU_002,15,401.0,0.0,442.5,179.25,3.4285714285714226,13.329947486768281,3.7515645332237275,1.8757822666118638,62.10592611560484,0.9709418174260521,-0.2393156642875575,241.5,1,199.0,0.0
SKU_002,16,379.0,0.0,485.0,180.75,5.904761904761896,14.720309100015529,3.7515645332237275,1.8757822666118638,62.10592611560484,0.9350162426854148,-0.35460488704253545,243.5,1,223.0,0.0
SKU_002,17,399.5,0.0,423.5,189.25,6.666666666666663,16.872685026396955,3.7515645332237275,1.8757822666118638,62.10592611560484,0.8854560256532099,-0.4647231720437685,180.0,1,221.0,0.0
SKU_002,18,443.0,0.0,338.5,196.625,6.392857142857136,16.232201791500746,3.7515645332237275,1.8757822666118638,62.10592611560484,0.8229838658936565,-0.5680647467311557,158.5,1,200.0,0.0
SKU_002,19,427.0,0.0,316.5,199.125,4.892857142857148,14.970283063456082,3.7515645332237275,1.8757822666118638,62.10592611560484,0.7485107481711013,-0.663122658240795,158.0,1,196.0,0.0
SKU_002,20,398.5,0.0,320.5,201.5,2.26190476190475,12.589678312014172,3.7515645332237275,1.8757822666118638,62.10592611560484,0.6631226582407952,-0.7485107481711012,162.5,1,187.0,0.0
SKU_002,21,368.5,0.0,292.0,201.25,-0.2857142857142843,12.852528934026953,3.7515645332237275,1.8757822666118638,62.10592611560484,0.5680647467311558,-0.8229838658936564,129.5,1,188.0,0.0
SKU_002,22,381.0,0.0,241.0,200.125,-1.8452380952381018,13.550253687662087,3.7515645332237275,1.8757822666118638,62.10592611560484,0.46472317204376906,-0.8854560256532096,111.5,1,150.0,0.0
SKU_002,23,347.5,0.0,267.0,195.5,-7.428571428571439,21.324868112136123,3.7515645332237275,1.8757822666118638,62.10592611560484,0.35460488704253584,-0.9350162426854147,155.5,1,163.0,0.0
SKU_002,24,315.0,0.0,272.5,191.0,-9.761904761904786,23.769728648009426,3.7515645332237275,1.8757822666118638,62.10592611560484,0.23931566428755768,-0.970941817426052,117.0,1,144.0,0.0
SKU_002,25,309.5,0.0,270.5,181.125,-10.25000000000001,24.811476679149912,3.7515645332237275,1.8757822666118638,62.10592611560484,0.12053668025532308,-0.992708874098054,153.5,1,161.0,0.0
SKU_002,26,279.5,0.0,222.5,173.625,-7.6547619047619015,20.27891454195712,3.7515645332237275,1.8757822666118638,62.10592611560484,-3.216245299353273e-16,-1.0,69.0,1,147.0,0.0
SKU_002,27,320.0,0.0,127.0,167.0,-7.047619047619048,19.209372712298546,3.7515645332237275,1.8757822666118638,62.10592611560484,-0.12053668025532283,-0.992708874098054,58.0,1,113.0,0.0
SKU_002,28,266.0,0.0,176.5,156.625,-8.440476190476188,22.819605057932094,3.7515645332237275,1.8757822666118638,62.10592611560484,-0.23931566428755743,-0.9709418174260521,118.5,1,123.0,0.0
SKU_002,29,223.0,0.0,181.5,148.625,-7.988095238095245,21.97121696674993,3.7515645332237275,1.8757822666118638,62.10592611560484,-0.3546048870425356,-0.9350162426854148,63.0,1,101.0,0.0
SKU_002,30,256.5,0.0,192.5,137.75,-7.738095238095252,21.3116752039815,3.7515645332237275,1.8757822666118638,62.10592611560484,-0.46472317204376806,-0.8854560256532101,129.5,1,85.0,0.0
SKU_002,31,191.5,0.0,319.5,129.625,-10.821428571428578,26.781231767788427,3.7515645332237275,1.8757822666118638,62.10592611560484,-0.5680647467311556,-0.8229838658936566,190.0,1,128.0,0.0
SKU_002,32,198.0,0.0,312.0,125.25,-7.380952380952384,23.64714570513744,3.7515645332237275,1.8757822666118638,62.10592611560484,-0.663122658240795,-0.7485107481711013,122.0,1,123.0,0.0
SKU_002,33,252.0,0.0,273.5,122.625,-5.559523809523822,22.560682059725057,3.7515645332237275,1.8757822666118638,62.10592611560484,-0.7485107481711011,-0.6631226582407952,151.5,1,136.0,0.0
SKU_002,34,241.0,0.0,237.5,119.5,-0.33333333333333937,18.371173070873837,3.7515645332237275,1.8757822666118638,62.10592611560484,-0.8229838658936564,-0.5680647467311559,86.0,1,133.0,0.0
SKU_002,35,282.5,0.0,184.0,117.75,3.738095238095233,16.20763708873073,3.7515645332237275,1.8757822666118638,62.10592611560484,-0.8854560256532096,-0.4647231720437691,98.0,1,110.0,0.0
SKU_002,36,234.5,0.0,204.0,117.375,2.5833333333333286,16.347304823731648,3.7515645332237275,1.8757822666118638,62.10592611560484,-0.9350162426854147,-0.3546048870425359,106.0,1,134.0,0.0
SKU_002,37,238.5,0.0,157.0,118.75,4.5714285714285685,17.202834068838772,3.7515645332237275,1.8757822666118638,62.10592611560484,-0.970941817426052,-0.23931566428755774,51.0,1,94.0,0.0
SKU_002,38,237.5,0.0,142.5,117.875,0.6071428571428512,18.23072612377247,3.7515645332237275,1.8757822666118638,62.10592611560484,-0.992708874098054,-0.12053668025532357,91.5,1,107.0,0.0
SKU_002,39,202.5,0.0,175.0,120.625,-3.82142857142857,14.299803320325774,3.7515645332237275,1.8757822666118638,62.10592611560484,-1.0,-1.8369701987210297e-16,83.5,1,86.0,0.0
SKU_002,40,192.0,0.0,181.0,115.375,-5.916666666666675,17.88810708264013,3.7515645332237275,1.8757822666118638,62.10592611560484,-0.992708874098054,0.1205366802553232,97.5,1,102.0,0.0
SKU_002,41,196.5,0.0,196.0,112.75,-6.214285714285723,18.115946014492316,3.7515645332237275,1.8757822666118638,62.10592611560484,-0.9709418174260521,0.23931566428755738,98.5,1,79.0,0.0
SKU_002,42,182.0,0.0,237.5,105.625,-6.535714285714289,18.76790811465146,3.7515645332237275,1.8757822666118638,62.10592611560484,-0.9350162426854148,0.35460488704253557,139.0,1,112.0,0.0
SKU_002,43,189.5,0.0,218.0,103.0,-3.071428571428571,16.023420358962067,3.7515645332237275,1.8757822666118638,62.10592611560484,-0.8854560256532101,0.464723172043768,79.0,1,91.0,0.0
SKU_002,44,207.5,0.0,217.0,100.625,-3.321428571428575,16.21679299368405,3.7515645332237275,1.8757822666118638,62.10592611560484,-0.822983865893657,0.5680647467311548,138.0,1,121.0,0.0
SKU_002,45,177.5,0.0,189.5,99.0,1.9523809523809459,13.152946437965905,3.7515645332237275,1.8757822666118638,62.10592611560484,-0.7485107481711011,0.6631226582407952,51.5,1,109.0,0.0
SKU_002,46,245.5,0.0,102.5,100.875,2.2499999999999973,13.37383172467786,3.7515645332237275,1.8757822666118638,62.10592611560484,-0.6631226582407955,0.7485107481711007,51.0,1,70.0,0.0
SKU_002,47,208.0,0.0,203.0,96.25,0.3333333333333264,16.490527584040482,3.7515645332237275,1.8757822666118638,62.10592611560484,-0.5680647467311559,0.8229838658936564,152.0,1,89.0,0.0
SKU_002,48,151.0,0.0,246.60000000000002,96.625,-1.3690476190476215,16.286017775994228,3.7515645332237275,1.8757822666118638,62.10592611560484,-0.4647231720437684,0.88545602565321,94.60000000000002,1,108.0,0.0
SKU_002,49,192.0,0.0,197.60000000000002,97.375,0.1547619047619018,16.65035660278782,3.7515645332237275,1.8757822666118638,62.10592611560484,-0.35460488704253595,0.9350162426854147,103.0,1,111.0,0.0
SKU_002,50,166.60000000000002,0.0,231.79999999999995,101.375,-0.6785714285714257,15.563880460861938,3.7515645332237275,1.8757822666118638,62.10592611560484,-0.2393156642875578,0.970941817426052,128.79999999999995,1,120.0,0.0
SKU_002,51,121.60000000000002,0.0,224.0,102.375,2.011904761904755,16.446409182554106,3.7515645332237275,1.8757822666118638,62.10592611560484,-0.12053668025532363,0.992708874098054,95.20000000000005,1,148.0,0.0
SKU_003,0,130.37772411548988,0.0,253.62227588451012,50.34443102887247,0.0,0.0,6.7259653359303435,3.3629826679651718,84.08205087604007,0.0,1.0,253.62227588451012,1,71.0,0.0
SKU_003,1,58.37772411548988,0.0,354.12227588451015,71.0,0.0,0.0,6.7259653359303435,3.3629826679651718,84.08205087604007,0.12053668025532305,0.992708874098054,100.5,1,72.0,0.0
SKU_003,2,0.0,0.0,382.5,71.5,0.999999999999989,0.5,6.7259653359303435,3.3629826679651718,84.08205087604007,0.23931566428755774,0.970941817426052,28.377724115489855,1,62.0,3.622275884510117
SKU_003,3,202.62227588451012,0.0,179.87772411548988,68.33333333333333,-4.500000000000002,4.496912521077347,6.7259653359303435,3.3629826679651718,84.08205087604007,0.3546048870425356,0.9350162426854148,51.0,1,51.0,0.0
SKU_003,4,213.12227588451015,0.0,173.87772411548988,64.0,-6.9999999999999885,8.455767262643882,6.7259653359303435,3.3629826679651718,84.08205087604007,0.4647231720437685,0.8854560256532099,94.5,1,90.0,0.0
SKU_003,5,189.5,0.0,145.50000000000003,69.2,1.6999999999999889,12.859237924542807,6.7259653359303435,3.3629826679651718,84.08205087604007,0.5680647467311558,0.8229838658936564,0.0,0,52.0,0.0
SKU_003,6,178.5,0.0,144.00000000000003,66.33333333333333,-1.4857142857142835,13.374935098492585,6.7259653359303435,3.3629826679651718,84.08205087604007,0.6631226582407952,0.7485107481711011,49.5,1,62.0,0.0
SKU_003,7,219.0,0.0,115.50000000000003,65.71428571428571,-1.3928571428571426,12.475281682640457,6.7259653359303435,3.3629826679651718,84.08205087604007,0.7485107481711011,0.6631226582407953,66.0,1,54.0,0.0
SKU_003,8,167.0,0.0,185.50000000000003,64.25,-1.9047619047619049,12.295832627357937,6.7259653359303435,3.3629826679651718,84.08205087604007,0.8229838658936564,0.5680647467311559,70.0,1,52.0,0.0
SKU_003,9,169.5,0.0,178.50000000000003,61.875,-2.202380952380952,12.594021399060747,6.7259653359303435,3.3629826679651718,84.08205087604007,0.8854560256532099,0.4647231720437686,42.5,1,47.0,0.0
SKU_003,10,165.5,0.0,200.50000000000003,58.75,-2.357142857142862,12.794041581923986,6.7259653359303435,3.3629826679651718,84.08205087604007,0.9350162426854148,0.35460488704253557,88.0,1,70.0,0.0
SKU_003,11,169.5,0.0,168.00000000000003,59.75,-1.0714285714285763,13.311179511974137,6.7259653359303435,3.3629826679651718,84.08205087604007,0.970941817426052,0.23931566428755804,37.5,1,66.0,0.0
SKU_003,12,163.0,0.0,161.00000000000003,61.625,-1.4880952380952392,12.999399024570328,6.7259653359303435,3.3629826679651718,84.08205087604007,0.992708874098054,0.120536680255323,35.5,1,49.0,0.0
SKU_003,13,192.0,0.0,129.00000000000003,56.5,0.49999999999999617,7.874007874011811,6.7259653359303435,3.3629826679651718,84.08205087604007,1.0,-1.6081226496766366e-16,56.0,1,59.0,0.0
SKU_003,14,178.5,0.0,139.50000000000003,57.375,0.22619047619047522,7.712611425451175,6.7259653359303435,3.3629826679651718,84.08205087604007,0.992708874098054,-0.12053668025532288,48.0,1,51.0,0.0
SKU_003,15,157.0,0.0,161.00000000000003,56.0,0.19047619047618675,7.745966692414834,6.7259653359303435,3.3629826679651718,84.08205087604007,0.9709418174260521,-0.2393156642875575,57.0,1,57.0,0.0
SKU_003,16,166.0,0.0,117.50000000000003,56.375,0.059523809523806565,7.712611425451175,6.7259653359303435,3.3629826679651718,84.08205087604007,0.9350162426854148,-0.35460488704253545,12.5,1,47.0,0.0
SKU_003,17,157.0,0.0,129.5,55.75,-1.1904761904761931,8.227241335952167,6.7259653359303435,3.3629826679651718,84.08205087604007,0.8854560256532099,-0.4647231720437685,59.99999999999997,1,57.0,0.0
SKU_003,18,163.0,0.0,117.5,57.0,-2.0238095238095246,7.533259586659682,6.7259653359303435,3.3629826679651718,84.08205087604007,0.8229838658936565,-0.5680647467311557,45.0,1,51.0,0.0
SKU_003,19,141.5,0.0,112.0,54.625,-1.1309523809523827,5.8723398232731725,6.7259653359303435,3.3629826679651718,84.08205087604007,0.7485107481711013,-0.663122658240795,7.0,1,34.0,0.0
SKU_003,20,152.49999999999997,0.0,96.50000000000003,50.625,-1.630952380952384,7.448783457719791,6.7259653359303435,3.3629826679651718,84.08205087604007,0.6631226582407952,-0.7485107481711012,44.5,1,49.0,0.0
SKU_003,21,144.49999999999997,0.0,82.00000000000003,50.625,-1.9404761904761905,7.448783457719791,6.7259653359303435,3.3629826679651718,84.08205087604007,0.5680647467311558,-0.8229838658936564,30.5,1,53.0,0.0
SKU_003,22,118.49999999999997,0.0,78.00000000000003,49.875,-0.8452380952380961,6.845390785046534,6.7259653359303435,3.3629826679651718,84.08205087604007,0.46472317204376906,-0.8854560256532096,3.0,1,33.0,0.0
SKU_003,23,131.99999999999997,0.0,63.00000000000003,47.625,-2.1309523809523845,8.788308995478026,6.7259653359303435,3.3629826679651718,84.08205087604007,0.35460488704253584,-0.9350162426854147,29.5,1,31.0,0.0
SKU_003,24,128.49999999999997,0.0,75.50000000000003,44.375,-2.511904761904764,9.499177595981665,6.7259653359303435,3.3629826679651718,84.08205087604007,0.23931566428755768,-0.970941817426052,43.0,1,34.0,0.0
SKU_003,25,98.49999999999997,0.0,102.50000000000003,42.75,-3.0952380952380993,10.0093706095838,6.7259653359303435,3.3629826679651718,84.08205087604007,0.12053668025532308,-0.992708874098054,30.0,1,33.0,0.0
SKU_003,26,95.99999999999997,0.0,121.50000000000003,39.75,-2.3809523809523823,8.814051281902097,6.7259653359303435,3.3629826679651718,84.08205087604007,-3.216245299353273e-16,-1.0,48.5,1,32.0,0.0
SKU_003,27,101.99999999999997,0.0,114.00000000000003,37.375,-1.8214285714285734,7.9833811759178825,6.7259653359303435,3.3629826679651718,84.08205087604007,-0.12053668025532283,-0.992708874098054,35.5,1,37.0,0.0
SKU_003,28,99.99999999999997,0.0,111.50000000000003,37.75,-2.2142857142857135,7.8859051477937525,6.7259653359303435,3.3629826679651718,84.08205087604007,-0.23931566428755743,-0.9709418174260521,27.5,1,32.0,0.0
SKU_003,29,104.49999999999997,0.0,101.00000000000003,35.625,-1.4880952380952406,6.781177995009422,6.7259653359303435,3.3629826679651718,84.08205087604007,-0.3546048870425356,-0.9350162426854148,38.0,1,44.0,0.0
SKU_003,30,108.99999999999997,0.0,93.50000000000003,34.5,1.0714285714285707,3.968626966596886,6.7259653359303435,3.3629826679651718,84.08205087604007,-0.46472317204376806,-0.8854560256532101,28.0,1,31.0,0.0
SKU_003,31,102.49999999999997,0.0,104.50000000000003,34.25,0.6190476190476184,4.115519408288582,6.7259653359303435,3.3629826679651718,84.08205087604007,-0.5680647467311556,-0.8229838658936566,38.5,1,34.0,0.0
SKU_003,32,112.49999999999997,0.0,79.50000000000003,34.625,0.24999999999999772,3.9350190596742984,6.7259653359303435,3.3629826679651718,84.08205087604007,-0.663122658240795,-0.7485107481711013,13.0,1,28.0,0.0
SKU_003,33,98.49999999999997,0.0,101.00000000000003,33.875,-0.3690476190476219,4.512136411945011,6.7259653359303435,3.3629826679651718,84.08205087604007,-0.7485107481711011,-0.6631226582407952,49.5,1,42.0,0.0
SKU_003,34,102.99999999999997,0.0,116.00000000000003,35.0,0.21428571428571117,5.220153254455275,6.7259653359303435,3.3629826679651718,84.08205087604007,-0.8229838658936564,-0.5680647467311559,53.5,1,34.0,0.0
SKU_003,35,91.99999999999997,0.0,151.00000000000003,35.25,-0.19047619047619113,5.11737237261468,6.7259653359303435,3.3629826679651718,84.08205087604007,-0.8854560256532096,-0.4647231720437691,48.0,1,24.0,0.0
SKU_003,36,108.49999999999997,0.0,163.00000000000003,33.625,-0.9404761904761936,6.243746871871088,6.7259653359303435,3.3629826679651718,84.08205087604007,-0.9350162426854147,-0.3546048870425359,61.5,1,33.0,0.0
SKU_003,37,106.99999999999997,0.0,188.50000000000003,33.75,-1.1666666666666683,6.219927652312364,6.7259653359303435,3.3629826679651718,84.08205087604007,-0.970941817426052,-0.23931566428755774,79.0,1,55.0,0.0
SKU_003,38,104.99999999999997,0.0,168.00000000000003,35.125,1.7023809523809508,8.950384069971523,6.7259653359303435,3.3629826679651718,84.08205087604007,-0.992708874098054,-0.12053668025532357,27.5,1,50.0,0.0
SKU_003,39,123.49999999999997,0.0,137.50000000000003,37.5,2.4999999999999996,10.0,6.7259653359303435,3.3629826679651718,84.08205087604007,-1.0,-1.8369701987210297e-16,31.0,1,43.0,0.0
SKU_003,40,153.49999999999997,0.0,127.00000000000003,38.625,2.5833333333333317,10.049098218248242,6.7259653359303435,3.3629826679651718,84.08205087604007,-0.992708874098054,0.1205366802553232,68.5,1,49.0,0.0
SKU_003,41,140.99999999999997,0.0,147.00000000000003,41.25,2.309523809523809,9.666307464590602,6.7259653359303435,3.3629826679651718,84.08205087604007,-0.9709418174260521,0.23931566428755738,47.5,1,40.0,0.0
SKU_003,42,129.99999999999997,0.0,159.50000000000003,41.0,2.285714285714284,9.669539802906858,6.7259653359303435,3.3629826679651718,84.08205087604007,-0.9350162426854148,0.35460488704253557,43.5,1,42.0,0.0
SKU_003,43,142.49999999999997,0.0,177.00000000000003,42.0,1.6190476190476164,9.300537618869138,6.7259653359303435,3.3629826679651718,84.08205087604007,-0.8854560256532101,0.464723172043768,86.0,1,56.0,0.0
SKU_003,44,135.99999999999997,0.0,182.00000000000003,46.0,0.8571428571428557,7.3824115301167,6.7259653359303435,3.3629826679651718,84.08205087604007,-0.822983865893657,0.5680647467311548,52.5,1,54.0,0.0
SKU_003,45,138.49999999999997,0.0,202.00000000000003,48.625,0.13095238095237893,5.8723398232731725,6.7259653359303435,3.3629826679651718,84.08205087604007,-0.7485107481711011,0.6631226582407952,63.5,1,41.0,0.0
SKU_003,46,162.49999999999997,0.0,203.50000000000003,46.875,0.17857142857142752,5.797359312652615,6.7259653359303435,3.3629826679651718,84.08205087604007,-0.6631226582407955,0.7485107481711007,87.5,1,62.0,0.0
SKU_003,47,159.99999999999997,0.0,227.00000000000003,48.375,1.7738095238095226,7.6638355279846655,6.7259653359303435,3.3629826679651718,84.08205087604007,-0.5680647467311559,0.8229838658936564,76.0,1,55.0,0.0
SKU_003,48,154.49999999999997,0.0,182.70000000000007,49.875,1.7499999999999996,7.639330795298761,6.7259653359303435,3.3629826679651718,84.08205087604007,-0.4647231720437684,0.88545602565321,19.200000000000045,1,69.0,0.0
SKU_003,49,183.99999999999997,0.0,101.00000000000003,52.375,3.2499999999999973,9.88606974484805,6.7259653359303435,3.3629826679651718,84.08205087604007,-0.35460488704253595,0.9350162426854147,5.7999999999999545,1,58.0,0.0
SKU_003,50,184.0,0.0,72.0,54.625,2.3928571428571375,8.802520945729126,6.7259653359303435,3.3629826679651718,84.08205087604007,-0.2393156642875578,0.970941817426052,46.99999999999997,1,76.0,0.0
SKU_003,51,149.20000000000005,0.0,52.799999999999955,58.875,2.8214285714285716,9.829006816560868,6.7259653359303435,3.3629826679651718,84.08205087604007,-0.12053668025532363,0.992708874098054,0.0,0,54.0,0.0
SKU_004,0,308.81488804050076,0.0,358.18511195949924,109.70372201012519,0.0,0.0,4.851461410206573,2.4257307051032866,33.90301308115608,0.0,1.0,358.18511195949924,1,130.0,0.0
SKU_004,1,166.81488804050076,0.0,523.6851119594992,130.0,0.0,0.0,4.851461410206573,2.4257307051032866,33.90301308115608,0.12053668025532305,0.992708874098054,165.5,1,142.0,0.0
SKU_004,2,398.0,0.0,294.99999999999994,136.0,11.999999999999991,6.0,4.851461410206573,2.4257307051032866,33.90301308115608,0.23931566428755774,0.970941817426052,129.5,1,127.0,0.0
SKU_004,3,426.5,0.0,236.99999999999994,133.0,-1.5000000000000122,6.48074069840786,4.851461410206573,2.4257307051032866,33.90301308115608,0.3546048870425356,0.9350162426854148,107.5,1,137.0,0.0
SKU_004,4,393.0,0.0,238.0,134.0,0.600000000000007,5.873670062235365,4.851461410206573,2.4257307051032866,33.90301308115608,0.4647231720437685,0.8854560256532099,130.50000000000006,1,163.0,0.0
SKU_004,5,395.5,0.0,167.5,139.8,6.0999999999999845,12.734205903785284,4.851461410206573,2.4257307051032866,33.90301308115608,0.5680647467311558,0.8229838658936564,37.0,1,105.0,0.0
SKU_004,6,414.0,0.0,157.0,134.0,-1.485714285714286,17.416467303484175,4.851461410206573,2.4257307051032866,33.90301308115608,0.6631226582407952,0.7485107481711011,120.00000000000006,1,112.0,0.0
SKU_004,7,329.0,0.0,255.0,130.85714285714286,-3.2857142857142843,17.867996701433796,4.851461410206573,2.4257307051032866,33.90301308115608,0.7485107481711011,0.6631226582407953,135.0,1,122.0,0.0
SKU_004,8,340.00000000000006,0.0,245.49999999999994,129.75,-2.9285714285714337,16.96872122465332,4.851461410206573,2.4257307051032866,33.90301308115608,0.8229838658936564,0.5680647467311559,110.5,1,109.0,0.0
SKU_004,9,362.00000000000006,0.0,205.49999999999994,127.125,-4.630952380952383,18.29916323223551,4.851461410206573,2.4257307051032866,33.90301308115608,0.8854560256532099,0.4647231720437686,95.0,1,113.0,0.0
SKU_004,10,336.50000000000006,0.0,214.49999999999994,123.5,-4.214285714285718,17.86057109949175,4.851461410206573,2.4257307051032866,33.90301308115608,0.9350162426854148,0.35460488704253557,119.5,1,136.0,0.0
SKU_004,11,334.50000000000006,0.0,168.99999999999994,124.625,-2.7976190476190514,18.323055831383584,4.851461410206573,2.4257307051032866,33.90301308115608,0.970941817426052,0.23931566428755804,49.5,1,97.0,0.0
SKU_004,12,357.00000000000006,0.0,136.49999999999994,119.625,-3.7738095238095286,19.671918437203832,4.851461410206573,2.4257307051032866,33.90301308115608,0.992708874098054,0.120536680255323,87.0,1,97.0,0.0
SKU_004,13,294.50000000000006,0.0,190.99999999999994,111.375,-1.0119047619047674,12.154603037532736,4.851461410206573,2.4257307051032866,33.90301308115608,1.0,-1.6081226496766366e-16,104.0,1,112.0,0.0
SKU_004,14,292.50000000000006,0.0,154.99999999999994,112.25,-1.6428571428571477,11.913752557443855,4.851461410206573,2.4257307051032866,33.90301308115608,0.992708874098054,-0.12053668025532288,51.0,1,89.0,0.0
SKU_004,15,303.50000000000006,0.0,156.99999999999994,109.375,-3.6071428571428674,14.185710239533304,4.851461410206573,2.4257307051032866,33.90301308115608,0.9709418174260521,-0.2393156642875575,106.0,1,93.0,0.0
SKU_004,16,265.50000000000006,0.0,219.99999999999994,105.75,-3.6190476190476333,14.201672436723781,4.851461410206573,2.4257307051032866,33.90301308115608,0.9350162426854148,-0.35460488704253545,114.0,1,89.0,0.0
SKU_004,17,289.50000000000006,0.0,181.49999999999994,103.25,-4.666666666666674,15.138939857202683,4.851461410206573,2.4257307051032866,33.90301308115608,0.8854560256532099,-0.4647231720437685,67.5,1,82.0,0.0
SKU_004,18,274.50000000000006,0.0,197.49999999999994,99.375,-5.392857142857149,16.085222255225446,4.851461410206573,2.4257307051032866,33.90301308115608,0.8229838658936565,-0.5680647467311557,130.0,1,129.0,0.0
SKU_004,19,271.00000000000006,0.0,129.99999999999994,98.5,1.0000000000000013,14.142135623730951,4.851461410206573,2.4257307051032866,33.90301308115608,0.7485107481711013,-0.663122658240795,0.0,0,71.0,0.0
SKU_004,20,305.00000000000006,0.0,39.99999999999994,95.25,-1.4523809523809577,16.843025262701474,4.851461410206573,2.4257307051032866,33.90301308115608,0.6631226582407952,-0.7485107481711012,39.99999999999994,1,96.0,0.0
SKU_004,21,249.00000000000006,0.0,55.99999999999994,95.125,-1.202380952380959,16.83328176559758,4.851461410206573,2.4257307051032866,33.90301308115608,0.5680647467311558,-0.8229838658936564,16.0,1,56.0,0.0
SKU_004,22,233.0,0.0,101.5,88.125,-2.654761904761911,19.751186673210295,4.851461410206573,2.4257307051032866,33.90301308115608,0.46472317204376906,-0.8854560256532096,85.5,1,56.0,0.0
SKU_004,23,183.0,0.0,172.0,84.0,-5.238095238095245,22.40535650240808,4.851461410206573,2.4257307051032866,33.90301308115608,0.35460488704253584,-0.9350162426854147,86.5,1,66.0,0.0
SKU_004,24,192.5,0.0,163.0,80.625,-5.7738095238095255,22.82508214662107,4.851461410206573,2.4257307051032866,33.90301308115608,0.23931566428755768,-0.970941817426052,76.5,1,76.0,0.0
SKU_004,25,204.0,0.0,158.5,79.0,-5.261904761904765,22.63294059551255,4.851461410206573,2.4257307051032866,33.90301308115608,0.12053668025532308,-0.992708874098054,82.0,1,75.0,0.0
SKU_004,26,221.5,0.0,150.5,78.125,-5.273809523809521,22.635356745587202,4.851461410206573,2.4257307051032866,33.90301308115608,-3.216245299353273e-16,-1.0,68.5,1,59.0,0.0
SKU_004,27,222.5,0.0,189.5,69.375,-1.4166666666666674,12.569183545481385,4.851461410206573,2.4257307051032866,33.90301308115608,-0.12053668025532283,-0.992708874098054,121.0,1,81.0,0.0
SKU_004,28,211.0,0.0,202.0,70.625,-0.2738095238095216,13.152352451177698,4.851461410206573,2.4257307051032866,33.90301308115608,-0.23931566428755743,-0.9709418174260521,81.0,1,80.0,0.0
SKU_004,29,248.0,0.0,154.5,68.625,3.226190476190477,9.974185430399817,4.851461410206573,2.4257307051032866,33.90301308115608,-0.3546048870425356,-0.9350162426854148,73.5,1,84.0,0.0
SKU_004,30,240.0,0.0,177.0,72.125,3.1547619047619015,9.84171605971235,4.851461410206573,2.4257307051032866,33.90301308115608,-0.46472317204376806,-0.8854560256532101,103.5,1,89.0,0.0
SKU_004,31,246.5,0.0,194.5,76.25,2.833333333333331,9.107002800043492,4.851461410206573,2.4257307051032866,33.90301308115608,-0.5680647467311556,-0.8229838658936566,91.0,1,67.0,0.0
SKU_004,32,265.0,0.0,211.0,76.375,0.9642857142857123,8.971308432999058,4.851461410206573,2.4257307051032866,33.90301308115608,-0.663122658240795,-0.7485107481711013,120.0,1,85.0,0.0
SKU_004,33,245.0,0.0,229.0,77.5,1.642857142857144,9.40744386111339,4.851461410206573,2.4257307051032866,33.90301308115608,-0.7485107481711011,-0.6631226582407952,109.0,1,111.0,0.0
SKU_004,34,272.0,0.0,172.0,82.0,4.1666666666666625,14.413535305399574,4.851461410206573,2.4257307051032866,33.90301308115608,-0.8229838658936564,-0.5680647467311559,63.0,1,93.0,0.0
SKU_004,35,296.0,0.0,176.0,86.25,2.619047619047616,11.776565713313877,4.851461410206573,2.4257307051032866,33.90301308115608,-0.8854560256532096,-0.4647231720437691,113.0,1,85.0,0.0
SKU_004,36,278.0,0.0,224.0,86.75,1.9523809523809468,11.627015954233485,4.851461410206573,2.4257307051032866,33.90301308115608,-0.9350162426854147,-0.3546048870425359,111.0,1,81.0,0.0
SKU_004,37,280.0,0.0,249.5,86.875,0.7499999999999921,11.558952158392213,4.851461410206573,2.4257307051032866,33.90301308115608,-0.970941817426052,-0.23931566428755774,138.5,1,111.0,0.0
SKU_004,38,278.0,0.0,264.5,90.25,2.4523809523809517,13.926144477205455,4.851461410206573,2.4257307051032866,33.90301308115608,-0.992708874098054,-0.12053668025532357,126.0,1,113.0,0.0
SKU_004,39,327.5,0.0,236.0,93.25,4.214285714285712,15.793590472087086,4.851461410206573,2.4257307051032866,33.90301308115608,-1.0,-1.8369701987210297e-16,110.0,1,89.0,0.0
SKU_004,40,333.5,0.0,301.0,96.0,1.0476190476190423,12.569805089976535,4.851461410206573,2.4257307051032866,33.90301308115608,-0.992708874098054,0.1205366802553232,191.0,1,120.0,0.0
SKU_004,41,324.5,0.0,318.0,100.375,1.8690476190476135,13.99051017654467,4.851461410206573,2.4257307051032866,33.90301308115608,-0.9709418174260521,0.23931566428755738,127.0,1,119.0,0.0
SKU_004,42,372.5,0.0,278.0,101.375,4.559523809523811,14.966107543379474,4.851461410206573,2.4257307051032866,33.90301308115608,-0.9350162426854148,0.35460488704253557,151.0,1,143.0,0.0
SKU_004,43,376.5,0.0,243.5,107.625,7.130952380952374,19.81752696478549,4.851461410206573,2.4257307051032866,33.90301308115608,-0.8854560256532101,0.464723172043768,92.5,1,123.0,0.0
SKU_004,44,397.5,0.0,244.0,112.375,5.988095238095233,18.323055831383584,4.851461410206573,2.4257307051032866,33.90301308115608,-0.822983865893657,0.5680647467311548,151.5,1,130.0,0.0
SKU_004,45,377.0,0.0,272.0,118.5,4.095238095238094,14.628738838327793,4.851461410206573,2.4257307051032866,33.90301308115608,-0.7485107481711011,0.6631226582407952,120.5,1,113.0,0.0
SKU_004,46,386.5,0.0,315.5,118.75,2.8333333333333326,14.515078366994786,4.851461410206573,2.4257307051032866,33.90301308115608,-0.6631226582407955,0.7485107481711007,195.0,1,142.0,0.0
SKU_004,47,379.0,0.0,342.5,122.375,4.154761904761904,16.15501083255595,4.851461410206573,2.4257307051032866,33.90301308115608,-0.5680647467311559,0.8229838658936564,147.5,1,128.0,0.0
SKU_004,48,425.0,0.0,237.0,127.25,1.0476190476190361,10.096410253154335,4.851461410206573,2.4257307051032866,33.90301308115608,-0.4647231720437684,0.88545602565321,89.5,1,149.0,0.0
SKU_004,49,425.5,0.0,253.5,130.875,2.0833333333333273,11.889464874417182,4.851461410206573,2.4257307051032866,33.90301308115608,-0.35460488704253595,0.9350162426854147,164.0,1,147.0,0.0
SKU_004,50,344.0,0.0,245.60000000000002,134.375,2.1547619047618984,11.999348940671739,4.851461410206573,2.4257307051032866,33.90301308115608,-0.2393156642875578,0.970941817426052,81.60000000000002,1,171.0,0.0
SKU_004,51,381.0,0.0,81.60000000000002,137.875,6.130952380952377,17.032597423763647,4.851461410206573,2.4257307051032866,33.90301308115608,-0.12053668025532363,0.992708874098054,0.0,0,127.0,0.0
SKU_005,0,98.0153340955518,0.0,177.9846659044482,36.50383352388795,0.0,0.0,7.163036836087749,3.5815184180438746,63.12602499862605,0.0,1.0,177.9846659044482,1,48.0,0.0
SKU_005,1,40.01533409555179,0.0,210.4846659044482,48.0,0.0,0.0,7.163036836087749,3.5815184180438746,63.12602499862605,0.12053668025532305,0.992708874098054,32.5,1,58.0,0.0
SKU_005,2,0.0,0.0,237.0,53.0,9.999999999999996,5.0,7.163036836087749,3.5815184180438746,63.12602499862605,0.23931566428755774,0.970941817426052,26.515334095551793,1,46.0,5.984665904448207
SKU_005,3,0.0,0.0,237.0,50.666666666666664,-1.0000000000000038,5.2493385826745405,7.163036836087749,3.5815184180438746,63.12602499862605,0.3546048870425356,0.9350162426854148,0.0,0,32.0,32.0
SKU_005,4,146.9846659044482,0.0,91.5153340955518,46.0,-5.999999999999996,9.273618495495704,7.163036836087749,3.5815184180438746,63.12602499862605,0.4647231720437685,0.8854560256532099,32.5,1,31.0,0.0
SKU_005,5,130.4846659044482,0.0,124.5153340955518,43.0,-6.000000000000007,10.237187113655782,7.163036836087749,3.5815184180438746,63.12602499862605,0.5680647467311558,0.8229838658936564,65.5,1,49.0,0.0
SKU_005,6,121.0,0.0,104.0,44.0,-2.571428571428573,9.60902353693305,7.163036836087749,3.5815184180438746,63.12602499862605,0.6631226582407952,0.7485107481711011,6.0,1,36.0,0.0
SKU_005,7,78.0,0.0,150.0,42.857142857142854,-2.464285714285716,9.326284996542551,7.163036836087749,3.5815184180438746,63.12602499862605,0.7485107481711011,0.6631226582407953,46.0,1,43.0,0.0
SKU_005,8,68.5,0.0,134.0,42.875,-1.6309523809523812,8.72406871820712,7.163036836087749,3.5815184180438746,63.12602499862605,0.8229838658936564,0.5680647467311559,16.5,1,42.0,0.0
SKU_005,9,105.0,0.0,91.5,42.125,-1.1547619047619053,8.506431390424542,7.163036836087749,3.5815184180438746,63.12602499862605,0.8854560256532099,0.4647231720437686,23.0,1,29.0,0.0
SKU_005,10,73.0,0.0,126.5,38.5,-0.547619047619047,7.0178344238090995,7.163036836087749,3.5815184180438746,63.12602499862605,0.9350162426854148,0.35460488704253557,41.0,1,38.0,0.0
SKU_005,11,93.0,0.0,80.5,37.5,0.21428571428571297,6.422616289332565,7.163036836087749,3.5815184180438746,63.12602499862605,0.970941817426052,0.23931566428755804,0.0,0,26.0,0.0
SKU_005,12,71.5,0.0,98.0,36.75,-1.3333333333333341,7.310095758606723,7.163036836087749,3.5815184180438746,63.12602499862605,0.992708874098054,0.120536680255323,34.0,1,38.0,0.0
SKU_005,13,63.5,0.0,97.0,37.625,-1.8452380952380971,6.981001002721601,7.163036836087749,3.5815184180438746,63.12602499862605,1.0,-1.6081226496766366e-16,22.0,1,31.0,0.0
SKU_005,14,85.5,0.0,56.0,35.375,-1.17857142857143,5.743202503830071,7.163036836087749,3.5815184180438746,63.12602499862605,0.992708874098054,-0.12053668025532288,0.0,0,19.0,0.0
SKU_005,15,60.5,0.0,101.5,33.25,-2.4761904761904767,7.870038119348597,7.163036836087749,3.5815184180438746,63.12602499862605,0.9709418174260521,-0.2393156642875575,45.5,1,25.0,0.0
SKU_005,16,62.5,0.0,105.5,31.0,-2.11904761904762,7.314369419163897,7.163036836087749,3.5815184180438746,63.12602499862605,0.9350162426854148,-0.35460488704253545,38.0,1,32.0,0.0
SKU_005,17,67.5,0.0,91.5,29.75,-0.8571428571428583,6.077622890571609,7.163036836087749,3.5815184180438746,63.12602499862605,0.8854560256532099,-0.4647231720437685,8.0,1,17.0,0.0
SKU_005,18,33.5,0.0,145.0,28.25,-2.000000000000001,7.411983540186797,7.163036836087749,3.5815184180438746,63.12602499862605,0.8229838658936565,-0.5680647467311557,53.5,1,34.0,0.0
SKU_005,19,50.0,0.0,130.0,27.75,-0.4761904761904779,6.85109480302236,7.163036836087749,3.5815184180438746,63.12602499862605,0.7485107481711013,-0.663122658240795,30.5,1,29.0,0.0
SKU_005,20,62.0,0.0,110.5,28.125,-0.5595238095238108,6.827105902210687,7.163036836087749,3.5815184180438746,63.12602499862605,0.6631226582407952,-0.7485107481711012,18.5,1,26.0,0.0
SKU_005,21,40.0,0.0,149.0,26.625,0.3214285714285715,5.721396245672904,7.163036836087749,3.5815184180438746,63.12602499862605,0.5680647467311558,-0.8229838658936564,46.5,1,30.0,0.0
SKU_005,22,58.5,0.0,124.5,26.5,1.0714285714285703,5.634713834792322,7.163036836087749,3.5815184180438746,63.12602499862605,0.46472317204376906,-0.8854560256532096,29.0,1,35.0,0.0
SKU_005,23,65.0,0.0,115.0,28.5,0.9761904761904764,5.454356057317857,7.163036836087749,3.5815184180438746,63.12602499862605,0.35460488704253584,-0.9350162426854147,21.0,1,24.0,0.0
SKU_005,24,46.5,0.0,160.5,28.375,0.2261904761904757,5.543859215384171,7.163036836087749,3.5815184180438746,63.12602499862605,0.23931566428755768,-0.970941817426052,64.0,1,37.0,0.0
SKU_005,25,67.0,0.0,141.5,29.0,1.333333333333332,6.164414002968976,7.163036836087749,3.5815184180438746,63.12602499862605,0.12053668025532308,-0.992708874098054,27.5,1,26.0,0.0
SKU_005,26,63.0,0.0,157.5,30.125,-0.202380952380951,4.456385867493972,7.163036836087749,3.5815184180438746,63.12602499862605,-3.216245299353273e-16,-1.0,45.0,1,33.0,0.0
SKU_005,27,42.0,0.0,168.0,30.0,0.45238095238095355,4.358898943540674,7.163036836087749,3.5815184180438746,63.12602499862605,-0.12053668025532283,-0.992708874098054,31.5,1,42.0,0.0
SKU_005,28,68.0,0.0,151.0,31.625,1.3452380952380931,5.851014869234225,7.163036836087749,3.5815184180438746,63.12602499862605,-0.23931566428755743,-0.9709418174260521,47.0,1,38.0,0.0
SKU_005,29,61.5,0.0,172.5,33.125,1.2738095238095235,5.754074643241952,7.163036836087749,3.5815184180438746,63.12602499862605,-0.3546048870425356,-0.9350162426854148,49.0,1,34.0,0.0
SKU_005,30,80.5,0.0,162.5,33.625,1.0119047619047619,5.633327169621874,7.163036836087749,3.5815184180438746,63.12602499862605,-0.46472317204376806,-0.8854560256532101,35.0,1,26.0,0.0
SKU_005,31,64.0,0.0,206.0,32.5,0.5238095238095216,6.123724356957945,7.163036836087749,3.5815184180438746,63.12602499862605,-0.5680647467311556,-0.8229838658936566,75.0,1,48.0,0.0
SKU_005,32,63.0,0.0,214.5,35.5,0.9047619047619029,7.035623639735144,7.163036836087749,3.5815184180438746,63.12602499862605,-0.663122658240795,-0.7485107481711013,55.5,1,48.0,0.0
SKU_005,33,72.0,0.0,235.5,36.875,2.1071428571428563,8.176758220713145,7.163036836087749,3.5815184180438746,63.12602499862605,-0.7485107481711011,-0.6631226582407952,70.0,1,40.0,0.0
SKU_005,34,63.0,0.0,252.0,38.625,1.2023809523809534,7.087621251167418,7.163036836087749,3.5815184180438746,63.12602499862605,-0.8229838658936564,-0.5680647467311559,51.5,1,44.0,0.0
SKU_005,35,85.0,0.0,236.0,40.0,1.047619047619047,6.928203230275509,7.163036836087749,3.5815184180438746,63.12602499862605,-0.8854560256532096,-0.4647231720437691,59.0,1,53.0,0.0
SKU_005,36,72.5,0.0,232.0,41.375,2.3452380952380945,8.169111028747253,7.163036836087749,3.5815184180438746,63.12602499862605,-0.9350162426854147,-0.3546048870425359,51.5,1,68.0,0.0
SKU_005,37,97.5,0.0,162.0,45.125,4.2023809523809526,11.826215582340785,7.163036836087749,3.5815184180438746,63.12602499862605,-0.970941817426052,-0.23931566428755774,0.0,0,45.0,0.0
SKU_005,38,101.0,0.0,145.0,46.5,2.999999999999996,11.067971810589327,7.163036836087749,3.5815184180438746,63.12602499862605,-0.992708874098054,-0.12053668025532357,34.5,1,48.0,0.0
SKU_005,39,118.0,0.0,134.0,49.25,0.9285714285714265,7.917543811056558,7.163036836087749,3.5815184180438746,63.12602499862605,-1.0,-1.8369701987210297e-16,48.0,1,42.0,0.0
SKU_005,40,138.5,0.0,130.0,48.5,0.19047619047618794,8.276472678623424,7.163036836087749,3.5815184180438746,63.12602499862605,-0.992708874098054,0.1205366802553232,47.5,1,31.0,0.0
SKU_005,41,95.5,0.0,203.0,46.375,-1.3214285714285707,10.111101572034572,7.163036836087749,3.5815184180438746,63.12602499862605,-0.9709418174260521,0.23931566428755738,73.0,1,43.0,0.0
SKU_005,42,78.0,0.0,240.0,46.75,-2.2857142857142887,9.921567416492215,7.163036836087749,3.5815184180438746,63.12602499862605,-0.9350162426854148,0.35460488704253557,71.5,1,52.0,0.0
SKU_005,43,73.0,0.0,251.0,47.75,-2.14285714285715,9.996874511566103,7.163036836087749,3.5815184180438746,63.12602499862605,-0.8854560256532101,0.464723172043768,59.0,1,53.0,0.0
SKU_005,44,69.5,0.0,235.0,47.75,-1.1428571428571423,9.996874511566103,7.163036836087749,3.5815184180438746,63.12602499862605,-0.822983865893657,0.5680647467311548,31.5,1,51.0,0.0
SKU_005,45,86.5,0.0,230.0,45.625,1.2976190476190457,6.744210480108105,7.163036836087749,3.5815184180438746,63.12602499862605,-0.7485107481711011,0.6631226582407952,68.0,1,56.0,0.0
SKU_005,46,102.0,0.0,187.5,47.0,2.095238095238093,7.54983443527075,7.163036836087749,3.5815184180438746,63.12602499862605,-0.6631226582407955,0.7485107481711007,29.0,1,56.0,0.0
SKU_005,47,121.0,0.0,165.5,48.0,2.9523809523809517,8.12403840463596,7.163036836087749,3.5815184180438746,63.12602499862605,-0.5680647467311559,0.8229838658936564,37.0,1,40.0,0.0
SKU_005,48,93.5,0.0,220.89999999999998,47.75,1.6428571428571426,8.332916656249479,7.163036836087749,3.5815184180438746,63.12602499862605,-0.4647231720437684,0.88545602565321,86.89999999999998,1,59.0,0.0
SKU_005,49,123.5,0.0,152.89999999999998,51.25,0.785714285714282,6.15934249737746,7.163036836087749,3.5815184180438746,63.12602499862605,-0.35460488704253595,0.9350162426854147,0.0,0,38.0,0.0
SKU_005,50,98.5,0.0,123.89999999999998,50.625,-1.2023809523809545,7.140334375923861,7.163036836087749,3.5815184180438746,63.12602499862605,-0.2393156642875578,0.970941817426052,0.0,0,54.0,0.0
SKU_005,51,66.5,0.0,89.5,50.875,-0.7738095238095262,7.218682358990455,7.163036836087749,3.5815184180438746,63.12602499862605,-0.12053668025532363,0.992708874098054,2.6000000000000227,1,69.0,0.0
SKU_006,0,475.7337306586903,0.0,136.26626934130968,159.18343266467258,0.0,0.0,3.288944231641919,1.6444721158209594,48.32664850061841,0.0,1.0,136.26626934130968,1,161.0,0.0
SKU_006,1,315.7337306586903,0.0,239.76626934130968,161.0,0.0,0.0,3.288944231641919,1.6444721158209594,48.32664850061841,0.12053668025532305,0.992708874098054,103.5,1,160.0,0.0
SKU_006,2,333.0,0.0,190.5,160.5,-1.0000000000000298,0.5,3.288944231641919,1.6444721158209594,48.32664850061841,0.23931566428755774,0.970941817426052,87.0,1,119.0,0.0
SKU_006,3,294.5,0.0,234.0,146.66666666666666,-20.999999999999986,19.567546828585563,3.288944231641919,1.6444721158209594,48.32664850061841,0.3546048870425356,0.9350162426854148,147.0,1,142.0,0.0
SKU_006,4,249.5,0.0,245.5,145.5,-9.800000000000013,17.066048165876012,3.288944231641919,1.6444721158209594,48.32664850061841,0.4647231720437685,0.8854560256532099,98.5,1,132.0,0.0
SKU_006,5,264.5,0.0,198.5,142.8,-7.599999999999999,16.191355718407276,3.288944231641919,1.6444721158209594,48.32664850061841,0.5680647467311558,0.8229838658936564,100.0,1,132.0,0.0
SKU_006,6,260.0,0.0,166.0,141.0,-5.885714285714278,15.31883372410141,3.288944231641919,1.6444721158209594,48.32664850061841,0.6631226582407952,0.7485107481711011,66.0,1,103.0,0.0
SKU_006,7,265.0,0.0,197.5,135.57142857142858,-7.750000000000006,19.441172384233145,3.288944231641919,1.6444721158209594,48.32664850061841,0.7485107481711011,0.6631226582407953,131.5,1,95.0,0.0
SKU_006,8,205.0,0.0,307.0,130.5,-8.54761904761905,22.599778759979046,3.288944231641919,1.6444721158209594,48.32664850061841,0.8229838658936564,0.5680647467311559,175.5,1,126.0,0.0
SKU_006,9,204.5,0.0,313.5,126.125,-5.654761904761898,19.438605274041652,3.288944231641919,1.6444721158209594,48.32664850061841,0.8854560256532099,0.4647231720437686,138.0,1,132.0,0.0
SKU_006,10,250.0,0.0,251.0,122.625,-1.535714285714289,15.0493978284847,3.288944231641919,1.6444721158209594,48.32664850061841,0.9350162426854148,0.35460488704253557,113.0,1,130.0,0.0
SKU_006,11,268.0,0.0,234.5,124.0,-1.3095238095238106,15.157506391224118,3.288944231641919,1.6444721158209594,48.32664850061841,0.970941817426052,0.23931566428755804,121.5,1,120.0,0.0
SKU_006,12,251.0,0.0,254.5,121.25,0.2857142857142873,13.5531361684298,3.288944231641919,1.6444721158209594,48.32664850061841,0.992708874098054,0.120536680255323,133.0,1,130.0,0.0
SKU_006,13,250.5,0.0,259.5,121.0,2.166666666666664,13.369741957120938,3.288944231641919,1.6444721158209594,48.32664850061841,1.0,-1.6081226496766366e-16,126.5,1,122.0,0.0
SKU_006,14,250.5,0.0,268.0,119.75,3.4285714285714204,12.735285626950029,3.288944231641919,1.6444721158209594,48.32664850061841,0.992708874098054,-0.12053668025532288,141.5,1,133.0,0.0
SKU_006,15,255.0,0.0,250.5,123.5,2.7380952380952377,11.61895003862225,3.288944231641919,1.6444721158209594,48.32664850061841,0.9709418174260521,-0.2393156642875575,109.0,1,122.0,0.0
SKU_006,16,263.5,0.0,263.5,126.875,-0.4404761904761982,4.728570079844435,3.288944231641919,1.6444721158209594,48.32664850061841,0.9350162426854148,-0.35460488704253545,154.5,1,133.0,0.0
SKU_006,17,233.5,0.0,264.0,127.75,-0.023809523809529453,5.11737237261468,3.288944231641919,1.6444721158209594,48.32664850061841,0.8854560256532099,-0.4647231720437685,109.5,1,139.0,0.0
SKU_006,18,281.0,0.0,210.0,128.625,1.3690476190476202,6.243746871871088,3.288944231641919,1.6444721158209594,48.32664850061841,0.8229838658936565,-0.5680647467311557,100.5,1,107.0,0.0
SKU_006,19,259.5,0.0,282.0,125.75,-0.28571428571428964,9.430668056930008,3.288944231641919,1.6444721158209594,48.32664850061841,0.7485107481711013,-0.663122658240795,181.5,1,131.0,0.0
SKU_006,20,234.0,0.0,333.5,127.125,-0.46428571428572407,9.29297449689818,3.288944231641919,1.6444721158209594,48.32664850061841,0.6631226582407952,-0.7485107481711012,152.0,1,126.0,0.0
SKU_006,21,273.5,0.0,346.5,126.625,-0.24999999999999967,9.23224647634583,3.288944231641919,1.6444721158209594,48.32664850061841,0.5680647467311558,-0.8229838658936564,194.5,1,142.0,0.0
SKU_006,22,255.5,0.0,391.0,129.125,0.5357142857142794,10.288798520721455,3.288944231641919,1.6444721158209594,48.32664850061841,0.46472317204376906,-0.8854560256532096,196.5,1,170.0,0.0
SKU_006,23,289.0,0.0,335.5,133.75,4.357142857142846,17.07154064517904,3.288944231641919,1.6444721158209594,48.32664850061841,0.35460488704253584,-0.9350162426854147,139.0,1,161.0,0.0
SKU_006,24,342.5,0.0,275.5,138.625,5.369047619047611,18.526585627146737,3.288944231641919,1.6444721158209594,48.32664850061841,0.23931566428755768,-0.970941817426052,136.5,1,143.0,0.0
SKU_006,25,324.5,0.0,334.0,139.875,5.130952380952375,18.442054522205492,3.288944231641919,1.6444721158209594,48.32664850061841,0.12053668025532308,-0.992708874098054,197.5,1,157.0,0.0
SKU_006,26,281.0,0.0,388.0,142.125,6.464285714285711,19.277172380823906,3.288944231641919,1.6444721158209594,48.32664850061841,-3.216245299353273e-16,-1.0,190.5,1,180.0,0.0
SKU_006,27,322.5,0.0,318.5,151.25,5.857142857142852,17.704166176355216,3.288944231641919,1.6444721158209594,48.32664850061841,-0.12053668025532283,-0.992708874098054,128.0,1,156.0,0.0
SKU_006,28,363.0,0.0,328.5,154.375,4.083333333333322,15.976056303105594,3.288944231641919,1.6444721158209594,48.32664850061841,-0.23931566428755743,-0.9709418174260521,200.5,1,150.0,0.0
SKU_006,29,311.0,0.0,423.0,157.375,0.678571428571414,12.16488286010186,3.288944231641919,1.6444721158209594,48.32664850061841,-0.3546048870425356,-0.9350162426854148,222.5,1,180.0,0.0
SKU_006,30,327.5,0.0,451.5,162.125,0.9166666666666684,12.643550727544854,3.288944231641919,1.6444721158209594,48.32664850061841,-0.46472317204376806,-0.8854560256532101,229.0,1,184.0,0.0
SKU_006,31,341.0,0.0,419.0,163.875,3.5833333333333277,14.451967859084105,3.288944231641919,1.6444721158209594,48.32664850061841,-0.5680647467311556,-0.8229838658936566,190.0,1,209.0,0.0
SKU_006,32,403.0,0.0,369.0,169.875,7.035714285714272,20.648471493066985,3.288944231641919,1.6444721158209594,48.32664850061841,-0.663122658240795,-0.7485107481711013,179.0,1,167.0,0.0
SKU_006,33,381.0,0.0,412.5,172.875,3.9166666666666647,18.113789636627672,3.288944231641919,1.6444721158209594,48.32664850061841,-0.7485107481711011,-0.6631226582407952,233.5,1,212.0,0.0
SKU_006,34,380.0,0.0,438.0,179.75,5.476190476190464,20.99255820523073,3.288944231641919,1.6444721158209594,48.32664850061841,-0.8229838658936564,-0.5680647467311559,204.5,1,180.0,0.0
SKU_006,35,386.5,0.0,441.0,179.75,5.523809523809515,20.99255820523073,3.288944231641919,1.6444721158209594,48.32664850061841,-0.8854560256532096,-0.4647231720437691,236.5,1,227.0,0.0
SKU_006,36,407.0,0.0,410.0,188.625,6.916666666666658,23.88481473656432,3.288944231641919,1.6444721158209594,48.32664850061841,-0.9350162426854147,-0.3546048870425359,173.5,1,184.0,0.0
SKU_006,37,412.5,0.0,453.5,192.875,2.3928571428571326,19.199202457393902,3.288944231641919,1.6444721158209594,48.32664850061841,-0.970941817426052,-0.23931566428755774,280.0,1,231.0,0.0
SKU_006,38,395.0,0.0,422.0,199.25,4.19047619047618,22.111931168489107,3.288944231641919,1.6444721158209594,48.32664850061841,-0.992708874098054,-0.12053668025532357,142.0,1,191.0,0.0
SKU_006,39,477.0,0.0,434.0,200.125,1.8690476190476055,21.624277444576038,3.288944231641919,1.6444721158209594,48.32664850061841,-1.0,-1.8369701987210297e-16,292.0,1,198.0,0.0
SKU_006,40,351.0,0.0,552.0,198.75,2.6428571428571344,21.364397955477237,3.288944231641919,1.6444721158209594,48.32664850061841,-0.992708874098054,0.1205366802553232,260.0,1,268.0,0.0
SKU_006,41,444.0,0.0,379.0,211.375,5.01190476190475,27.757600310545577,3.288944231641919,1.6444721158209594,48.32664850061841,-0.9709418174260521,0.23931566428755738,119.0,1,199.0,0.0
SKU_006,42,479.0,0.0,323.0,209.75,4.047619047619036,28.052406313897567,3.288944231641919,1.6444721158209594,48.32664850061841,-0.9350162426854148,0.35460488704253557,204.0,1,225.0,0.0
SKU_006,43,418.0,0.0,334.5,215.375,2.13095238095237,25.956393721008318,3.288944231641919,1.6444721158209594,48.32664850061841,-0.8854560256532101,0.464723172043768,130.5,1,180.0,0.0
SKU_006,44,428.0,0.0,325.5,209.5,0.4285714285714231,27.906092524751653,3.288944231641919,1.6444721158209594,48.32664850061841,-0.822983865893657,0.5680647467311548,195.0,1,194.0,0.0
SKU_006,45,363.5,0.0,375.5,210.75,-3.5952380952381002,26.94322734937298,3.288944231641919,1.6444721158209594,48.32664850061841,-0.7485107481711011,0.6631226582407952,180.5,1,195.0,0.0
SKU_006,46,370.5,0.0,319.0,206.25,-2.738095238095244,26.180861330368792,3.288944231641919,1.6444721158209594,48.32664850061841,-0.6631226582407955,0.7485107481711007,138.5,1,188.0,0.0
SKU_006,47,399.0,0.0,283.5,205.875,-5.89285714285716,26.417028125813093,3.288944231641919,1.6444721158209594,48.32664850061841,-0.5680647467311559,0.8229838658936564,145.0,1,152.0,0.0
SKU_006,48,360.5,0.0,364.29999999999995,200.125,-11.226190476190471,31.935237199682735,3.288944231641919,1.6444721158209594,48.32664850061841,-0.4647231720437684,0.88545602565321,219.29999999999995,1,177.0,0.0
SKU_006,49,323.5,0.0,391.70000000000005,188.75,-5.880952380952385,19.530424982575266,3.288944231641919,1.6444721158209594,48.32664850061841,-0.35460488704253595,0.9350162426854147,172.4000000000001,1,182.0,0.0
SKU_006,50,346.79999999999995,0.0,369.20000000000005,186.625,-5.3452380952380985,19.221976355203438,3.288944231641919,1.6444721158209594,48.32664850061841,-0.2393156642875578,0.970941817426052,196.79999999999995,1,196.0,0.0
SKU_006,51,348.20000000000005,0.0,196.79999999999995,183.0,-0.4523809523809612,13.536986370680884,3.288944231641919,1.6444721158209594,48.32664850061841,-0.12053668025532363,0.992708874098054,0.0,0,171.0,0.0
SKU_007,0,45.30231366719826,0.0,127.19768633280174,18.825578416799566,0.0,0.0,7.721297523680014,3.860648761840007,61.27938404189403,0.0,1.0,127.19768633280174,1,30.0,0.0
SKU_007,1,20.302313667198263,0.0,155.19768633280174,30.0,0.0,0.0,7.721297523680014,3.860648761840007,61.27938404189403,0.12053668025532305,0.992708874098054,28.0,1,25.0,0.0
SKU_007,2,0.0,0.0,175.5,27.5,-5.000000000000002,2.5,7.721297523680014,3.860648761840007,61.27938404189403,0.23931566428755774,0.970941817426052,20.302313667198263,1,30.0,9.697686332801737
SKU_007,3,0.0,0.0,175.5,28.333333333333332,-1.4632597254126373e-16,2.3570226039551585,7.721297523680014,3.860648761840007,61.27938404189403,0.3546048870425356,0.9350162426854148,0.0,0,30.0,30.0
SKU_007,4,95.19768633280174,0.0,54.80231366719826,28.75,0.500000000000001,2.165063509461097,7.721297523680014,3.860648761840007,61.27938404189403,0.4647231720437685,0.8854560256532099,6.5,1,32.0,0.0
SKU_007,5,98.19768633280174,0.0,36.80231366719826,29.4,0.8999999999999976,2.3323807579381204,7.721297523680014,3.860648761840007,61.27938404189403,0.5680647467311558,0.8229838658936564,10.0,1,25.0,0.0
SKU_007,6,97.5,0.0,28.5,28.666666666666668,-0.11428571428571489,2.6874192494328497,7.721297523680014,3.860648761840007,61.27938404189403,0.6631226582407952,0.7485107481711011,12.0,1,21.0,0.0
SKU_007,7,75.5,0.0,49.0,27.571428571428573,-0.8928571428571438,3.6589281356759136,7.721297523680014,3.860648761840007,61.27938404189403,0.7485107481711011,0.6631226582407953,20.5,1,22.0,0.0
SKU_007,8,60.0,0.0,67.5,26.875,-1.0595238095238098,3.887077951366553,7.721297523680014,3.860648761840007,61.27938404189403,0.8229838658936564,0.5680647467311559,25.0,1,22.0,0.0
SKU_007,9,51.0,0.0,81.0,25.875,-1.1309523809523825,3.9823830805184977,7.721297523680014,3.860648761840007,61.27938404189403,0.8854560256532099,0.4647231720437686,23.5,1,19.0,0.0
SKU_007,10,43.0,0.0,89.0,25.125,-1.7976190476190483,4.594493987372276,7.721297523680014,3.860648761840007,61.27938404189403,0.9350162426854148,0.35460488704253557,20.0,1,20.0,0.0
SKU_007,11,39.5,0.0,94.0,23.875,-1.7023809523809528,4.456385867493972,7.721297523680014,3.860648761840007,61.27938404189403,0.970941817426052,0.23931566428755804,25.5,1,24.0,0.0
SKU_007,12,39.5,0.0,80.5,23.125,-1.0357142857142874,3.822221212855164,7.721297523680014,3.860648761840007,61.27938404189403,0.992708874098054,0.120536680255323,11.5,1,25.0,0.0
SKU_007,13,44.0,0.0,71.5,22.25,0.07142857142857194,2.1065374432940898,7.721297523680014,3.860648761840007,61.27938404189403,1.0,-1.6081226496766366e-16,14.5,1,19.0,0.0
SKU_007,14,43.0,0.0,75.5,21.5,0.09523809523809493,2.0615528128088303,7.721297523680014,3.860648761840007,61.27938404189403,0.992708874098054,-0.12053668025532288,24.0,1,21.0,0.0
SKU_007,15,53.5,0.0,78.5,21.5,7.927809917439488e-16,2.0615528128088303,7.721297523680014,3.860648761840007,61.27938404189403,0.9709418174260521,-0.2393156642875575,28.5,1,15.0,0.0
SKU_007,16,43.0,0.0,78.5,20.625,-0.4880952380952378,2.9553976043842223,7.721297523680014,3.860648761840007,61.27938404189403,0.9350162426854148,-0.35460488704253545,11.5,1,22.0,0.0
SKU_007,17,36.5,0.0,80.5,20.625,-0.22619047619047666,2.9553976043842223,7.721297523680014,3.860648761840007,61.27938404189403,0.8854560256532099,-0.4647231720437685,16.5,1,21.0,0.0
SKU_007,18,30.5,0.0,79.0,20.875,-0.3690476190476206,2.8912583765550943,7.721297523680014,3.860648761840007,61.27938404189403,0.8229838658936565,-0.5680647467311557,22.5,1,30.0,0.0
SKU_007,19,51.0,0.0,50.5,22.125,0.29761904761904673,4.136348026943574,7.721297523680014,3.860648761840007,61.27938404189403,0.7485107481711013,-0.663122658240795,0.0,0,8.0,0.0
SKU_007,20,43.5,0.0,57.0,20.125,-0.6785714285714289,6.13264828601804,7.721297523680014,3.860648761840007,61.27938404189403,0.6631226582407952,-0.7485107481711012,18.0,1,19.0,0.0
SKU_007,21,44.0,0.0,47.5,19.375,-0.24999999999999978,5.851014869234225,7.721297523680014,3.860648761840007,61.27938404189403,0.5680647467311558,-0.8229838658936564,7.0,1,16.0,0.0
SKU_007,22,51.5,0.0,37.0,19.0,-0.5714285714285725,5.958187643906492,7.721297523680014,3.860648761840007,61.27938404189403,0.46472317204376906,-0.8854560256532096,12.0,1,15.0,0.0
SKU_007,23,34.5,0.0,49.5,18.25,-0.6904761904761919,6.036348233824818,7.721297523680014,3.860648761840007,61.27938404189403,0.35460488704253584,-0.9350162426854147,12.5,1,17.0,0.0
SKU_007,24,39.5,0.0,38.5,18.5,-1.1428571428571432,5.937171043518958,7.721297523680014,3.860648761840007,61.27938404189403,0.23931566428755768,-0.970941817426052,7.0,1,13.0,0.0
SKU_007,25,32.5,0.0,39.5,17.375,-1.2261904761904767,6.019499563917253,7.721297523680014,3.860648761840007,61.27938404189403,0.12053668025532308,-0.992708874098054,8.0,1,14.0,0.0
SKU_007,26,32.5,0.0,42.5,16.5,-1.1190476190476177,5.937171043518958,7.721297523680014,3.860648761840007,61.27938404189403,-3.216245299353273e-16,-1.0,15.0,1,12.0,0.0
SKU_007,27,32.0,0.0,47.5,14.25,-0.047619047619047825,3.152380053229623,7.721297523680014,3.860648761840007,61.27938404189403,-0.12053668025532283,-0.992708874098054,17.5,1,13.0,0.0
SKU_007,28,30.0,0.0,66.0,14.875,-0.8214285714285721,2.2043990110685496,7.721297523680014,3.860648761840007,61.27938404189403,-0.23931566428755743,-0.9709418174260521,25.5,1,9.0,0.0
SKU_007,29,22.0,0.0,86.0,13.625,-0.8690476190476205,2.341874249399399,7.721297523680014,3.860648761840007,61.27938404189403,-0.3546048870425356,-0.9350162426854148,28.0,1,16.0,0.0
SKU_007,30,22.0,0.0,95.0,13.625,-0.4166666666666684,2.341874249399399,7.721297523680014,3.860648761840007,61.27938404189403,-0.46472317204376806,-0.8854560256532101,24.0,1,15.0,0.0
SKU_007,31,15.5,0.0,100.0,13.625,-0.1547619047619055,2.341874249399399,7.721297523680014,3.860648761840007,61.27938404189403,-0.5680647467311556,-0.8229838658936566,22.5,1,24.0,0.0
SKU_007,32,24.0,0.0,78.0,14.5,1.071428571428571,4.092676385936225,7.721297523680014,3.860648761840007,61.27938404189403,-0.663122658240795,-0.7485107481711013,3.5,1,17.0,0.0
SKU_007,33,30.0,0.0,66.0,15.0,1.1190476190476188,4.123105625617661,7.721297523680014,3.860648761840007,61.27938404189403,-0.7485107481711011,-0.6631226582407952,16.0,1,22.0,0.0
SKU_007,34,40.0,0.0,53.0,16.0,1.5952380952380953,4.69041575982343,7.721297523680014,3.860648761840007,61.27938404189403,-0.8229838658936564,-0.5680647467311559,11.0,1,14.0,0.0
SKU_007,35,47.5,0.0,57.5,16.25,1.0,4.520785330006281,7.721297523680014,3.860648761840007,61.27938404189403,-0.8854560256532096,-0.4647231720437691,27.0,1,15.0,0.0
SKU_007,36,38.0,0.0,74.5,16.5,0.547619047619047,4.387482193696061,7.721297523680014,3.860648761840007,61.27938404189403,-0.9350162426854147,-0.3546048870425359,20.5,1,13.0,0.0
SKU_007,37,34.0,0.0,87.5,17.0,-0.5476190476190473,3.6742346141747673,7.721297523680014,3.860648761840007,61.27938404189403,-0.970941817426052,-0.23931566428755774,29.0,1,20.0,0.0
SKU_007,38,23.0,0.0,92.5,17.5,-0.4047619047619059,3.774917217635375,7.721297523680014,3.860648761840007,61.27938404189403,-0.992708874098054,-0.12053668025532357,16.0,1,22.0,0.0
SKU_007,39,30.0,0.0,78.0,18.375,-0.29761904761904795,3.9031237489989987,7.721297523680014,3.860648761840007,61.27938404189403,-1.0,-1.8369701987210297e-16,12.5,1,20.0,0.0
SKU_007,40,31.5,0.0,72.0,17.875,0.44047619047618897,3.370367190678191,7.721297523680014,3.860648761840007,61.27938404189403,-0.992708874098054,0.1205366802553232,14.5,1,19.0,0.0
SKU_007,41,44.5,0.0,54.5,18.125,0.440476190476189,3.370367190678191,7.721297523680014,3.860648761840007,61.27938404189403,-0.9709418174260521,0.23931566428755738,11.5,1,16.0,0.0
SKU_007,42,43.5,0.0,60.0,17.375,0.6785714285714286,3.07967124868873,7.721297523680014,3.860648761840007,61.27938404189403,-0.9350162426854148,0.35460488704253557,21.5,1,17.0,0.0
SKU_007,43,39.0,0.0,73.5,17.75,0.28571428571428414,2.817356917396161,7.721297523680014,3.860648761840007,61.27938404189403,-0.8854560256532101,0.464723172043768,26.0,1,17.0,0.0
SKU_007,44,37.5,0.0,79.5,18.0,-0.07142857142857245,2.6457513110645907,7.721297523680014,3.860648761840007,61.27938404189403,-0.822983865893657,0.5680647467311548,20.5,1,16.0,0.0
SKU_007,45,30.0,0.0,87.0,18.375,-0.7738095238095244,2.057759704144291,7.721297523680014,3.860648761840007,61.27938404189403,-0.7485107481711011,0.6631226582407952,19.0,1,19.0,0.0
SKU_007,46,28.5,0.0,99.0,18.25,-0.5476190476190488,1.984313483298443,7.721297523680014,3.860648761840007,61.27938404189403,-0.6631226582407955,0.7485107481711007,33.5,1,23.0,0.0
SKU_007,47,34.5,0.0,91.5,18.375,0.24999999999999895,2.2325713874364688,7.721297523680014,3.860648761840007,61.27938404189403,-0.5680647467311559,0.8229838658936564,18.5,1,20.0,0.0
SKU_007,48,39.0,0.0,73.80000000000001,18.375,0.5595238095238091,2.2325713874364688,7.721297523680014,3.860648761840007,61.27938404189403,-0.4647231720437684,0.88545602565321,2.8000000000000114,1,16.0,0.0
SKU_007,49,32.0,0.0,72.0,18.0,0.4285714285714273,2.345207879911715,7.721297523680014,3.860648761840007,61.27938404189403,-0.35460488704253595,0.9350162426854147,17.19999999999999,1,26.0,0.0
SKU_007,50,43.5,0.0,42.099999999999994,19.25,0.8809523809523797,3.3819373146171707,7.721297523680014,3.860648761840007,61.27938404189403,-0.2393156642875578,0.970941817426052,3.5999999999999943,1,22.0,0.0
SKU_007,51,46.0,0.0,23.599999999999994,19.875,0.8690476190476182,3.370367190678191,7.721297523680014,3.860648761840007,61.27938404189403,-0.12053668025532363,0.992708874098054,0.0,0,16.0,0.0
SKU_008,0,632.1530083125333,0.0,0.0,190.28825207813333,0.0,0.0,2.3066867764800003,1.1533433882400002,11.179901333601554,0.0,1.0,0.0,0,129.0,0.0
SKU_008,1,485.1530083125333,0.0,105.8469916874667,129.0,0.0,0.0,2.3066867764800003,1.1533433882400002,11.179901333601554,0.12053668025532305,0.992708874098054,105.8469916874667,1,147.0,0.0
SKU_008,2,447.0,0.0,159.0,138.0,17.999999999999986,9.0,2.3066867764800003,1.1533433882400002,11.179901333601554,0.23931566428755774,0.970941817426052,159.0,1,144.0,0.0
SKU_008,3,446.0,0.0,167.0,140.0,7.499999999999991,7.874007874011811,2.3066867764800003,1.1533433882400002,11.179901333601554,0.3546048870425356,0.9350162426854148,167.0,1,160.0,0.0
SKU_008,4,464.0,0.0,155.5,145.0,9.000000000000002,11.022703842524301,2.3066867764800003,1.1533433882400002,11.179901333601554,0.4647231720437685,0.8854560256532099,155.5,1,149.0,0.0
SKU_008,5,468.5,0.0,181.0,145.8,5.299999999999991,9.987992791347018,2.3066867764800003,1.1533433882400002,11.179901333601554,0.5680647467311558,0.8229838658936564,181.0,1,151.0,0.0
SKU_008,6,501.5,0.0,204.5,146.66666666666666,3.771428571428573,9.321420969406377,2.3066867764800003,1.1533433882400002,11.179901333601554,0.6631226582407952,0.7485107481711011,204.5,1,148.0,0.0
SKU_008,7,515.0,0.0,285.0,146.85714285714286,2.499999999999999,8.642561978430956,2.3066867764800003,1.1533433882400002,11.179901333601554,0.7485107481711011,0.6631226582407953,285.0,1,191.0,0.0
SKU_008,8,589.0,0.0,227.0,152.375,5.345238095238082,16.687851119901566,2.3066867764800003,1.1533433882400002,11.179901333601554,0.8229838658936564,0.5680647467311559,227.0,1,211.0,0.0
SKU_008,9,632.0,0.0,160.0,162.625,7.726190476190464,23.124324314452952,2.3066867764800003,1.1533433882400002,11.179901333601554,0.8854560256532099,0.4647231720437686,160.0,1,184.0,0.0
SKU_008,10,582.0,0.0,251.0,167.25,7.83333333333332,23.23655525244652,2.3066867764800003,1.1533433882400002,11.179901333601554,0.9350162426854148,0.35460488704253557,251.0,1,210.0,0.0
SKU_008,11,596.0,0.0,202.5,175.5,8.904761904761896,25.154522456210533,2.3066867764800003,1.1533433882400002,11.179901333601554,0.970941817426052,0.23931566428755804,202.5,1,237.0,0.0
SKU_008,12,633.5,0.0,97.0,185.125,12.369047619047608,31.35058811250596,2.3066867764800003,1.1533433882400002,11.179901333601554,0.992708874098054,0.120536680255323,97.0,1,165.0,0.0
SKU_008,13,570.5,0.0,254.5,187.125,6.821428571428559,29.43398333559357,2.3066867764800003,1.1533433882400002,11.179901333601554,1.0,-1.6081226496766366e-16,254.5,1,160.0,0.0
SKU_008,14,594.0,0.0,366.0,188.25,0.6904761904761805,28.17689656438409,2.3066867764800003,1.1533433882400002,11.179901333601554,0.992708874098054,-0.12053668025532288,366.0,1,231.0,0.0
SKU_008,15,705.0,0.0,242.5,198.625,-0.05952380952381261,26.68771955413201,2.3066867764800003,1.1533433882400002,11.179901333601554,0.9709418174260521,-0.2393156642875575,242.5,1,255.0,0.0
SKU_008,16,725.5,0.0,196.0,206.625,3.821428571428574,32.22164451110464,2.3066867764800003,1.1533433882400002,11.179901333601554,0.9350162426854148,-0.35460488704253545,196.0,1,222.0,0.0
SKU_008,17,681.5,0.0,227.5,208.0,5.5714285714285605,32.61134771824066,2.3066867764800003,1.1533433882400002,11.179901333601554,0.8854560256532099,-0.4647231720437685,227.5,1,240.0,0.0
SKU_008,18,685.0,0.0,224.0,215.0,5.666666666666657,32.71849629796577,2.3066867764800003,1.1533433882400002,11.179901333601554,0.8229838658936565,-0.5680647467311557,224.0,1,224.0,0.0
SKU_008,19,676.0,0.0,197.5,216.75,5.880952380952373,32.778613454507195,2.3066867764800003,1.1533433882400002,11.179901333601554,0.7485107481711013,-0.663122658240795,197.5,1,233.0,0.0
SKU_008,20,680.5,0.0,210.0,216.25,9.404761904761894,32.495191952041154,2.3066867764800003,1.1533433882400002,11.179901333601554,0.6631226582407952,-0.7485107481711012,210.0,1,193.0,0.0
SKU_008,21,636.5,0.0,304.0,219.75,1.976190476190456,27.98102035308934,2.3066867764800003,1.1533433882400002,11.179901333601554,0.5680647467311558,-0.8229838658936564,304.0,1,254.0,0.0
SKU_008,22,725.5,0.0,162.5,231.5,-1.5714285714286003,18.580904176062045,2.3066867764800003,1.1533433882400002,11.179901333601554,0.46472317204376906,-0.8854560256532096,162.5,1,215.0,0.0
SKU_008,23,663.0,0.0,287.0,229.5,-3.0000000000000133,19.371370627810517,2.3066867764800003,1.1533433882400002,11.179901333601554,0.35460488704253584,-0.9350162426854147,287.0,1,225.0,0.0
SKU_008,24,701.0,0.0,228.5,225.75,-0.642857142857152,16.80587694825831,2.3066867764800003,1.1533433882400002,11.179901333601554,0.23931566428755768,-0.970941817426052,228.5,1,249.0,0.0
SKU_008,25,722.5,0.0,215.0,229.125,0.8928571428571301,18.35372918510023,2.3066867764800003,1.1533433882400002,11.179901333601554,0.12053668025532308,-0.992708874098054,215.0,1,207.0,0.0
SKU_008,26,666.5,0.0,292.0,225.0,0.21428571428572374,19.13765920900464,2.3066867764800003,1.1533433882400002,11.179901333601554,-3.216245299353273e-16,-1.0,292.0,1,271.0,0.0
SKU_008,27,738.5,0.0,140.5,230.875,3.9404761904761907,24.415351215987044,2.3066867764800003,1.1533433882400002,11.179901333601554,-0.12053668025532283,-0.992708874098054,140.5,1,220.0,0.0
SKU_008,28,658.0,0.0,229.5,229.25,3.2619047619047654,24.651318423159438,2.3066867764800003,1.1533433882400002,11.179901333601554,-0.23931566428755743,-0.9709418174260521,229.5,1,221.0,0.0
SKU_008,29,664.5,0.0,216.0,232.75,-1.3095238095238193,20.96872671384698,2.3066867764800003,1.1533433882400002,11.179901333601554,-0.3546048870425356,-0.9350162426854148,216.0,1,223.0,0.0
SKU_008,30,668.5,0.0,223.5,228.875,0.15476190476189153,19.496393897333938,2.3066867764800003,1.1533433882400002,11.179901333601554,-0.46472317204376806,-0.8854560256532101,223.5,1,212.0,0.0
SKU_008,31,661.0,0.0,226.0,228.5,-2.7380952380952444,19.78635893740938,2.3066867764800003,1.1533433882400002,11.179901333601554,-0.5680647467311556,-0.8229838658936566,226.0,1,231.0,0.0
SKU_008,32,662.0,0.0,198.5,229.25,-2.9047619047619095,19.753164303473,2.3066867764800003,1.1533433882400002,11.179901333601554,-0.663122658240795,-0.7485107481711013,198.5,1,225.0,0.0
SKU_008,33,630.5,0.0,151.0,226.25,-1.1428571428571497,18.2944663764757,2.3066867764800003,1.1533433882400002,11.179901333601554,-0.7485107481711011,-0.6631226582407952,151.0,1,230.0,0.0
SKU_008,34,605.5,0.0,104.5,229.125,-2.8928571428571423,16.78866805318397,2.3066867764800003,1.1533433882400002,11.179901333601554,-0.8229838658936564,-0.5680647467311559,104.5,1,176.0,0.0
SKU_008,35,530.0,0.0,173.5,217.25,-2.8333333333333357,16.566155257029315,2.3066867764800003,1.1533433882400002,11.179901333601554,-0.8854560256532096,-0.4647231720437691,173.5,1,180.0,0.0
SKU_008,36,538.5,0.0,179.0,212.25,-5.6428571428571415,20.54111730164647,2.3066867764800003,1.1533433882400002,11.179901333601554,-0.9350162426854147,-0.3546048870425359,179.0,1,165.0,0.0
SKU_008,37,530.5,0.0,194.5,205.25,-8.64285714285714,25.346350822159785,2.3066867764800003,1.1533433882400002,11.179901333601554,-0.970941817426052,-0.23931566428755774,194.5,1,187.0,0.0
SKU_008,38,540.0,0.0,164.5,200.75,-8.26190476190476,24.988747467610295,2.3066867764800003,1.1533433882400002,11.179901333601554,-0.992708874098054,-0.12053668025532357,164.5,1,185.0,0.0
SKU_008,39,510.5,0.0,124.0,197.375,-8.369047619047628,25.064604026395468,2.3066867764800003,1.1533433882400002,11.179901333601554,-1.0,-1.8369701987210297e-16,124.0,1,194.0,0.0
SKU_008,40,494.5,0.0,49.0,192.75,-5.0476190476190474,21.608736659046034,2.3066867764800003,1.1533433882400002,11.179901333601554,-0.992708874098054,0.1205366802553232,49.0,1,140.0,0.0
SKU_008,41,411.5,0.0,125.0,182.125,-5.9880952380952355,23.91358139217127,2.3066867764800003,1.1533433882400002,11.179901333601554,-0.9709418174260521,0.23931566428755738,125.0,1,132.0,0.0
SKU_008,42,401.5,0.0,147.0,169.875,-5.0357142857142945,21.198098381694525,2.3066867764800003,1.1533433882400002,11.179901333601554,-0.9350162426854148,0.35460488704253557,147.0,1,135.0,0.0
SKU_008,43,412.5,0.0,134.5,164.75,-7.285714285714286,23.88383344440335,2.3066867764800003,1.1533433882400002,11.179901333601554,-0.8854560256532101,0.464723172043768,134.5,1,136.0,0.0
SKU_008,44,411.0,0.0,138.5,159.25,-8.047619047619051,24.787849846245237,2.3066867764800003,1.1533433882400002,11.179901333601554,-0.822983865893657,0.5680647467311548,138.5,1,136.0,0.0
SKU_008,45,401.5,0.0,162.5,155.625,-9.369047619047619,25.78244315420864,2.3066867764800003,1.1533433882400002,11.179901333601554,-0.7485107481711011,0.6631226582407952,162.5,1,148.0,0.0
SKU_008,46,434.0,0.0,87.0,150.75,-6.64285714285715,22.916969694966216,2.3066867764800003,1.1533433882400002,11.179901333601554,-0.6631226582407955,0.7485107481711007,87.0,1,130.0,0.0
SKU_008,47,404.0,0.0,174.5,143.875,-4.702380952380962,19.62420380550508,2.3066867764800003,1.1533433882400002,11.179901333601554,-0.5680647467311559,0.8229838658936564,174.5,1,117.0,0.0
SKU_008,48,401.5,0.0,164.89999999999998,134.25,-1.5714285714285796,8.287792227125388,2.3066867764800003,1.1533433882400002,11.179901333601554,-0.4647231720437684,0.88545602565321,164.89999999999998,1,177.0,0.0
SKU_008,49,442.4,0.0,114.39999999999998,138.875,2.607142857142852,16.480575687760425,2.3066867764800003,1.1533433882400002,11.179901333601554,-0.35460488704253595,0.9350162426854147,114.39999999999998,1,124.0,0.0
SKU_008,50,405.79999999999995,0.0,153.4000000000001,137.875,0.6309523809523762,17.098519672766997,2.3066867764800003,1.1533433882400002,11.179901333601554,-0.2393156642875578,0.970941817426052,153.4000000000001,1,151.0,0.0
SKU_008,51,426.20000000000005,0.0,0.0,139.875,1.4166666666666594,17.574395437681492,2.3066867764800003,1.1533433882400002,11.179901333601554,-0.12053668025532363,0.992708874098054,0.0,0,133.0,0.0
SKU_009,0,91.23080664485174,0.0,73.76919335514826,28.557701661212935,0.0,0.0,7.413967315961697,3.7069836579808486,33.93830807147022,0.0,1.0,73.76919335514826,1,23.0,0.0
SKU_009,1,67.23080664485174,0.0,103.76919335514826,23.0,0.0,0.0,7.413967315961697,3.7069836579808486,33.93830807147022,0.12053668025532305,0.992708874098054,30.0,1,24.0,0.0
SKU_009,2,33.23080664485174,0.0,139.26919335514827,23.5,0.9999999999999977,0.5,7.413967315961697,3.7069836579808486,33.93830807147022,0.23931566428755774,0.970941817426052,35.5,1,34.0,0.0
SKU_009,3,4.230806644851739,0.0,156.26919335514827,27.0,5.4999999999999964,4.96655480858378,7.413967315961697,3.7069836579808486,33.93830807147022,0.3546048870425356,0.9350162426854148,17.0,1,29.0,0.0
SKU_009,4,51.0,0.0,103.50000000000001,27.5,2.8000000000000016,4.387482193696061,7.413967315961697,3.7069836579808486,33.93830807147022,0.4647231720437685,0.8854560256532099,21.0,1,27.0,0.0
SKU_009,5,56.0,0.0,82.00000000000001,27.4,1.2999999999999974,3.9293765408777,7.413967315961697,3.7069836579808486,33.93830807147022,0.5680647467311558,0.8229838658936564,8.5,1,25.0,0.0
SKU_009,6,65.5,0.0,60.5,27.0,0.3999999999999975,3.696845502136472,7.413967315961697,3.7069836579808486,33.93830807147022,0.6631226582407952,0.7485107481711011,13.999999999999986,1,26.0,0.0
SKU_009,7,57.5,0.0,76.0,26.857142857142858,0.14285714285714202,3.4404555939406554,7.413967315961697,3.7069836579808486,33.93830807147022,0.7485107481711011,0.6631226582407953,32.5,1,25.0,0.0
SKU_009,8,62.5,0.0,71.0,26.625,-0.05952380952381101,3.276335605520289,7.413967315961697,3.7069836579808486,33.93830807147022,0.8229838658936564,0.5680647467311559,16.0,1,16.0,0.0
SKU_009,9,54.0,0.0,94.5,25.75,-1.3333333333333348,4.736823830374104,7.413967315961697,3.7069836579808486,33.93830807147022,0.8854560256532099,0.4647231720437686,32.0,1,17.0,0.0
SKU_009,10,36.999999999999986,0.0,111.50000000000001,24.875,-2.2500000000000013,5.555121510822243,7.413967315961697,3.7069836579808486,33.93830807147022,0.9350162426854148,0.35460488704253557,31.0,1,31.0,0.0
SKU_009,11,44.499999999999986,0.0,83.00000000000001,24.5,-0.7619047619047642,5.0,7.413967315961697,3.7069836579808486,33.93830807147022,0.970941817426052,0.23931566428755804,4.0,1,25.0,0.0
SKU_009,12,34.499999999999986,0.0,99.00000000000001,24.0,-0.23809523809523875,4.716990566028302,7.413967315961697,3.7069836579808486,33.93830807147022,0.992708874098054,0.120536680255323,32.0,1,26.0,0.0
SKU_009,13,49.499999999999986,0.0,79.50000000000001,23.875,0.24999999999999906,4.648588495446763,7.413967315961697,3.7069836579808486,33.93830807147022,1.0,-1.6081226496766366e-16,12.5,1,17.0,0.0
SKU_009,14,63.499999999999986,0.0,86.50000000000001,22.875,-0.20238095238095186,5.134138194478212,7.413967315961697,3.7069836579808486,33.93830807147022,0.992708874098054,-0.12053668025532288,38.0,1,17.0,0.0
SKU_009,15,38.499999999999986,0.0,119.00000000000001,21.75,-0.35714285714285693,5.3091901453988255,7.413967315961697,3.7069836579808486,33.93830807147022,0.9709418174260521,-0.2393156642875575,36.5,1,29.0,0.0
SKU_009,16,47.499999999999986,0.0,96.50000000000001,22.25,0.5952380952380948,5.7608593109014565,7.413967315961697,3.7069836579808486,33.93830807147022,0.9350162426854148,-0.35460488704253545,9.5,1,23.0,0.0
SKU_009,17,28.999999999999986,0.0,113.50000000000001,23.125,-0.011904761904763483,5.2544623892459255,7.413967315961697,3.7069836579808486,33.93830807147022,0.8854560256532099,-0.4647231720437685,29.5,1,31.0,0.0
SKU_009,18,44.999999999999986,0.0,105.00000000000001,24.875,-0.011904761904760953,5.2544623892459255,7.413967315961697,3.7069836579808486,33.93830807147022,0.8229838658936565,-0.5680647467311557,29.5,1,22.0,0.0
SKU_009,19,61.499999999999986,0.0,84.00000000000001,23.75,0.40476190476190455,4.763139720814412,7.413967315961697,3.7069836579808486,33.93830807147022,0.7485107481711013,-0.663122658240795,15.5,1,20.0,0.0
SKU_009,20,48.999999999999986,0.0,110.00000000000001,23.125,0.22619047619047541,4.88460592064498,7.413967315961697,3.7069836579808486,33.93830807147022,0.6631226582407952,-0.7485107481711012,35.5,1,22.0,0.0
SKU_009,21,42.499999999999986,0.0,122.50000000000001,22.625,0.4404761904761896,4.768057780690163,7.413967315961697,3.7069836579808486,33.93830807147022,0.5680647467311558,-0.8229838658936564,42.0,1,36.0,0.0
SKU_009,22,52.999999999999986,0.0,104.50000000000001,25.0,0.9523809523809507,5.958187643906492,7.413967315961697,3.7069836579808486,33.93830807147022,0.46472317204376906,-0.8854560256532096,11.5,1,19.0,0.0
SKU_009,23,39.499999999999986,0.0,137.5,25.25,-0.40476190476190604,5.651327277728657,7.413967315961697,3.7069836579808486,33.93830807147022,0.35460488704253584,-0.9350162426854147,48.5,1,29.0,0.0
SKU_009,24,48.999999999999986,0.0,131.0,25.25,0.30952380952380987,5.651327277728657,7.413967315961697,3.7069836579808486,33.93830807147022,0.23931566428755768,-0.970941817426052,29.0,1,26.0,0.0
SKU_009,25,59.999999999999986,0.0,127.5,25.625,0.13095238095238132,5.588772226527039,7.413967315961697,3.7069836579808486,33.93830807147022,0.12053668025532308,-0.992708874098054,38.5,1,31.0,0.0
SKU_009,26,39.499999999999986,0.0,151.0,25.625,1.1547619047619044,5.588772226527039,7.413967315961697,3.7069836579808486,33.93830807147022,-3.216245299353273e-16,-1.0,35.0,1,32.0,0.0
SKU_009,27,56.999999999999986,0.0,133.5,26.875,1.2976190476190463,5.754074643241952,7.413967315961697,3.7069836579808486,33.93830807147022,-0.12053668025532283,-0.992708874098054,31.0,1,31.0,0.0
SKU_009,28,54.999999999999986,0.0,126.5,28.25,0.904761904761902,5.238081709939241,7.413967315961697,3.7069836579808486,33.93830807147022,-0.23931566428755743,-0.9709418174260521,22.0,1,31.0,0.0
SKU_009,29,60.499999999999986,0.0,119.5,29.375,0.4642857142857143,4.715334028465004,7.413967315961697,3.7069836579808486,33.93830807147022,-0.3546048870425356,-0.9350162426854148,31.5,1,33.0,0.0
SKU_009,30,63.499999999999986,0.0,92.5,29.0,1.4761904761904743,4.272001872658765,7.413967315961697,3.7069836579808486,33.93830807147022,-0.46472317204376806,-0.8854560256532101,8.0,1,32.0,0.0
SKU_009,31,69.49999999999999,0.0,107.5,30.625,0.6547619047619027,2.057759704144291,7.413967315961697,3.7069836579808486,33.93830807147022,-0.5680647467311556,-0.8229838658936566,46.0,1,25.0,0.0
SKU_009,32,61.499999999999986,0.0,135.0,30.125,0.011904761904761937,2.7585095613392387,7.413967315961697,3.7069836579808486,33.93830807147022,-0.663122658240795,-0.7485107481711013,49.5,1,30.0,0.0
SKU_009,33,75.99999999999999,0.0,128.0,30.625,-0.4404761904761918,2.2878756522153907,7.413967315961697,3.7069836579808486,33.93830807147022,-0.7485107481711011,-0.6631226582407952,24.5,1,17.0,0.0
SKU_009,34,37.999999999999986,0.0,190.0,28.875,-1.5357142857142851,5.035809269620922,7.413967315961697,3.7069836579808486,33.93830807147022,-0.8229838658936564,-0.5680647467311559,70.0,1,46.0,0.0
SKU_009,35,45.999999999999986,0.0,155.0,30.625,0.2261904761904755,7.598313957714566,7.413967315961697,3.7069836579808486,33.93830807147022,-0.8854560256532096,-0.4647231720437691,11.0,1,38.0,0.0
SKU_009,36,60.499999999999986,0.0,146.5,31.5,0.8809523809523793,7.984359711335656,7.413967315961697,3.7069836579808486,33.93830807147022,-0.9350162426854147,-0.3546048870425359,41.0,1,35.0,0.0
SKU_009,37,51.999999999999986,0.0,168.5,32.0,1.1190476190476188,8.06225774829855,7.413967315961697,3.7069836579808486,33.93830807147022,-0.970941817426052,-0.23931566428755774,46.5,1,33.0,0.0
SKU_009,38,93.99999999999999,0.0,137.0,32.0,1.3095238095238089,8.06225774829855,7.413967315961697,3.7069836579808486,33.93830807147022,-0.992708874098054,-0.12053668025532357,38.5,1,28.0,0.0
SKU_009,39,62.999999999999986,0.0,171.0,31.5,0.9761904761904749,8.170067319184096,7.413967315961697,3.7069836579808486,33.93830807147022,-1.0,-1.8369701987210297e-16,45.0,1,42.0,0.0
SKU_009,40,59.999999999999986,0.0,181.5,33.625,1.1547619047619029,8.410373059502177,7.413967315961697,3.7069836579808486,33.93830807147022,-0.992708874098054,0.1205366802553232,51.5,1,44.0,0.0
SKU_009,41,66.49999999999999,0.0,167.5,35.375,1.6309523809523783,8.915401000515905,7.413967315961697,3.7069836579808486,33.93830807147022,-0.9709418174260521,0.23931566428755738,32.5,1,40.0,0.0
SKU_009,42,74.99999999999999,0.0,153.0,38.25,0.04761904761904744,5.629165124598851,7.413967315961697,3.7069836579808486,33.93830807147022,-0.9350162426854148,0.35460488704253557,24.0,1,30.0,0.0
SKU_009,43,72.99999999999999,0.0,164.0,36.25,0.19047619047619152,5.356071321407137,7.413967315961697,3.7069836579808486,33.93830807147022,-0.8854560256532101,0.464723172043768,56.0,1,47.0,0.0
SKU_009,44,85.49999999999999,0.0,133.5,37.375,1.2738095238095237,6.4408365139941255,7.413967315961697,3.7069836579808486,33.93830807147022,-0.822983865893657,0.5680647467311548,21.0,1,39.0,0.0
SKU_009,45,81.99999999999999,0.0,129.5,37.875,1.1547619047619038,6.392133837772798,7.413967315961697,3.7069836579808486,33.93830807147022,-0.7485107481711011,0.6631226582407952,28.5,1,36.0,0.0
SKU_009,46,69.99999999999999,0.0,137.0,38.25,0.47619047619047344,6.179603547154137,7.413967315961697,3.7069836579808486,33.93830807147022,-0.6631226582407955,0.7485107481711007,31.5,1,36.0,0.0
SKU_009,47,90.99999999999999,0.0,114.5,39.25,-0.8095238095238101,4.968651728587948,7.413967315961697,3.7069836579808486,33.93830807147022,-0.5680647467311559,0.8229838658936564,33.5,1,35.0,0.0
SKU_009,48,77.99999999999999,0.0,138.0,38.375,-0.8690476190476206,5.02338282435253,7.413967315961697,3.7069836579808486,33.93830807147022,-0.4647231720437684,0.88545602565321,44.5,1,34.0,0.0
SKU_009,49,73.49999999999999,0.0,109.5,37.125,-0.6309523809523814,4.702060718451007,7.413967315961697,3.7069836579808486,33.93830807147022,-0.35460488704253595,0.9350162426854147,0.0,0,33.0,0.0
SKU_009,50,69.99999999999999,0.0,78.0,36.25,-0.6666666666666708,4.736823830374104,7.413967315961697,3.7069836579808486,33.93830807147022,-0.2393156642875578,0.970941817426052,0.0,0,35.0,0.0
SKU_009,51,79.49999999999999,0.0,44.5,36.875,-1.4404761904761918,4.166458328124739,7.413967315961697,3.7069836579808486,33.93830807147022,-0.12053668025532363,0.992708874098054,0.0,0,24.0,0.0
SKU_010,0,359.33445168456535,0.0,72.16554831543465,104.08361292114134,0.0,0.0,5.028938539332379,2.5144692696661894,16.593632310253987,0.0,1.0,72.16554831543465,1,57.0,0.0
SKU_010,1,265.33445168456535,0.0,240.66554831543465,57.0,0.0,0.0,5.028938539332379,2.5144692696661894,16.593632310253987,0.12053668025532305,0.992708874098054,168.5,1,94.0,0.0
SKU_010,2,164.33445168456535,0.0,353.16554831543465,75.5,36.99999999999998,18.5,5.028938539332379,2.5144692696661894,16.593632310253987,0.23931566428755774,0.970941817426052,112.5,1,101.0,0.0
SKU_010,3,129.5,0.0,391.0,84.0,22.0,19.30457631409368,5.028938539332379,2.5144692696661894,16.593632310253987,0.3546048870425356,0.9350162426854148,110.0,1,107.0,0.0
SKU_010,4,192.0,0.0,341.0,89.75,15.700000000000005,19.45989465541887,5.028938539332379,2.5144692696661894,16.593632310253987,0.4647231720437685,0.8854560256532099,118.5,1,106.0,0.0
SKU_010,5,211.5,0.0,320.0,93.0,11.099999999999996,18.579558659989747,5.028938539332379,2.5144692696661894,16.593632310253987,0.5680647467311558,0.8229838658936564,91.5,1,93.0,0.0
SKU_010,6,198.5,0.0,370.0,93.0,6.342857142857139,16.960738977611403,5.028938539332379,2.5144692696661894,16.593632310253987,0.6631226582407952,0.7485107481711011,160.0,1,123.0,0.0
SKU_010,7,217.0,0.0,354.0,97.28571428571429,7.178571428571428,18.88850206353277,5.028938539332379,2.5144692696661894,16.593632310253987,0.7485107481711011,0.6631226582407953,102.5,1,100.0,0.0
SKU_010,8,193.5,0.0,421.5,97.625,5.011904761904754,17.691364418834404,5.028938539332379,2.5144692696661894,16.593632310253987,0.8229838658936564,0.5680647467311559,159.0,1,115.0,0.0
SKU_010,9,230.5,0.0,410.0,104.875,2.1071428571428568,9.584329658353786,5.028938539332379,2.5144692696661894,16.593632310253987,0.8854560256532099,0.4647231720437686,148.5,1,123.0,0.0
SKU_010,10,205.0,0.0,453.0,108.5,2.452380952380938,10.246950765959598,5.028938539332379,2.5144692696661894,16.593632310253987,0.9350162426854148,0.35460488704253557,145.5,1,128.0,0.0
SKU_010,11,232.0,0.0,426.0,111.875,3.2738095238095157,11.580560219609412,5.028938539332379,2.5144692696661894,16.593632310253987,0.970941817426052,0.23931566428755804,132.0,1,132.0,0.0
SKU_010,12,248.5,0.0,387.5,115.0,4.428571428571425,13.114877048604,5.028938539332379,2.5144692696661894,16.593632310253987,0.992708874098054,0.120536680255323,110.0,1,132.0,0.0
SKU_010,13,254.0,0.0,395.0,118.25,4.880952380952373,13.690781570093067,5.028938539332379,2.5144692696661894,16.593632310253987,1.0,-1.6081226496766366e-16,153.0,1,140.0,0.0
SKU_010,14,282.0,0.0,371.0,124.125,3.988095238095234,11.504754451964631,5.028938539332379,2.5144692696661894,16.593632310253987,0.992708874098054,-0.12053668025532288,108.0,1,104.0,0.0
