ipveka/SupplierNet/data/test_dataset.csv
sku_id,week,current_inventory,pipeline_procurement,pipeline_manufacturing,avg_demand_lookback,demand_trend,demand_volatility,procurement_lead_time,manufacturing_lead_time,unit_cost,seasonality_sin,seasonality_cos,target_quantity,supply_method,actual_demand,stockout
SKU_000,0,96.15041137906718,0.0,230.84958862093282,37.537602844766795,0.0,0.0,7.130391489112627,3.5651957445563136,35.42977049904175,0.0,1.0,230.84958862093282,1,54.0,0.0
SKU_000,1,24.15041137906718,0.0,289.3495886209328,54.0,0.0,0.0,7.130391489112627,3.5651957445563136,35.42977049904175,0.12053668025532305,0.992708874098054,58.5,1,72.0,0.0
SKU_000,2,0.0,0.0,289.3495886209328,63.0,17.99999999999999,9.0,7.130391489112627,3.5651957445563136,35.42977049904175,0.23931566428755774,0.970941817426052,0.0,0,43.0,18.84958862093282
SKU_000,3,0.0,0.0,289.3495886209328,56.333333333333336,-5.499999999999999,11.953614051360738,7.130391489112627,3.5651957445563136,35.42977049904175,0.3546048870425356,0.9350162426854148,0.0,0,49.0,49.0
SKU_000,4,185.84958862093282,0.0,96.15041137906718,54.5,-4.400000000000008,10.828203913853857,7.130391489112627,3.5651957445563136,35.42977049904175,0.4647231720437685,0.8854560256532099,37.65041137906718,1,45.0,0.0
SKU_000,5,199.34958862093282,0.0,82.65041137906718,52.6,-4.100000000000006,10.403845442911962,7.130391489112627,3.5651957445563136,35.42977049904175,0.5680647467311558,0.8229838658936564,45.0,1,45.0,0.0
SKU_000,6,148.34958862093282,0.0,127.65041137906718,51.333333333333336,-3.4285714285714297,9.910712498212337,7.130391489112627,3.5651957445563136,35.42977049904175,0.6631226582407952,0.7485107481711011,45.0,1,51.0,0.0
SKU_000,7,101.34958862093282,0.0,173.15041137906718,51.285714285714285,-2.1785714285714257,9.176278201572414,7.130391489112627,3.5651957445563136,35.42977049904175,0.7485107481711011,0.6631226582407953,45.5,1,47.0,0.0
SKU_000,8,94.0,0.0,174.5,50.75,-1.8095238095238133,8.699856320652657,7.130391489112627,3.5651957445563136,35.42977049904175,0.8229838658936564,0.5680647467311559,39.0,1,45.0,0.0
SKU_000,9,98.0,0.0,155.5,49.625,-1.9404761904761936,8.788308995478026,7.130391489112627,3.5651957445563136,35.42977049904175,0.8854560256532099,0.4647231720437686,26.0,1,41.0,0.0
SKU_000,10,93.0,0.0,160.5,45.75,-0.26190476190476314,2.9895651857753496,7.130391489112627,3.5651957445563136,35.42977049904175,0.9350162426854148,0.35460488704253557,50.0,1,50.0,0.0
SKU_000,11,95.5,0.0,132.5,46.625,-0.20238095238095133,3.07967124868873,7.130391489112627,3.5651957445563136,35.42977049904175,0.970941817426052,0.23931566428755804,17.5,1,43.0,0.0
SKU_000,12,99.5,0.0,106.0,45.875,-0.25000000000000283,3.1399641717701177,7.130391489112627,3.5651957445563136,35.42977049904175,0.992708874098054,0.120536680255323,12.5,1,35.0,0.0
SKU_000,13,84.5,0.0,130.0,44.625,-1.2500000000000038,4.794202227691277,7.130391489112627,3.5651957445563136,35.42977049904175,1.0,-1.6081226496766366e-16,50.0,1,41.0,0.0
SKU_000,14,101.5,0.0,125.0,44.125,-1.511904761904763,4.9355217555999085,7.130391489112627,3.5651957445563136,35.42977049904175,0.992708874098054,-0.12053668025532288,45.0,1,33.0,0.0
SKU_000,15,91.0,0.0,141.5,41.875,-1.7023809523809528,5.372092236736075,7.130391489112627,3.5651957445563136,35.42977049904175,0.9709418174260521,-0.2393156642875575,34.0,1,28.0,0.0
SKU_000,16,62.5,0.0,174.5,39.5,-2.309523809523812,6.6332495807108,7.130391489112627,3.5651957445563136,35.42977049904175,0.9350162426854148,-0.35460488704253545,45.5,1,41.0,0.0
SKU_000,17,63.5,0.0,158.5,39.0,-1.5952380952380967,6.34428877022476,7.130391489112627,3.5651957445563136,35.42977049904175,0.8854560256532099,-0.4647231720437685,34.0,1,49.0,0.0
SKU_000,18,71.5,0.0,117.5,40.0,-0.5476190476190479,7.158910531638177,7.130391489112627,3.5651957445563136,35.42977049904175,0.8229838658936565,-0.5680647467311557,4.0,1,37.0,0.0
SKU_000,19,74.5,0.0,132.5,38.375,0.27380952380952334,6.101997623729462,7.130391489112627,3.5651957445563136,35.42977049904175,0.7485107481711013,-0.663122658240795,49.0,1,31.0,0.0
SKU_000,20,89.0,0.0,113.5,36.875,0.15476190476190266,6.253748875674495,7.130391489112627,3.5651957445563136,35.42977049904175,0.6631226582407952,-0.7485107481711012,26.5,1,31.0,0.0
SKU_000,21,96.0,0.0,111.0,36.375,-0.5357142857142887,6.537153432496441,7.130391489112627,3.5651957445563136,35.42977049904175,0.5680647467311558,-0.8229838658936564,31.5,1,27.0,0.0
SKU_000,22,51.0,0.0,162.0,34.625,-0.8214285714285716,6.927075501248705,7.130391489112627,3.5651957445563136,35.42977049904175,0.46472317204376906,-0.8854560256532096,55.0,1,49.0,0.0
SKU_000,23,72.0,0.0,113.0,36.625,0.20238095238094828,8.335728822364604,7.130391489112627,3.5651957445563136,35.42977049904175,0.35460488704253584,-0.9350162426854147,0.0,0,28.0,0.0
SKU_000,24,64.5,0.0,114.0,36.625,-1.4404761904761936,8.335728822364604,7.130391489112627,3.5651957445563136,35.42977049904175,0.23931566428755768,-0.970941817426052,27.5,1,34.0,0.0
SKU_000,25,65.0,0.0,107.5,35.75,-1.1904761904761918,8.1967981553775,7.130391489112627,3.5651957445563136,35.42977049904175,0.12053668025532308,-0.992708874098054,25.0,1,31.0,0.0
SKU_000,26,94.0,0.0,69.5,33.5,-0.16666666666666677,6.557438524302,7.130391489112627,3.5651957445563136,35.42977049904175,-3.216245299353273e-16,-1.0,17.0,1,26.0,0.0
SKU_000,27,66.0,0.0,102.0,32.125,-0.4166666666666675,6.827105902210687,7.130391489112627,3.5651957445563136,35.42977049904175,-0.12053668025532283,-0.992708874098054,32.5,1,28.0,0.0
SKU_000,28,63.5,0.0,92.5,31.75,-0.8809523809523824,6.959705453537527,7.130391489112627,3.5651957445563136,35.42977049904175,-0.23931566428755743,-0.9709418174260521,18.0,1,30.0,0.0
SKU_000,29,63.5,0.0,103.0,31.625,-1.1071428571428594,6.981001002721601,7.130391489112627,3.5651957445563136,35.42977049904175,-0.3546048870425356,-0.9350162426854148,35.5,1,25.0,0.0
SKU_000,30,51.5,0.0,112.0,31.375,-2.1547619047619055,7.1752613192830825,7.130391489112627,3.5651957445563136,35.42977049904175,-0.46472317204376806,-0.8854560256532101,26.0,1,29.0,0.0
SKU_000,31,64.0,0.0,108.5,28.875,-0.46428571428571697,2.666341125962693,7.130391489112627,3.5651957445563136,35.42977049904175,-0.5680647467311556,-0.8229838658936566,29.0,1,20.0,0.0
SKU_000,32,45.0,0.0,138.0,27.875,-1.29761904761905,3.9823830805184977,7.130391489112627,3.5651957445563136,35.42977049904175,-0.663122658240795,-0.7485107481711013,47.5,1,37.0,0.0
SKU_000,33,57.5,0.0,112.0,28.25,0.11904761904761703,4.630064794363034,7.130391489112627,3.5651957445563136,35.42977049904175,-0.7485107481711011,-0.6631226582407952,9.5,1,23.0,0.0
SKU_000,34,48.5,0.0,139.0,27.25,-0.02380952380952422,4.789311015167004,7.130391489112627,3.5651957445563136,35.42977049904175,-0.8229838658936564,-0.5680647467311559,53.0,1,35.0,0.0
SKU_000,35,50.5,0.0,141.5,28.375,0.48809523809523675,5.383713866839507,7.130391489112627,3.5651957445563136,35.42977049904175,-0.8854560256532096,-0.4647231720437691,31.5,1,27.0,0.0
SKU_000,36,70.0,0.0,116.0,28.25,0.33333333333333387,5.402545696243577,7.130391489112627,3.5651957445563136,35.42977049904175,-0.9350162426854147,-0.3546048870425359,22.0,1,28.0,0.0
SKU_000,37,44.5,0.0,137.0,28.0,0.4999999999999989,5.361902647381804,7.130391489112627,3.5651957445563136,35.42977049904175,-0.970941817426052,-0.23931566428755774,30.5,1,35.0,0.0
SKU_000,38,59.5,0.0,122.0,29.25,0.7619047619047612,5.673402858955108,7.130391489112627,3.5651957445563136,35.42977049904175,-0.992708874098054,-0.12053668025532357,38.0,1,38.0,0.0
SKU_000,39,68.0,0.0,95.5,30.375,1.4642857142857126,6.362733296312206,7.130391489112627,3.5651957445563136,35.42977049904175,-1.0,-1.8369701987210297e-16,5.0,1,23.0,0.0
SKU_000,40,65.0,0.0,137.5,30.75,-0.2619047619047623,5.80409338312195,7.130391489112627,3.5651957445563136,35.42977049904175,-0.992708874098054,0.1205366802553232,64.0,1,25.0,0.0
SKU_000,41,60.5,0.0,170.5,29.25,-0.07142857142857324,5.539629951540085,7.130391489112627,3.5651957445563136,35.42977049904175,-0.9709418174260521,0.23931566428755738,63.5,1,35.0,0.0
SKU_000,42,72.5,0.0,155.5,30.75,-0.26190476190476264,5.261891294962297,7.130391489112627,3.5651957445563136,35.42977049904175,-0.9350162426854148,0.35460488704253557,23.0,1,26.0,0.0
SKU_000,43,28.5,0.0,231.0,29.625,-0.20238095238095188,5.194648688795037,7.130391489112627,3.5651957445563136,35.42977049904175,-0.8854560256532101,0.464723172043768,80.5,1,49.0,0.0
SKU_000,44,48.5,0.0,202.0,32.375,1.1309523809523805,8.092241654819757,7.130391489112627,3.5651957445563136,35.42977049904175,-0.822983865893657,0.5680647467311548,35.0,1,44.0,0.0
SKU_000,45,79.0,0.0,167.0,34.375,1.6309523809523807,8.71690168580557,7.130391489112627,3.5651957445563136,35.42977049904175,-0.7485107481711011,0.6631226582407952,28.5,1,33.0,0.0
SKU_000,46,55.0,0.0,210.5,34.125,1.5833333333333328,8.72406871820712,7.130391489112627,3.5651957445563136,35.42977049904175,-0.6631226582407955,0.7485107481711007,66.5,1,47.0,0.0
SKU_000,47,92.5,0.0,171.5,35.25,3.0714285714285694,9.67923034130297,7.130391489112627,3.5651957445563136,35.42977049904175,-0.5680647467311559,0.8229838658936564,41.5,1,43.0,0.0
SKU_000,48,86.5,0.0,167.0,37.75,2.4047619047619007,8.728545125048045,7.130391489112627,3.5651957445563136,35.42977049904175,-0.4647231720437684,0.88545602565321,30.5,1,41.0,0.0
SKU_000,49,69.0,0.0,178.5,39.75,1.3095238095238093,7.292976072907411,7.130391489112627,3.5651957445563136,35.42977049904175,-0.35460488704253595,0.9350162426854147,40.0,1,46.0,0.0
SKU_000,50,89.5,0.0,176.0,41.125,1.3214285714285687,7.30475016684349,7.130391489112627,3.5651957445563136,35.42977049904175,-0.2393156642875578,0.970941817426052,64.0,1,46.0,0.0
SKU_000,51,95.0,0.0,197.5,43.625,0.10714285714285574,4.635124054434789,7.130391489112627,3.5651957445563136,35.42977049904175,-0.12053668025532363,0.992708874098054,63.0,1,36.0,0.0
SKU_000,52,88.5,0.0,225.0,42.0,0.04761904761904491,4.743416490252569,7.130391489112627,3.5651957445563136,35.42977049904175,0.0,1.0,58.0,1,37.0,0.0
SKU_000,53,70.5,0.0,297.0,41.125,-0.15476190476190585,4.9355217555999085,7.130391489112627,3.5651957445563136,35.42977049904175,0.12053668025532305,0.992708874098054,112.0,1,58.0,0.0
SKU_000,54,70.5,0.0,301.5,44.25,0.380952380952381,6.475916923494309,7.130391489112627,3.5651957445563136,35.42977049904175,0.23931566428755774,0.970941817426052,68.5,1,64.0,0.0
SKU_000,55,83.5,0.0,279.5,46.375,2.3214285714285694,9.23224647634583,7.130391489112627,3.5651957445563136,35.42977049904175,0.3546048870425356,0.9350162426854148,41.0,1,50.0,0.0
SKU_000,56,68.5,0.0,305.0,47.25,2.26190476190476,9.202581159652981,7.130391489112627,3.5651957445563136,35.42977049904175,0.4647231720437685,0.8854560256532099,83.5,1,73.0,0.0
SKU_000,57,119.5,0.0,210.5,51.25,3.738095238095235,12.111461513789324,7.130391489112627,3.5651957445563136,35.42977049904175,0.5680647467311558,0.8229838658936564,17.5,1,61.0,0.0
SKU_000,58,130.0,0.0,185.0,53.125,3.988095238095236,12.312975879128489,7.130391489112627,3.5651957445563136,35.42977049904175,0.6631226582407952,0.7485107481711011,43.0,1,58.0,0.0
SKU_000,59,114.0,0.0,187.5,54.625,3.630952380952378,12.082399389194185,7.130391489112627,3.5651957445563136,35.42977049904175,0.7485107481711011,0.6631226582407953,43.5,1,57.0,0.0
SKU_000,60,153.5,0.0,140.5,57.25,1.8333333333333306,9.820259670701178,7.130391489112627,3.5651957445563136,35.42977049904175,0.8229838658936564,0.5680647467311559,36.5,1,44.0,0.0
SKU_000,61,120.0,0.0,183.0,58.125,-1.440476190476194,8.146126380065558,7.130391489112627,3.5651957445563136,35.42977049904175,0.8854560256532099,0.4647231720437686,60.0,1,51.0,0.0
SKU_000,62,114.0,0.0,183.0,57.25,-2.0476190476190537,8.481597726843686,7.130391489112627,3.5651957445563136,35.42977049904175,0.9350162426854148,0.35460488704253557,43.0,1,49.0,0.0
SKU_000,63,105.5,0.0,196.0,55.375,-2.0119047619047654,8.440045912197398,7.130391489112627,3.5651957445563136,35.42977049904175,0.970941817426052,0.23931566428755804,56.5,1,52.0,0.0
SKU_000,64,92.0,0.0,185.5,55.625,-2.869047619047625,8.305683295190107,7.130391489112627,3.5651957445563136,35.42977049904175,0.992708874098054,0.120536680255323,26.0,1,50.0,0.0
SKU_000,65,105.0,0.0,180.0,52.75,-1.4761904761904747,5.190134873006674,7.130391489112627,3.5651957445563136,35.42977049904175,1.0,-1.6081226496766366e-16,54.5,1,47.0,0.0
SKU_000,66,96.0,0.0,169.5,51.0,-1.071428571428573,4.415880433163924,7.130391489112627,3.5651957445563136,35.42977049904175,0.992708874098054,-0.12053668025532288,32.5,1,52.0,0.0
SKU_000,67,116.5,0.0,144.5,50.25,-0.2380952380952367,3.59687364248454,7.130391489112627,3.5651957445563136,35.42977049904175,0.9709418174260521,-0.2393156642875575,31.5,1,36.0,0.0
SKU_000,68,87.5,0.0,175.0,47.625,-0.7023809523809555,5.072905971925756,7.130391489112627,3.5651957445563136,35.42977049904175,0.9350162426854148,-0.35460488704253545,56.5,1,55.0,0.0
SKU_000,69,108.0,0.0,139.5,49.0,-0.47619047619047916,5.385164807134504,7.130391489112627,3.5651957445563136,35.42977049904175,0.8854560256532099,-0.4647231720437685,19.0,1,34.0,0.0
SKU_000,70,91.5,0.0,172.5,46.875,-1.5119047619047636,7.218682358990455,7.130391489112627,3.5651957445563136,35.42977049904175,0.8229838658936565,-0.5680647467311557,65.5,1,49.0,0.0
SKU_000,71,86.0,0.0,141.0,46.875,-1.1071428571428596,7.218682358990455,7.130391489112627,3.5651957445563136,35.42977049904175,0.7485107481711013,-0.663122658240795,0.0,0,37.0,0.0
SKU_000,72,97.5,0.0,109.5,45.0,-1.3809523809523847,7.582875444051551,7.130391489112627,3.5651957445563136,35.42977049904175,0.6631226582407952,-0.7485107481711012,25.0,1,45.0,0.0
SKU_000,73,71.5,0.0,113.0,44.375,-0.8452380952380966,7.347406004842798,7.130391489112627,3.5651957445563136,35.42977049904175,0.5680647467311558,-0.8229838658936564,22.5,1,45.0,0.0
SKU_000,74,113.0,0.0,47.5,44.125,-0.5119047619047656,7.287617923574205,7.130391489112627,3.5651957445563136,35.42977049904175,0.46472317204376906,-0.8854560256532096,0.0,0,24.0,0.0
SKU_000,75,89.0,0.0,82.0,40.625,-1.3452380952380978,9.150648884095597,7.130391489112627,3.5651957445563136,35.42977049904175,0.35460488704253584,-0.9350162426854147,34.5,1,24.0,0.0
SKU_000,76,84.0,0.0,81.0,39.125,-3.2261904761904794,10.647035972513665,7.130391489112627,3.5651957445563136,35.42977049904175,0.23931566428755768,-0.970941817426052,24.0,1,30.0,0.0
SKU_000,77,79.5,0.0,87.0,36.0,-2.285714285714287,9.082951062292475,7.130391489112627,3.5651957445563136,35.42977049904175,0.12053668025532308,-0.992708874098054,28.5,1,27.0,0.0
SKU_000,78,46.5,0.0,129.0,35.125,-3.250000000000001,9.558209821927953,7.130391489112627,3.5651957445563136,35.42977049904175,-3.216245299353273e-16,-1.0,42.0,1,33.0,0.0
SKU_000,79,61.0,0.0,94.5,33.125,-1.9404761904761918,7.991206104212305,7.130391489112627,3.5651957445563136,35.42977049904175,-0.12053668025532283,-0.992708874098054,0.0,0,20.0,0.0
SKU_000,80,54.0,0.0,108.0,31.0,-2.6190476190476204,8.888194417315589,7.130391489112627,3.5651957445563136,35.42977049904175,-0.23931566428755743,-0.9709418174260521,37.5,1,31.0,0.0
SKU_000,81,49.5,0.0,106.5,29.25,-1.1190476190476182,7.171994143890526,7.130391489112627,3.5651957445563136,35.42977049904175,-0.3546048870425356,-0.9350162426854148,27.0,1,33.0,0.0
SKU_000,82,75.5,0.0,68.5,27.75,0.8809523809523798,4.4651427748729375,7.130391489112627,3.5651957445563136,35.42977049904175,-0.46472317204376806,-0.8854560256532101,4.0,1,16.0,0.0
SKU_000,83,47.5,0.0,122.0,26.75,-0.5000000000000016,5.868347297152751,7.130391489112627,3.5651957445563136,35.42977049904175,-0.5680647467311556,-0.8229838658936566,53.5,1,28.0,0.0
SKU_000,84,58.0,0.0,107.0,27.25,-0.6904761904761924,5.782516753110189,7.130391489112627,3.5651957445563136,35.42977049904175,-0.663122658240795,-0.7485107481711013,22.5,1,27.0,0.0
SKU_000,85,60.0,0.0,123.0,26.875,-0.4166666666666667,5.688530126491377,7.130391489112627,3.5651957445563136,35.42977049904175,-0.7485107481711011,-0.6631226582407952,43.0,1,25.0,0.0
SKU_000,86,31.0,0.0,140.0,26.625,-0.5595238095238099,5.721396245672904,7.130391489112627,3.5651957445563136,35.42977049904175,-0.8229838658936564,-0.5680647467311559,21.0,1,33.0,0.0
SKU_000,87,59.5,0.0,113.0,26.625,0.6547619047619031,5.721396245672904,7.130391489112627,3.5651957445563136,35.42977049904175,-0.8854560256532096,-0.4647231720437691,26.5,1,25.0,0.0
SKU_000,88,43.0,0.0,164.0,27.25,-0.19047619047619144,5.2141634036535525,7.130391489112627,3.5651957445563136,35.42977049904175,-0.9350162426854147,-0.3546048870425359,73.5,1,39.0,0.0
SKU_000,89,69.0,0.0,136.5,28.25,1.1904761904761898,6.456585785072479,7.130391489112627,3.5651957445563136,35.42977049904175,-0.970941817426052,-0.23931566428755774,15.5,1,17.0,0.0
SKU_000,90,56.0,0.0,188.5,26.25,0.7619047619047615,7.119515432949071,7.130391489112627,3.5651957445563136,35.42977049904175,-0.992708874098054,-0.12053668025532357,73.0,1,34.0,0.0
SKU_000,91,34.5,0.0,196.5,28.5,0.3095238095238088,6.324555320336759,7.130391489112627,3.5651957445563136,35.42977049904175,-1.0,-1.8369701987210297e-16,34.5,1,48.0,0.0
SKU_000,92,70.0,0.0,135.5,31.0,1.8809523809523798,9.013878188659973,7.130391489112627,3.5651957445563136,35.42977049904175,-0.992708874098054,0.1205366802553232,12.5,1,38.0,0.0
SKU_000,93,42.5,0.0,170.5,32.375,2.0357142857142825,9.136978439287246,7.130391489112627,3.5651957445563136,35.42977049904175,-0.9709418174260521,0.23931566428755738,50.5,1,43.0,0.0
SKU_000,94,90.5,0.0,121.0,34.625,2.1309523809523805,9.259285879591364,7.130391489112627,3.5651957445563136,35.42977049904175,-0.9350162426854148,0.35460488704253557,23.5,1,25.0,0.0
SKU_000,95,94.0,0.0,132.5,33.625,1.1547619047619015,9.7971615787431,7.130391489112627,3.5651957445563136,35.42977049904175,-0.8854560256532101,0.464723172043768,46.0,1,31.0,0.0
SKU_000,96,63.5,0.0,200.5,34.375,0.011904761904761224,9.326541427560379,7.130391489112627,3.5651957445563136,35.42977049904175,-0.822983865893657,0.5680647467311548,80.5,1,43.0,0.0
SKU_000,97,72.0,0.0,198.0,34.875,1.2261904761904716,9.662265521087692,7.130391489112627,3.5651957445563136,35.42977049904175,-0.7485107481711011,0.6631226582407952,48.0,1,42.0,0.0
SKU_000,98,60.5,0.0,232.0,38.0,-0.09523809523809579,7.0710678118654755,7.130391489112627,3.5651957445563136,35.42977049904175,-0.6631226582407955,0.7485107481711007,57.5,1,35.0,0.0
SKU_000,99,50.5,0.0,264.5,38.125,-0.7738095238095277,7.00780814520489,7.130391489112627,3.5651957445563136,35.42977049904175,-0.5680647467311559,0.8229838658936564,78.5,1,56.0,0.0
SKU_000,100,84.0,0.0,184.0,39.125,1.7738095238095224,8.709728755822422,7.130391489112627,3.5651957445563136,35.42977049904175,-0.4647231720437684,0.88545602565321,0.0,0,47.0,0.0
SKU_000,101,75.0,0.0,162.0,40.25,2.309523809523809,9.065732182234372,7.130391489112627,3.5651957445563136,35.42977049904175,-0.35460488704253595,0.9350162426854147,26.0,1,57.0,0.0
SKU_000,102,82.5,0.0,113.5,42.0,3.9999999999999996,10.641898326896381,7.130391489112627,3.5651957445563136,35.42977049904175,-0.2393156642875578,0.970941817426052,9.0,1,50.0,0.0
SKU_000,103,99.0,0.0,64.19999999999999,45.125,2.8452380952380967,8.680977767509832,7.130391489112627,3.5651957445563136,35.42977049904175,-0.12053668025532363,0.992708874098054,29.19999999999999,1,62.0,0.0
SKU_001,0,241.676194540454,0.0,22.32380545954601,73.9190486351135,0.0,0.0,5.981503727312205,2.9907518636561026,95.25883643336766,0.0,1.0,22.32380545954601,1,54.0,0.0
SKU_001,1,191.676194540454,0.0,75.82380545954601,54.0,0.0,0.0,5.981503727312205,2.9907518636561026,95.25883643336766,0.12053668025532305,0.992708874098054,53.5,1,50.0,0.0
SKU_001,2,138.676194540454,0.0,131.323805459546,52.0,-4.00000000000001,2.0,5.981503727312205,2.9907518636561026,95.25883643336766,0.23931566428755774,0.970941817426052,55.5,1,53.0,0.0
SKU_001,3,104.0,0.0,159.0,52.333333333333336,-0.4999999999999995,1.699673171197595,5.981503727312205,2.9907518636561026,95.25883643336766,0.3546048870425356,0.9350162426854148,50.0,1,57.0,0.0
SKU_001,4,102.5,0.0,154.5,53.5,1.2000000000000015,2.5,5.981503727312205,2.9907518636561026,95.25883643336766,0.4647231720437685,0.8854560256532099,49.0,1,55.0,0.0
SKU_001,5,113.0,0.0,141.0,53.8,0.899999999999993,2.3151673805580453,5.981503727312205,2.9907518636561026,95.25883643336766,0.5680647467311558,0.8229838658936564,42.0,1,45.0,0.0
SKU_001,6,108.0,0.0,184.5,52.333333333333336,-0.7428571428571406,3.901566636906542,5.981503727312205,2.9907518636561026,95.25883643336766,0.6631226582407952,0.7485107481711011,93.5,1,55.0,0.0
SKU_001,7,108.0,0.0,214.5,52.714285714285715,-0.17857142857142608,3.730732816343027,5.981503727312205,2.9907518636561026,95.25883643336766,0.7485107481711011,0.6631226582407953,79.0,1,49.0,0.0
SKU_001,8,89.0,0.0,237.5,52.25,-0.4285714285714293,3.6996621467371855,5.981503727312205,2.9907518636561026,95.25883643336766,0.8229838658936564,0.5680647467311559,65.0,1,61.0,0.0
SKU_001,9,92.5,0.0,232.5,53.125,0.4880952380952379,4.702060718451007,5.981503727312205,2.9907518636561026,95.25883643336766,0.8854560256532099,0.4647231720437686,88.5,1,90.0,0.0
SKU_001,10,126.5,0.0,153.5,58.125,3.2261904761904745,12.87864026207736,5.981503727312205,2.9907518636561026,95.25883643336766,0.9350162426854148,0.35460488704253557,0.0,0,45.0,0.0
SKU_001,11,126.5,0.0,170.0,57.125,1.5833333333333308,13.531791270929359,5.981503727312205,2.9907518636561026,95.25883643336766,0.970941817426052,0.23931566428755804,81.5,1,65.0,0.0
SKU_001,12,165.0,0.0,126.5,58.125,2.2261904761904745,13.778946803003487,5.981503727312205,2.9907518636561026,95.25883643336766,0.992708874098054,0.120536680255323,45.0,1,50.0,0.0
SKU_001,13,102.0,0.0,207.0,57.5,1.2142857142857122,14.017845768876187,5.981503727312205,2.9907518636561026,95.25883643336766,1.0,-1.6081226496766366e-16,80.5,1,63.0,0.0
SKU_001,14,124.5,0.0,178.0,59.75,0.33333333333333026,13.254716141811564,5.981503727312205,2.9907518636561026,95.25883643336766,0.992708874098054,-0.12053668025532288,52.5,1,59.0,0.0
SKU_001,15,102.5,0.0,223.0,60.25,-0.23809523809524266,13.141061600951424,5.981503727312205,2.9907518636561026,95.25883643336766,0.9709418174260521,-0.2393156642875575,90.0,1,67.0,0.0
SKU_001,16,132.0,0.0,213.0,62.5,-0.8809523809523817,12.549900398011133,5.981503727312205,2.9907518636561026,95.25883643336766,0.9350162426854148,-0.35460488704253545,70.5,1,51.0,0.0
SKU_001,17,110.5,0.0,283.5,61.25,-1.9999999999999998,13.12202347201071,5.981503727312205,2.9907518636561026,95.25883643336766,0.8854560256532099,-0.4647231720437685,123.0,1,74.0,0.0
SKU_001,18,125.5,0.0,271.0,59.25,2.1428571428571392,9.229707470987366,5.981503727312205,2.9907518636561026,95.25883643336766,0.8229838658936565,-0.5680647467311557,77.5,1,75.0,0.0
SKU_001,19,106.0,0.0,315.0,63.0,1.9285714285714262,8.760707733967616,5.981503727312205,2.9907518636561026,95.25883643336766,0.7485107481711013,-0.663122658240795,114.5,1,90.0,0.0
SKU_001,20,158.0,0.0,268.0,66.125,4.3928571428571415,12.554257246050042,5.981503727312205,2.9907518636561026,95.25883643336766,0.6631226582407952,-0.7485107481711012,76.0,1,71.0,0.0
SKU_001,21,150.5,0.0,280.5,68.75,3.0714285714285663,11.008519428151999,5.981503727312205,2.9907518636561026,95.25883643336766,0.5680647467311558,-0.8229838658936564,90.0,1,85.0,0.0
SKU_001,22,161.0,0.0,273.0,71.5,3.8095238095238053,11.937336386313323,5.981503727312205,2.9907518636561026,95.25883643336766,0.46472317204376906,-0.8854560256532096,107.0,1,104.0,0.0
SKU_001,23,165.0,0.0,256.0,77.125,5.178571428571427,14.945212444124039,5.981503727312205,2.9907518636561026,95.25883643336766,0.35460488704253584,-0.9350162426854147,59.0,1,72.0,0.0
SKU_001,24,176.0,0.0,253.0,77.75,3.6666666666666616,14.60950033368698,5.981503727312205,2.9907518636561026,95.25883643336766,0.23931566428755768,-0.970941817426052,87.0,1,79.0,0.0
SKU_001,25,180.0,0.0,250.5,81.25,0.9047619047619007,10.580051984749414,5.981503727312205,2.9907518636561026,95.25883643336766,0.12053668025532308,-0.992708874098054,104.5,1,103.0,0.0
SKU_001,26,159.0,0.0,257.0,84.875,1.940476190476186,12.30281979872907,5.981503727312205,2.9907518636561026,95.25883643336766,-3.216245299353273e-16,-1.0,65.5,1,80.0,0.0
SKU_001,27,174.0,0.0,263.5,85.5,0.4761904761904728,11.905880899790658,5.981503727312205,2.9907518636561026,95.25883643336766,-0.12053668025532283,-0.992708874098054,93.5,1,72.0,0.0
SKU_001,28,182.5,0.0,299.5,83.25,-0.16666666666667343,12.52746981636755,5.981503727312205,2.9907518636561026,95.25883643336766,-0.23931566428755743,-0.9709418174260521,140.5,1,96.0,0.0
SKU_001,29,160.0,0.0,305.0,86.375,-0.4166666666666726,12.195670338279893,5.981503727312205,2.9907518636561026,95.25883643336766,-0.3546048870425356,-0.9350162426854148,71.0,1,88.0,0.0
SKU_001,30,146.5,0.0,301.0,86.75,-0.4285714285714263,12.193748398257199,5.981503727312205,2.9907518636561026,95.25883643336766,-0.46472317204376806,-0.8854560256532101,89.5,1,107.0,0.0
SKU_001,31,196.0,0.0,229.0,87.125,3.1071428571428514,12.751838102799141,5.981503727312205,2.9907518636561026,95.25883643336766,-0.5680647467311556,-0.8229838658936566,68.5,1,91.0,0.0
SKU_001,32,195.0,0.0,233.0,89.5,1.8095238095238073,11.412712210513327,5.981503727312205,2.9907518636561026,95.25883643336766,-0.663122658240795,-0.7485107481711013,75.0,1,72.0,0.0
SKU_001,33,199.5,0.0,232.5,88.625,-0.7738095238095317,12.409044080830723,5.981503727312205,2.9907518636561026,95.25883643336766,-0.7485107481711011,-0.6631226582407952,89.0,1,85.0,0.0
SKU_001,34,162.0,0.0,272.5,86.375,0.46428571428571136,11.168454458876573,5.981503727312205,2.9907518636561026,95.25883643336766,-0.8229838658936564,-0.5680647467311559,108.5,1,106.0,0.0
SKU_001,35,170.0,0.0,222.5,89.625,1.416666666666666,12.539313178958407,5.981503727312205,2.9907518636561026,95.25883643336766,-0.8854560256532096,-0.4647231720437691,25.0,1,67.0,0.0
SKU_001,36,169.0,0.0,230.5,89.0,-2.357142857142859,13.490737563232042,5.981503727312205,2.9907518636561026,95.25883643336766,-0.9350162426854147,-0.3546048870425359,97.0,1,90.0,0.0
SKU_001,37,197.5,0.0,183.5,88.25,-1.5238095238095266,13.245282178949605,5.981503727312205,2.9907518636561026,95.25883643336766,-0.970941817426052,-0.23931566428755774,61.5,1,80.0,0.0
SKU_001,38,148.5,0.0,244.0,87.25,-2.2380952380952395,13.525438994723979,5.981503727312205,2.9907518636561026,95.25883643336766,-0.992708874098054,-0.12053668025532357,85.5,1,74.0,0.0
SKU_001,39,178.5,0.0,204.0,83.125,-1.2261904761904778,11.794463743638369,5.981503727312205,2.9907518636561026,95.25883643336766,-1.0,-1.8369701987210297e-16,57.0,1,67.0,0.0
SKU_001,40,141.0,0.0,236.5,80.125,-1.7261904761904803,12.444250680535168,5.981503727312205,2.9907518636561026,95.25883643336766,-0.992708874098054,0.1205366802553232,94.0,1,99.0,0.0
SKU_001,41,161.5,0.0,151.0,83.5,-1.0238095238095213,13.407087677791923,5.981503727312205,2.9907518636561026,95.25883643336766,-0.9709418174260521,0.23931566428755738,0.0,0,65.0,0.0
SKU_001,42,146.5,0.0,160.0,81.0,-2.404761904761907,14.696938456699069,5.981503727312205,2.9907518636561026,95.25883643336766,-0.9350162426854148,0.35460488704253557,66.0,1,72.0,0.0
SKU_001,43,193.5,0.0,92.5,76.75,-0.4761904761904783,11.399013115177997,5.981503727312205,2.9907518636561026,95.25883643336766,-0.8854560256532101,0.464723172043768,26.5,1,47.0,0.0
SKU_001,44,126.5,0.0,189.0,74.25,-4.000000000000001,14.914338738274655,5.981503727312205,2.9907518636561026,95.25883643336766,-0.822983865893657,0.5680647467311548,96.5,1,67.0,0.0
SKU_001,45,137.5,0.0,176.0,71.375,-2.9166666666666723,13.77441015071063,5.981503727312205,2.9907518636561026,95.25883643336766,-0.7485107481711011,0.6631226582407952,53.0,1,55.0,0.0
SKU_001,46,99.0,0.0,216.0,68.25,-3.3571428571428563,14.289419162443238,5.981503727312205,2.9907518636561026,95.25883643336766,-0.6631226582407955,0.7485107481711007,66.5,1,65.0,0.0
SKU_001,47,125.5,0.0,181.5,67.125,-3.0119047619047654,14.146002085395011,5.981503727312205,2.9907518636561026,95.25883643336766,-0.5680647467311559,0.8229838658936564,62.0,1,70.0,0.0
SKU_001,48,121.5,0.0,184.0,67.5,-2.7857142857142834,14.177446878757825,5.981503727312205,2.9907518636561026,95.25883643336766,-0.4647231720437684,0.88545602565321,55.5,1,57.0,0.0
SKU_001,49,134.0,0.0,176.0,62.25,-0.28571428571428603,7.949056547792323,5.981503727312205,2.9907518636561026,95.25883643336766,-0.35460488704253595,0.9350162426854147,58.5,1,54.0,0.0
SKU_001,50,125.0,0.0,178.0,60.875,-0.6785714285714263,8.298154915401375,5.981503727312205,2.9907518636561026,95.25883643336766,-0.2393156642875578,0.970941817426052,64.0,1,71.0,0.0
SKU_001,51,115.5,0.0,154.0,60.75,1.357142857142856,8.13557004763649,5.981503727312205,2.9907518636561026,95.25883643336766,-0.12053668025532363,0.992708874098054,31.5,1,65.0,0.0
SKU_001,52,124.0,0.0,118.5,63.0,0.23809523809523264,6.304760106459246,5.981503727312205,2.9907518636561026,95.25883643336766,0.0,1.0,23.0,1,50.0,0.0
SKU_001,53,140.0,0.0,96.5,60.875,-0.4166666666666673,7.372881051529314,5.981503727312205,2.9907518636561026,95.25883643336766,0.12053668025532305,0.992708874098054,42.0,1,48.0,0.0
SKU_001,54,121.5,0.0,114.0,60.0,-2.1190476190476226,8.366600265340756,5.981503727312205,2.9907518636561026,95.25883643336766,0.23931566428755774,0.970941817426052,49.0,1,50.0,0.0
SKU_001,55,103.5,0.0,110.5,58.125,-2.416666666666671,8.709728755822422,5.981503727312205,2.9907518636561026,95.25883643336766,0.3546048870425356,0.9350162426854148,19.5,1,41.0,0.0
SKU_001,56,89.5,0.0,141.5,54.5,-2.5714285714285707,9.041570660012562,5.981503727312205,2.9907518636561026,95.25883643336766,0.4647231720437685,0.8854560256532099,73.0,1,56.0,0.0
SKU_001,57,108.5,0.0,122.5,54.375,-2.1785714285714346,9.013011427930179,5.981503727312205,2.9907518636561026,95.25883643336766,0.5680647467311558,0.8229838658936564,30.0,1,30.0,0.0
SKU_001,58,81.0,0.0,170.0,51.375,-4.250000000000001,12.103072956898178,5.981503727312205,2.9907518636561026,95.25883643336766,0.6631226582407952,0.7485107481711011,67.0,1,47.0,0.0
SKU_001,59,91.0,0.0,164.0,48.375,-2.5119047619047623,9.577806377245262,5.981503727312205,2.9907518636561026,95.25883643336766,0.7485107481711011,0.6631226582407953,67.0,1,63.0,0.0
SKU_001,60,79.0,0.0,166.0,48.125,0.4880952380952341,9.157476453696182,5.981503727312205,2.9907518636561026,95.25883643336766,0.8229838658936564,0.5680647467311559,32.0,1,42.0,0.0
SKU_001,61,100.0,0.0,165.5,47.125,0.1785714285714261,9.333240326917549,5.981503727312205,2.9907518636561026,95.25883643336766,0.8854560256532099,0.4647231720437686,66.5,1,46.0,0.0
SKU_001,62,110.0,0.0,175.5,46.875,0.17857142857142752,9.333240326917549,5.981503727312205,2.9907518636561026,95.25883643336766,0.9350162426854148,0.35460488704253557,77.0,1,57.0,0.0
SKU_001,63,87.0,0.0,210.5,47.75,1.3571428571428563,9.896337706444744,5.981503727312205,2.9907518636561026,95.25883643336766,0.970941817426052,0.23931566428755804,67.0,1,55.0,0.0
SKU_001,64,96.5,0.0,209.0,49.5,1.238095238095234,9.785192895390463,5.981503727312205,2.9907518636561026,95.25883643336766,0.992708874098054,0.120536680255323,65.0,1,57.0,0.0
SKU_001,65,109.5,0.0,195.5,49.625,2.559523809523807,9.873417594733851,5.981503727312205,2.9907518636561026,95.25883643336766,1.0,-1.6081226496766366e-16,63.5,1,64.0,0.0
SKU_001,66,109.5,0.0,204.0,53.875,1.6547619047619018,7.55707450009592,5.981503727312205,2.9907518636561026,95.25883643336766,0.992708874098054,-0.12053668025532288,75.5,1,67.0,0.0
SKU_001,67,127.5,0.0,175.5,56.375,2.0119047619047596,8.153795128650216,5.981503727312205,2.9907518636561026,95.25883643336766,0.9709418174260521,-0.2393156642875575,36.5,1,47.0,0.0
SKU_001,68,115.0,0.0,227.0,54.375,1.9404761904761876,8.245263792020241,5.981503727312205,2.9907518636561026,95.25883643336766,0.9350162426854148,-0.35460488704253545,115.0,1,76.0,0.0
SKU_001,69,133.5,0.0,217.0,58.625,2.416666666666665,9.44639481495454,5.981503727312205,2.9907518636561026,95.25883643336766,0.8854560256532099,-0.4647231720437685,65.5,1,57.0,0.0
SKU_001,70,104.0,0.0,269.0,60.0,0.9285714285714235,8.231038816577165,5.981503727312205,2.9907518636561026,95.25883643336766,0.8229838658936565,-0.5680647467311557,88.5,1,66.0,0.0
SKU_001,71,132.0,0.0,268.0,61.125,1.1071428571428583,8.358192089202067,5.981503727312205,2.9907518636561026,95.25883643336766,0.7485107481711013,-0.663122658240795,114.0,1,87.0,0.0
SKU_001,72,126.5,0.0,306.0,65.125,2.607142857142853,11.526464115243668,5.981503727312205,2.9907518636561026,95.25883643336766,0.6631226582407952,-0.7485107481711012,103.5,1,71.0,0.0
SKU_001,73,141.0,0.0,340.0,66.875,2.226190476190473,11.218706476238694,5.981503727312205,2.9907518636561026,95.25883643336766,0.5680647467311558,-0.8229838658936564,122.5,1,74.0,0.0
SKU_001,74,151.0,0.0,323.0,68.125,2.511904761904759,11.384611324063725,5.981503727312205,2.9907518636561026,95.25883643336766,0.46472317204376906,-0.8854560256532096,97.0,1,104.0,0.0
SKU_001,75,136.5,0.0,281.0,72.75,5.3809523809523805,16.399314010043224,5.981503727312205,2.9907518636561026,95.25883643336766,0.35460488704253584,-0.9350162426854147,61.5,1,118.0,0.0
SKU_001,76,185.0,0.0,184.0,81.625,6.39285714285714,19.058708639359594,5.981503727312205,2.9907518636561026,95.25883643336766,0.23931566428755768,-0.970941817426052,25.5,1,74.0,0.0
SKU_001,77,222.0,0.0,173.5,81.375,5.1547619047619,19.143781627463262,5.981503727312205,2.9907518636561026,95.25883643336766,0.12053668025532308,-0.992708874098054,86.5,1,60.0,0.0
SKU_001,78,204.5,0.0,227.0,81.75,0.7619047619047616,18.686559340873856,5.981503727312205,2.9907518636561026,95.25883643336766,-3.216245299353273e-16,-1.0,115.0,1,79.0,0.0
SKU_001,79,131.0,0.0,322.0,83.375,-1.154761904761907,17.790007729059592,5.981503727312205,2.9907518636561026,95.25883643336766,-0.12053668025532283,-0.992708874098054,120.5,1,99.0,0.0
SKU_001,80,140.5,0.0,296.0,84.875,0.535714285714284,18.523211789535853,5.981503727312205,2.9907518636561026,95.25883643336766,-0.23931566428755743,-0.9709418174260521,60.5,1,77.0,0.0
SKU_001,81,157.5,0.0,302.5,85.625,-1.6071428571428557,18.06195933446867,5.981503727312205,2.9907518636561026,95.25883643336766,-0.3546048870425356,-0.9350162426854148,121.5,1,98.0,0.0
SKU_001,82,194.0,0.0,251.5,88.625,-1.8214285714285783,17.87412585275151,5.981503727312205,2.9907518636561026,95.25883643336766,-0.46472317204376806,-0.8854560256532101,69.5,1,84.0,0.0
SKU_001,83,158.5,0.0,289.0,86.125,-0.5595238095238103,16.92215633422644,5.981503727312205,2.9907518636561026,95.25883643336766,-0.5680647467311556,-0.8229838658936566,98.0,1,96.0,0.0
SKU_001,84,194.0,0.0,218.5,83.375,3.6785714285714253,12.805638406577003,5.981503727312205,2.9907518636561026,95.25883643336766,-0.663122658240795,-0.7485107481711013,51.0,1,86.0,0.0
SKU_001,85,170.5,0.0,232.0,84.875,2.8928571428571423,12.312975879128489,5.981503727312205,2.9907518636561026,95.25883643336766,-0.7485107481711011,-0.6631226582407952,83.0,1,93.0,0.0
SKU_001,86,198.5,0.0,194.5,89.0,0.9047619047619017,8.093207028119323,5.981503727312205,2.9907518636561026,95.25883643336766,-0.8229838658936564,-0.5680647467311559,60.5,1,70.0,0.0
SKU_001,87,171.5,0.0,249.0,87.875,-1.7500000000000027,9.84171605971235,5.981503727312205,2.9907518636561026,95.25883643336766,-0.8854560256532096,-0.4647231720437691,105.5,1,78.0,0.0
SKU_001,88,172.5,0.0,240.5,85.25,-1.3809523809523854,9.310612224768036,5.981503727312205,2.9907518636561026,95.25883643336766,-0.9350162426854147,-0.3546048870425359,74.5,1,82.0,0.0
SKU_001,89,137.0,0.0,262.5,85.875,-2.5357142857142847,8.894345113610107,5.981503727312205,2.9907518636561026,95.25883643336766,-0.970941817426052,-0.23931566428755774,82.5,1,96.0,0.0
SKU_001,90,169.5,0.0,195.5,85.625,-0.39285714285714274,8.572302782799964,5.981503727312205,2.9907518636561026,95.25883643336766,-0.992708874098054,-0.12053668025532357,38.5,1,73.0,0.0
SKU_001,91,171.0,0.0,183.0,84.25,-1.619047619047616,9.54921462739214,5.981503727312205,2.9907518636561026,95.25883643336766,-1.0,-1.8369701987210297e-16,62.0,1,73.0,0.0
SKU_001,92,180.5,0.0,152.5,81.375,-1.2976190476190497,9.026869612440406,5.981503727312205,2.9907518636561026,95.25883643336766,-0.992708874098054,0.1205366802553232,52.0,1,73.0,0.0
SKU_001,93,146.0,0.0,186.0,79.75,-1.5000000000000029,9.216154295583381,5.981503727312205,2.9907518636561026,95.25883643336766,-0.9709418174260521,0.23931566428755738,72.0,1,73.0,0.0
SKU_001,94,157.0,0.0,176.5,77.25,-0.6428571428571472,7.901740314639554,5.981503727312205,2.9907518636561026,95.25883643336766,-0.9350162426854148,0.35460488704253557,52.5,1,51.0,0.0
SKU_001,95,134.0,0.0,250.0,74.875,-3.6071428571428608,11.67730170030731,5.981503727312205,2.9907518636561026,95.25883643336766,-0.8854560256532101,0.464723172043768,125.5,1,75.0,0.0
SKU_001,96,139.0,0.0,233.5,74.5,-3.2619047619047685,11.61895003862225,5.981503727312205,2.9907518636561026,95.25883643336766,-0.822983865893657,0.5680647467311548,55.5,1,67.0,0.0
SKU_001,97,103.5,0.0,243.0,72.625,-3.0833333333333406,11.46666363856549,5.981503727312205,2.9907518636561026,95.25883643336766,-0.7485107481711011,0.6631226582407952,62.0,1,88.0,0.0
SKU_001,98,151.0,0.0,145.5,71.625,0.7023809523809492,9.577806377245262,5.981503727312205,2.9907518636561026,95.25883643336766,-0.6631226582407955,0.7485107481711007,28.0,1,78.0,0.0
SKU_001,99,160.5,0.0,98.5,72.25,1.3809523809523778,9.807522622966516,5.981503727312205,2.9907518636561026,95.25883643336766,-0.5680647467311559,0.8229838658936564,8.5,1,46.0,0.0
SKU_001,100,165.5,0.0,170.5,68.875,-0.7261904761904772,13.071318793450033,5.981503727312205,2.9907518636561026,95.25883643336766,-0.4647231720437684,0.88545602565321,134.0,1,57.0,0.0
SKU_001,101,143.5,0.0,175.49999999999994,66.875,-1.2738095238095257,13.504050318330423,5.981503727312205,2.9907518636561026,95.25883643336766,-0.35460488704253595,0.9350162426854147,32.99999999999994,1,50.0,0.0
SKU_001,102,93.0,0.0,166.99999999999994,64.0,-2.0238095238095233,14.317821063276353,5.981503727312205,2.9907518636561026,95.25883643336766,-0.2393156642875578,0.970941817426052,0.0,0,59.0,0.0
SKU_001,103,167.0,0.0,32.99999999999994,65.0,-3.8333333333333344,13.638181696985855,5.981503727312205,2.9907518636561026,95.25883643336766,-0.12053668025532363,0.992708874098054,0.0,0,60.0,0.0
SKU_002,0,523.6506491170518,0.0,454.8493508829482,194.41266227926295,0.0,0.0,2.1764422438127493,1.0882211219063747,26.914129444367248,0.0,1.0,454.8493508829482,1,254.0,0.0
SKU_002,1,746.5,0.0,197.0,254.0,0.0,0.0,2.1764422438127493,1.0882211219063747,26.914129444367248,0.12053668025532305,0.992708874098054,197.0,1,232.0,0.0
SKU_002,2,703.5,0.0,278.5,243.0,-21.99999999999999,11.0,2.1764422438127493,1.0882211219063747,26.914129444367248,0.23931566428755774,0.970941817426052,278.5,1,240.0,0.0
SKU_002,3,723.0,0.0,227.5,242.0,-6.999999999999977,9.092121131323903,2.1764422438127493,1.0882211219063747,26.914129444367248,0.3546048870425356,0.9350162426854148,227.5,1,259.0,0.0
SKU_002,4,738.5,0.0,183.0,246.25,2.300000000000013,10.779030568655049,2.1764422438127493,1.0882211219063747,26.914129444367248,0.4647231720437685,0.8854560256532099,183.0,1,212.0,0.0
SKU_002,5,666.5,0.0,278.5,239.4,-5.7000000000000375,16.75231327309754,2.1764422438127493,1.0882211219063747,26.914129444367248,0.5680647467311558,0.8229838658936564,278.5,1,255.0,0.0
SKU_002,6,712.0,0.0,149.5,242.0,-1.0285714285714356,16.36052158907737,2.1764422438127493,1.0882211219063747,26.914129444367248,0.6631226582407952,0.7485107481711011,149.5,1,233.0,0.0
SKU_002,7,652.5,0.0,156.5,240.71428571428572,-1.6071428571428543,15.470841566492437,2.1764422438127493,1.0882211219063747,26.914129444367248,0.7485107481711011,0.6631226582407953,156.5,1,209.0,0.0
SKU_002,8,592.0,0.0,170.5,236.75,-3.7142857142857197,17.872814551715127,2.1764422438127493,1.0882211219063747,26.914129444367248,0.8229838658936564,0.5680647467311559,170.5,1,217.0,0.0
SKU_002,9,582.5,0.0,101.5,232.125,-3.511904761904778,17.595720360360357,2.1764422438127493,1.0882211219063747,26.914129444367248,0.8854560256532099,0.4647231720437686,101.5,1,180.0,0.0
SKU_002,10,524.0,0.0,148.5,225.625,-7.869047619047629,24.637052887876017,2.1764422438127493,1.0882211219063747,26.914129444367248,0.9350162426854148,0.35460488704253557,148.5,1,160.0,0.0
SKU_002,11,498.5,0.0,187.0,215.625,-11.797619047619063,31.929365402400343,2.1764422438127493,1.0882211219063747,26.914129444367248,0.970941817426052,0.23931566428755804,187.0,1,174.0,0.0
SKU_002,12,511.5,0.0,176.0,205.0,-10.619047619047631,29.79932885150268,2.1764422438127493,1.0882211219063747,26.914129444367248,0.992708874098054,0.120536680255323,176.0,1,174.0,0.0
SKU_002,13,518.5,0.0,148.5,200.25,-12.452380952380958,31.295966193744523,2.1764422438127493,1.0882211219063747,26.914129444367248,1.0,-1.6081226496766366e-16,148.5,1,169.0,0.0
SKU_002,14,509.0,0.0,170.5,189.5,-9.19047619047621,24.72347063015223,2.1764422438127493,1.0882211219063747,26.914129444367248,0.992708874098054,-0.12053668025532288,170.5,1,158.0,0.0
SKU_002,15,491.5,0.0,187.0,180.125,-7.154761904761916,20.269666376139494,2.1764422438127493,1.0882211219063747,26.914129444367248,0.9709418174260521,-0.2393156642875575,187.0,1,188.0,0.0
SKU_002,16,513.5,0.0,105.5,177.5,-3.4047619047619193,17.53567791675018,2.1764422438127493,1.0882211219063747,26.914129444367248,0.9350162426854148,-0.35460488704253545,105.5,1,165.0,0.0
SKU_002,17,463.0,0.0,132.5,171.0,-0.2142857142857252,9.473647660748208,2.1764422438127493,1.0882211219063747,26.914129444367248,0.8854560256532099,-0.4647231720437685,132.5,1,156.0,0.0
SKU_002,18,453.5,0.0,98.0,168.0,-0.5000000000000152,9.937303457175895,2.1764422438127493,1.0882211219063747,26.914129444367248,0.8229838658936565,-0.5680647467311557,98.0,1,142.0,0.0
SKU_002,19,418.5,0.0,148.5,165.75,-3.5238095238095464,13.045593125649749,2.1764422438127493,1.0882211219063747,26.914129444367248,0.7485107481711013,-0.663122658240795,148.5,1,133.0,0.0
SKU_002,20,403.0,0.0,145.0,160.625,-5.3690476190476115,16.415979258027832,2.1764422438127493,1.0882211219063747,26.914129444367248,0.6631226582407952,-0.7485107481711012,145.0,1,164.0,0.0
SKU_002,21,434.0,0.0,75.5,159.375,-3.6547619047619126,15.715736540168901,2.1764422438127493,1.0882211219063747,26.914129444367248,0.5680647467311558,-0.8229838658936564,75.5,1,114.0,0.0
SKU_002,22,380.5,0.0,155.5,152.5,-6.404761904761909,21.106870919205434,2.1764422438127493,1.0882211219063747,26.914129444367248,0.46472317204376906,-0.8854560256532096,155.5,1,129.0,0.0
SKU_002,23,403.0,0.0,175.0,148.875,-7.773809523809528,22.30715972507482,2.1764422438127493,1.0882211219063747,26.914129444367248,0.35460488704253584,-0.9350162426854147,175.0,1,133.0,0.0
SKU_002,24,421.0,0.0,145.0,142.0,-4.904761904761903,17.04406054905931,2.1764422438127493,1.0882211219063747,26.914129444367248,0.23931566428755768,-0.970941817426052,145.0,1,157.0,0.0
SKU_002,25,437.0,0.0,131.5,141.0,-1.1904761904761978,15.858751527153705,2.1764422438127493,1.0882211219063747,26.914129444367248,0.12053668025532308,-0.992708874098054,131.5,1,129.0,0.0
SKU_002,26,411.5,0.0,158.5,137.625,-0.5833333333333433,15.165235738358966,2.1764422438127493,1.0882211219063747,26.914129444367248,-3.216245299353273e-16,-1.0,158.5,1,157.0,0.0
SKU_002,27,453.0,0.0,122.5,139.5,1.5,16.46207763315433,2.1764422438127493,1.0882211219063747,26.914129444367248,-0.12053668025532283,-0.992708874098054,122.5,1,117.0,0.0
SKU_002,28,413.5,0.0,212.5,137.5,-1.0714285714285734,18.027756377319946,2.1764422438127493,1.0882211219063747,26.914129444367248,-0.23931566428755743,-0.9709418174260521,212.5,1,162.0,0.0
SKU_002,29,470.0,0.0,160.0,137.25,3.8095238095238053,17.66882848408462,2.1764422438127493,1.0882211219063747,26.914129444367248,-0.3546048870425356,-0.9350162426854148,160.0,1,156.0,0.0
SKU_002,30,472.0,0.0,134.5,142.5,2.880952380952378,16.15549442140351,2.1764422438127493,1.0882211219063747,26.914129444367248,-0.46472317204376806,-0.8854560256532101,134.5,1,158.0,0.0
SKU_002,31,466.5,0.0,160.0,146.125,2.7261904761904665,15.972143719613845,2.1764422438127493,1.0882211219063747,26.914129444367248,-0.5680647467311556,-0.8229838658936566,160.0,1,140.0,0.0
SKU_002,32,448.5,0.0,205.5,147.0,0.8095238095238037,15.411035007422441,2.1764422438127493,1.0882211219063747,26.914129444367248,-0.663122658240795,-0.7485107481711013,205.5,1,178.0,0.0
SKU_002,33,513.0,0.0,137.0,149.625,4.4642857142856975,18.39114936593143,2.1764422438127493,1.0882211219063747,26.914129444367248,-0.7485107481711011,-0.6631226582407952,137.0,1,141.0,0.0
SKU_002,34,492.0,0.0,232.5,151.125,1.535714285714281,17.091207534870087,2.1764422438127493,1.0882211219063747,26.914129444367248,-0.8229838658936564,-0.5680647467311559,232.5,1,158.0,0.0
SKU_002,35,531.5,0.0,273.0,151.25,2.7380952380952324,17.137313091613866,2.1764422438127493,1.0882211219063747,26.914129444367248,-0.8854560256532096,-0.4647231720437691,273.0,1,193.0,0.0
SKU_002,36,594.5,0.0,212.5,160.75,2.547619047619039,16.57369904396722,2.1764422438127493,1.0882211219063747,26.914129444367248,-0.9350162426854147,-0.3546048870425359,212.5,1,210.0,0.0
SKU_002,37,621.0,0.0,186.0,166.75,6.785714285714274,23.27418097377435,2.1764422438127493,1.0882211219063747,26.914129444367248,-0.970941817426052,-0.23931566428755774,186.0,1,186.0,0.0
SKU_002,38,593.0,0.0,274.0,170.5,7.238095238095233,23.65375234502974,2.1764422438127493,1.0882211219063747,26.914129444367248,-0.992708874098054,-0.12053668025532357,274.0,1,214.0,0.0
SKU_002,39,655.0,0.0,215.0,177.5,9.523809523809517,26.972207918522354,2.1764422438127493,1.0882211219063747,26.914129444367248,-1.0,-1.8369701987210297e-16,215.0,1,212.0,0.0
SKU_002,40,668.0,0.0,252.0,186.5,8.380952380952381,24.889756929307286,2.1764422438127493,1.0882211219063747,26.914129444367248,-0.992708874098054,0.1205366802553232,252.0,1,202.0,0.0
SKU_002,41,666.0,0.0,311.0,189.5,8.761904761904754,25.129663746258124,2.1764422438127493,1.0882211219063747,26.914129444367248,-0.9709418174260521,0.23931566428755738,311.0,1,254.0,0.0
SKU_002,42,733.0,0.0,222.5,203.625,8.940476190476176,25.651206111994032,2.1764422438127493,1.0882211219063747,26.914129444367248,-0.9350162426854148,0.35460488704253557,222.5,1,244.0,0.0
SKU_002,43,727.5,0.0,236.0,214.375,7.416666666666653,22.04505330000361,2.1764422438127493,1.0882211219063747,26.914129444367248,-0.8854560256532101,0.464723172043768,236.0,1,228.0,0.0
SKU_002,44,731.5,0.0,292.5,218.75,6.26190476190476,20.80715021332811,2.1764422438127493,1.0882211219063747,26.914129444367248,-0.822983865893657,0.5680647467311548,292.5,1,232.0,0.0
SKU_002,45,761.0,0.0,342.5,221.5,6.428571428571414,20.92247595290768,2.1764422438127493,1.0882211219063747,26.914129444367248,-0.7485107481711011,0.6631226582407952,342.5,1,263.0,0.0
SKU_002,46,819.5,0.0,273.5,231.125,6.0833333333333295,20.07135707918127,2.1764422438127493,1.0882211219063747,26.914129444367248,-0.6631226582407955,0.7485107481711007,273.5,1,284.0,0.0
SKU_002,47,814.0,0.0,265.5,239.875,8.654761904761893,25.28061263102617,2.1764422438127493,1.0882211219063747,26.914129444367248,-0.5680647467311559,0.8229838658936564,265.5,1,279.0,0.0
SKU_002,48,792.5,0.0,221.5,248.25,8.928571428571406,25.752427070084092,2.1764422438127493,1.0882211219063747,26.914129444367248,-0.4647231720437684,0.88545602565321,221.5,1,287.0,0.0
SKU_002,49,804.0,0.0,171.0,258.875,7.2023809523809526,21.693533022539228,2.1764422438127493,1.0882211219063747,26.914129444367248,-0.35460488704253595,0.9350162426854147,171.0,1,210.0,0.0
SKU_002,50,724.0,0.0,348.5,253.375,2.6071428571428434,27.129031958402056,2.1764422438127493,1.0882211219063747,26.914129444367248,-0.2393156642875578,0.970941817426052,348.5,1,251.0,0.0
SKU_002,51,786.5,0.0,321.0,254.25,1.4047619047618922,26.924663414794992,2.1764422438127493,1.0882211219063747,26.914129444367248,-0.12053668025532363,0.992708874098054,321.0,1,286.0,0.0
SKU_002,52,826.5,0.0,211.5,261.5,1.2380952380952341,26.688012290165037,2.1764422438127493,1.0882211219063747,26.914129444367248,0.0,1.0,211.5,1,281.0,0.0
SKU_002,53,785.0,0.0,237.0,267.625,-0.29761904761906044,24.76861673570004,2.1764422438127493,1.0882211219063747,26.914129444367248,0.12053668025532305,0.992708874098054,237.0,1,253.0,0.0
SKU_002,54,761.0,0.0,195.5,266.375,-2.0119047619047667,25.218730638158615,2.1764422438127493,1.0882211219063747,26.914129444367248,0.23931566428755774,0.970941817426052,195.5,1,261.0,0.0
SKU_002,55,743.5,0.0,234.5,263.5,-0.571428571428594,24.34132288927617,2.1764422438127493,1.0882211219063747,26.914129444367248,0.3546048870425356,0.9350162426854148,234.5,1,213.0,0.0
SKU_002,56,689.0,0.0,267.5,255.25,-3.11904761904764,28.516442625264464,2.1764422438127493,1.0882211219063747,26.914129444367248,0.4647231720437685,0.8854560256532099,267.5,1,289.0,0.0
SKU_002,57,754.5,0.0,149.5,255.5,3.095238095238075,28.801041647829337,2.1764422438127493,1.0882211219063747,26.914129444367248,0.5680647467311558,0.8229838658936564,149.5,1,202.0,0.0
SKU_002,58,656.0,0.0,243.5,254.5,-6.238095238095254,30.454884665682123,2.1764422438127493,1.0882211219063747,26.914129444367248,0.6631226582407952,0.7485107481711011,243.5,1,248.0,0.0
SKU_002,59,707.5,0.0,190.5,254.125,-7.154761904761906,30.514084862567973,2.1764422438127493,1.0882211219063747,26.914129444367248,0.7485107481711011,0.6631226582407953,190.5,1,192.0,0.0
SKU_002,60,632.0,0.0,292.0,242.375,-8.916666666666686,33.88929587642682,2.1764422438127493,1.0882211219063747,26.914129444367248,0.8229838658936564,0.5680647467311559,292.0,1,266.0,0.0
SKU_002,61,711.0,0.0,109.5,240.5,-2.809523809523821,32.06633748964793,2.1764422438127493,1.0882211219063747,26.914129444367248,0.8854560256532099,0.4647231720437686,109.5,1,213.0,0.0
SKU_002,62,611.5,0.0,194.5,235.5,-3.7619047619047694,32.836717253708535,2.1764422438127493,1.0882211219063747,26.914129444367248,0.9350162426854148,0.35460488704253557,194.5,1,209.0,0.0
SKU_002,63,604.0,0.0,148.0,229.0,-3.2380952380952372,32.28776858192588,2.1764422438127493,1.0882211219063747,26.914129444367248,0.970941817426052,0.23931566428755804,148.0,1,202.0,0.0
SKU_002,64,579.0,0.0,159.5,227.625,-7.202380952380944,33.16224321423387,2.1764422438127493,1.0882211219063747,26.914129444367248,0.992708874098054,0.120536680255323,159.5,1,173.0,0.0
SKU_002,65,532.5,0.0,205.0,213.125,-5.178571428571448,28.135553575503007,2.1764422438127493,1.0882211219063747,26.914129444367248,1.0,-1.6081226496766366e-16,205.0,1,206.0,0.0
SKU_002,66,564.5,0.0,113.0,213.625,-6.964285714285731,27.96845321071582,2.1764422438127493,1.0882211219063747,26.914129444367248,0.992708874098054,-0.12053668025532288,113.0,1,173.0,0.0
SKU_002,67,510.5,0.0,144.0,204.25,-6.666666666666665,27.439706631084814,2.1764422438127493,1.0882211219063747,26.914129444367248,0.9709418174260521,-0.2393156642875575,144.0,1,167.0,0.0
SKU_002,68,483.5,0.0,144.5,201.125,-11.08333333333334,29.964301677162442,2.1764422438127493,1.0882211219063747,26.914129444367248,0.9350162426854148,-0.35460488704253545,144.5,1,171.0,0.0
SKU_002,69,464.0,0.0,128.5,189.25,-6.64285714285715,18.552290963651902,2.1764422438127493,1.0882211219063747,26.914129444367248,0.8854560256532099,-0.4647231720437685,128.5,1,164.0,0.0
SKU_002,70,461.5,0.0,100.0,183.125,-6.202380952380951,17.772433007329074,2.1764422438127493,1.0882211219063747,26.914129444367248,0.8229838658936565,-0.5680647467311557,100.0,1,131.0,0.0
SKU_002,71,441.5,0.0,179.0,173.375,-7.7738095238095335,21.83424775438806,2.1764422438127493,1.0882211219063747,26.914129444367248,0.7485107481711013,-0.663122658240795,179.0,1,120.0,0.0
SKU_002,72,440.5,0.0,265.0,163.125,-9.154761904761905,25.007186467093813,2.1764422438127493,1.0882211219063747,26.914129444367248,0.6631226582407952,-0.7485107481711012,265.0,1,180.0,0.0
SKU_002,73,515.5,0.0,125.5,164.0,-6.690476190476201,25.45584412271571,2.1764422438127493,1.0882211219063747,26.914129444367248,0.5680647467311558,-0.8229838658936564,125.5,1,190.0,0.0
SKU_002,74,490.0,0.0,97.0,162.0,-0.023809523809532704,22.538855339169288,2.1764422438127493,1.0882211219063747,26.914129444367248,0.46472317204376906,-0.8854560256532096,97.0,1,151.0,0.0
SKU_002,75,437.0,0.0,106.0,159.25,0.23809523809522581,22.37046043334826,2.1764422438127493,1.0882211219063747,26.914129444367248,0.35460488704253584,-0.9350162426854147,106.0,1,150.0,0.0
SKU_002,76,434.0,0.0,126.5,157.125,0.2976190476190401,22.340755918276354,2.1764422438127493,1.0882211219063747,26.914129444367248,0.23931566428755768,-0.970941817426052,126.5,1,109.0,0.0
SKU_002,77,398.5,0.0,229.0,149.375,-2.2261904761904847,26.542124538175162,2.1764422438127493,1.0882211219063747,26.914129444367248,0.12053668025532308,-0.992708874098054,229.0,1,162.0,0.0
SKU_002,78,480.5,0.0,138.5,149.125,0.39285714285713513,26.41229590550583,2.1764422438127493,1.0882211219063747,26.914129444367248,-3.216245299353273e-16,-1.0,138.5,1,147.0,0.0
SKU_002,79,458.0,0.0,206.0,151.125,-1.7261904761904807,25.556004676005205,2.1764422438127493,1.0882211219063747,26.914129444367248,-0.12053668025532283,-0.992708874098054,206.0,1,161.0,0.0
SKU_002,80,497.0,0.0,162.5,156.25,-4.2380952380952515,22.758240265890507,2.1764422438127493,1.0882211219063747,26.914129444367248,-0.23931566428755743,-0.9709418174260521,162.5,1,167.0,0.0
SKU_002,81,512.5,0.0,161.5,154.625,-0.7976190476190551,21.4297544316308,2.1764422438127493,1.0882211219063747,26.914129444367248,-0.3546048870425356,-0.9350162426854148,161.5,1,147.0,0.0
SKU_002,82,477.0,0.0,245.0,149.25,2.357142857142852,16.768646337734005,2.1764422438127493,1.0882211219063747,26.914129444367248,-0.46472317204376806,-0.8854560256532101,245.0,1,197.0,0.0
SKU_002,83,542.0,0.0,139.0,155.0,6.523809523809519,23.08137777516758,2.1764422438127493,1.0882211219063747,26.914129444367248,-0.5680647467311556,-0.8229838658936566,139.0,1,180.0,0.0
SKU_002,84,545.0,0.0,148.0,158.75,8.071428571428562,24.365703355331238,2.1764422438127493,1.0882211219063747,26.914129444367248,-0.663122658240795,-0.7485107481711013,148.0,1,136.0,0.0
SKU_002,85,516.0,0.0,327.0,162.125,0.8452380952380879,18.374149640187433,2.1764422438127493,1.0882211219063747,26.914129444367248,-0.7485107481711011,-0.6631226582407952,327.0,1,177.0,0.0
SKU_002,86,606.0,0.0,295.0,164.0,2.0714285714285654,19.019726601610234,2.1764422438127493,1.0882211219063747,26.914129444367248,-0.8229838658936564,-0.5680647467311559,295.0,1,237.0,0.0
SKU_002,87,691.0,0.0,216.0,175.25,6.33333333333333,29.414069762615306,2.1764422438127493,1.0882211219063747,26.914129444367248,-0.8854560256532096,-0.4647231720437691,216.0,1,210.0,0.0
SKU_002,88,673.0,0.0,253.0,181.375,7.702380952380948,30.874493922977912,2.1764422438127493,1.0882211219063747,26.914129444367248,-0.9350162426854147,-0.3546048870425359,253.0,1,234.0,0.0
SKU_002,89,699.0,0.0,265.0,189.75,10.547619047619035,34.690596708618315,2.1764422438127493,1.0882211219063747,26.914129444367248,-0.970941817426052,-0.23931566428755774,265.0,1,227.0,0.0
SKU_002,90,709.0,0.0,241.5,199.75,9.071428571428555,32.379584617471544,2.1764422438127493,1.0882211219063747,26.914129444367248,-0.992708874098054,-0.12053668025532357,241.5,1,255.0,0.0
SKU_002,91,736.5,0.0,230.5,207.0,13.380952380952374,37.1012129181783,2.1764422438127493,1.0882211219063747,26.914129444367248,-1.0,-1.8369701987210297e-16,230.5,1,214.0,0.0
SKU_002,92,699.0,0.0,302.5,211.25,11.071428571428573,35.685256059050495,2.1764422438127493,1.0882211219063747,26.914129444367248,-0.992708874098054,0.1205366802553232,302.5,1,268.0,0.0
SKU_002,93,775.5,0.0,218.0,227.75,7.738095238095219,26.380627361759235,2.1764422438127493,1.0882211219063747,26.914129444367248,-0.9709418174260521,0.23931566428755738,218.0,1,226.0,0.0
SKU_002,94,731.5,0.0,316.0,233.875,2.154761904761902,18.35372918510023,2.1764422438127493,1.0882211219063747,26.914129444367248,-0.9350162426854148,0.35460488704253557,316.0,1,262.0,0.0
SKU_002,95,788.5,0.0,247.5,237.0,4.833333333333322,20.60946384552495,2.1764422438127493,1.0882211219063747,26.914129444367248,-0.8854560256532101,0.464723172043768,247.5,1,259.0,0.0
SKU_002,96,772.0,0.0,265.0,243.125,3.7738095238095224,18.884103764807055,2.1764422438127493,1.0882211219063747,26.914129444367248,-0.822983865893657,0.5680647467311548,265.0,1,264.0,0.0
SKU_002,97,769.0,0.0,252.0,246.875,4.535714285714282,19.662384773978967,2.1764422438127493,1.0882211219063747,26.914129444367248,-0.7485107481711011,0.6631226582407952,252.0,1,268.0,0.0
SKU_002,98,786.0,0.0,229.5,252.0,4.166666666666662,19.150718002205558,2.1764422438127493,1.0882211219063747,26.914129444367248,-0.6631226582407955,0.7485107481711007,229.5,1,235.0,0.0
SKU_002,99,772.5,0.0,294.0,249.5,3.0714285714285663,19.887181801351343,2.1764422438127493,1.0882211219063747,26.914129444367248,-0.5680647467311559,0.8229838658936564,294.0,1,243.0,0.0
SKU_002,100,776.5,0.0,263.5,253.125,-1.273809523809532,15.169356446467992,2.1764422438127493,1.0882211219063747,26.914129444367248,-0.4647231720437684,0.88545602565321,263.5,1,290.0,0.0
SKU_002,101,733.0,0.0,341.4000000000001,255.875,3.3928571428571175,19.10129249553548,2.1764422438127493,1.0882211219063747,26.914129444367248,-0.35460488704253595,0.9350162426854147,341.4000000000001,1,307.0,0.0
SKU_002,102,847.4000000000001,0.0,194.19999999999982,266.0,4.452380952380946,21.85177338341216,2.1764422438127493,1.0882211219063747,26.914129444367248,-0.2393156642875578,0.970941817426052,194.19999999999982,1,227.0,0.0
SKU_002,103,757.5999999999999,0.0,53.0,261.625,0.773809523809513,25.42605700850999,2.1764422438127493,1.0882211219063747,26.914129444367248,-0.12053668025532363,0.992708874098054,53.0,1,284.0,0.0
SKU_003,0,150.42724182904058,0.0,71.57275817095942,46.606810457260146,0.0,0.0,6.843995459244416,3.421997729622208,28.499848843195824,0.0,1.0,71.57275817095942,1,36.0,0.0
SKU_003,1,113.42724182904058,0.0,102.57275817095942,36.0,0.0,0.0,6.843995459244416,3.421997729622208,28.499848843195824,0.12053668025532305,0.992708874098054,31.0,1,37.0,0.0
SKU_003,2,68.42724182904058,0.0,149.07275817095942,36.5,0.9999999999999921,0.5,6.843995459244416,3.421997729622208,28.499848843195824,0.23931566428755774,0.970941817426052,46.5,1,45.0,0.0
SKU_003,3,110.0,0.0,91.0,39.333333333333336,4.499999999999994,4.027681991198191,6.843995459244416,3.421997729622208,28.499848843195824,0.3546048870425356,0.9350162426854148,13.5,1,30.0,0.0
SKU_003,4,109.0,0.0,93.5,37.0,-0.9999999999999959,5.338539126015656,6.843995459244416,3.421997729622208,28.499848843195824,0.4647231720437685,0.8854560256532099,33.5,1,32.0,0.0
SKU_003,5,117.5,0.0,68.5,36.0,-1.5000000000000022,5.176871642217914,6.843995459244416,3.421997729622208,28.499848843195824,0.5680647467311558,0.8229838658936564,21.5,1,38.0,0.0
SKU_003,6,97.0,0.0,60.5,36.333333333333336,-0.5714285714285705,4.784233364802441,6.843995459244416,3.421997729622208,28.499848843195824,0.6631226582407952,0.7485107481711011,5.5,1,34.0,0.0
SKU_003,7,99.5,0.0,77.5,36.0,-0.607142857142858,4.503966505838413,6.843995459244416,3.421997729622208,28.499848843195824,0.7485107481711011,0.6631226582407953,50.5,1,31.0,0.0
SKU_003,8,100.0,0.0,62.0,35.375,-0.821428571428573,4.525966747557918,6.843995459244416,3.421997729622208,28.499848843195824,0.8229838658936564,0.5680647467311559,6.0,1,21.0,0.0
SKU_003,9,86.5,0.0,111.5,33.5,-1.9523809523809537,6.5383484153110105,6.843995459244416,3.421997729622208,28.499848843195824,0.8854560256532099,0.4647231720437686,55.0,1,19.0,0.0
SKU_003,10,90.0,0.0,127.5,31.25,-2.785714285714285,7.901740314639554,6.843995459244416,3.421997729622208,28.499848843195824,0.9350162426854148,0.35460488704253557,66.5,1,47.0,0.0
SKU_003,11,75.0,0.0,130.5,31.5,-1.7476471982405142e-15,8.351646544245034,6.843995459244416,3.421997729622208,28.499848843195824,0.970941817426052,0.23931566428755804,9.0,1,21.0,0.0
SKU_003,12,85.0,0.0,167.0,30.375,-1.0357142857142876,9.054522350737226,6.843995459244416,3.421997729622208,28.499848843195824,0.992708874098054,0.120536680255323,91.5,1,45.0,0.0
SKU_003,13,119.5,0.0,132.5,32.0,0.35714285714285704,10.283481900601567,6.843995459244416,3.421997729622208,28.499848843195824,1.0,-1.6081226496766366e-16,32.0,1,32.0,0.0
SKU_003,14,89.5,0.0,179.0,31.25,0.9999999999999994,10.034316120194738,6.843995459244416,3.421997729622208,28.499848843195824,0.992708874098054,-0.12053668025532288,55.5,1,39.0,0.0
SKU_003,15,129.0,0.0,145.5,31.875,1.9404761904761894,10.337280832017674,6.843995459244416,3.421997729622208,28.499848843195824,0.9709418174260521,-0.2393156642875575,58.0,1,52.0,0.0
SKU_003,16,116.0,0.0,140.5,34.5,3.5238095238095233,12.267844146385297,6.843995459244416,3.421997729622208,28.499848843195824,0.9350162426854148,-0.35460488704253545,27.0,1,45.0,0.0
SKU_003,17,128.5,0.0,126.5,37.5,2.9523809523809494,11.510864433221338,6.843995459244416,3.421997729622208,28.499848843195824,0.8854560256532099,-0.4647231720437685,41.5,1,43.0,0.0
SKU_003,18,143.5,0.0,134.0,40.5,1.4285714285714277,9.192388155425117,6.843995459244416,3.421997729622208,28.499848843195824,0.8229838658936565,-0.5680647467311557,65.5,1,43.0,0.0
SKU_003,19,130.5,0.0,169.5,40.0,2.3333333333333295,8.930285549745875,6.843995459244416,3.421997729622208,28.499848843195824,0.7485107481711013,-0.663122658240795,62.5,1,40.0,0.0
SKU_003,20,128.0,0.0,190.0,42.375,0.2976190476190459,5.383713866839507,6.843995459244416,3.421997729622208,28.499848843195824,0.6631226582407952,-0.7485107481711012,62.0,1,44.0,0.0
SKU_003,21,135.5,0.0,203.5,42.25,0.7142857142857112,5.332682251925386,6.843995459244416,3.421997729622208,28.499848843195824,0.5680647467311558,-0.8229838658936564,79.0,1,58.0,0.0
SKU_003,22,140.0,0.0,187.0,45.5,0.9285714285714257,5.979130371550699,6.843995459244416,3.421997729622208,28.499848843195824,0.46472317204376906,-0.8854560256532096,46.0,1,58.0,0.0
SKU_003,23,150.0,0.0,163.5,47.875,1.273809523809523,6.66028340237861,6.843995459244416,3.421997729622208,28.499848843195824,0.35460488704253584,-0.9350162426854147,38.5,1,52.0,0.0
SKU_003,24,171.0,0.0,136.5,47.875,2.059523809523806,6.66028340237861,6.843995459244416,3.421997729622208,28.499848843195824,0.23931566428755768,-0.970941817426052,52.0,1,58.0,0.0
SKU_003,25,167.0,0.0,142.0,49.5,2.5952380952380945,7.314369419163897,6.843995459244416,3.421997729622208,28.499848843195824,0.12053668025532308,-0.992708874098054,51.5,1,50.0,0.0
SKU_003,26,156.5,0.0,164.5,50.375,1.9404761904761894,6.89089072616886,6.843995459244416,3.421997729622208,28.499848843195824,-3.216245299353273e-16,-1.0,61.0,1,49.0,0.0
SKU_003,27,160.5,0.0,192.0,51.125,1.0357142857142814,6.352902879786531,6.843995459244416,3.421997729622208,28.499848843195824,-0.12053668025532283,-0.992708874098054,79.5,1,48.0,0.0
SKU_003,28,153.0,0.0,219.0,52.125,-0.4166666666666709,5.010925563206861,6.843995459244416,3.421997729622208,28.499848843195824,-0.23931566428755743,-0.9709418174260521,78.5,1,59.0,0.0
SKU_003,29,156.0,0.0,226.5,54.0,-0.714285714285718,4.387482193696061,6.843995459244416,3.421997729622208,28.499848843195824,-0.3546048870425356,-0.9350162426854148,68.5,1,58.0,0.0
SKU_003,30,165.5,0.0,230.5,54.0,0.047619047619047734,4.387482193696061,6.843995459244416,3.421997729622208,28.499848843195824,-0.46472317204376806,-0.8854560256532101,83.5,1,70.0,0.0
SKU_003,31,183.0,0.0,193.5,55.5,1.8095238095238086,6.855654600401044,6.843995459244416,3.421997729622208,28.499848843195824,-0.5680647467311556,-0.8229838658936566,41.5,1,61.0,0.0
SKU_003,32,185.5,0.0,168.5,56.625,1.8928571428571412,6.927075501248705,6.843995459244416,3.421997729622208,28.499848843195824,-0.663122658240795,-0.7485107481711013,43.5,1,66.0,0.0
SKU_003,33,202.0,0.0,141.5,57.625,2.8214285714285694,7.598313957714566,6.843995459244416,3.421997729622208,28.499848843195824,-0.7485107481711011,-0.6631226582407952,56.5,1,67.0,0.0
SKU_003,34,186.5,0.0,155.5,59.75,2.7857142857142816,7.545694136393285,6.843995459244416,3.421997729622208,28.499848843195824,-0.8229838658936564,-0.5680647467311559,55.5,1,57.0,0.0
SKU_003,35,184.0,0.0,144.5,60.75,1.404761904761905,6.514407110397691,6.843995459244416,3.421997729622208,28.499848843195824,-0.8854560256532096,-0.4647231720437691,32.5,1,46.0,0.0
SKU_003,36,181.5,0.0,163.5,60.5,-1.190476190476192,7.0178344238090995,6.843995459244416,3.421997729622208,28.499848843195824,-0.9350162426854147,-0.3546048870425359,75.5,1,59.0,0.0
SKU_003,37,171.0,0.0,166.5,60.5,-1.4761904761904825,7.0178344238090995,6.843995459244416,3.421997729622208,28.499848843195824,-0.970941817426052,-0.23931566428755774,58.5,1,66.0,0.0
SKU_003,38,155.5,0.0,164.0,61.5,-1.2857142857142916,7.158910531638177,6.843995459244416,3.421997729622208,28.499848843195824,-0.992708874098054,-0.12053668025532357,30.0,1,48.0,0.0
SKU_003,39,174.0,0.0,144.0,58.75,-1.5000000000000047,7.578753195612059,6.843995459244416,3.421997729622208,28.499848843195824,-1.0,-1.8369701987210297e-16,55.5,1,57.0,0.0
SKU_003,40,178.5,0.0,127.5,58.25,-1.404761904761905,7.545694136393285,6.843995459244416,3.421997729622208,28.499848843195824,-0.992708874098054,0.1205366802553232,42.0,1,54.0,0.0
SKU_003,41,154.5,0.0,148.5,56.75,-0.9285714285714292,7.031180555212616,6.843995459244416,3.421997729622208,28.499848843195824,-0.9709418174260521,0.23931566428755738,51.0,1,54.0,0.0
SKU_003,42,163.0,0.0,117.5,55.125,-0.05952380952381203,5.8829733128750465,6.843995459244416,3.421997729622208,28.499848843195824,-0.9350162426854148,0.35460488704253557,24.5,1,47.0,0.0
SKU_003,43,156.0,0.0,124.5,53.875,-0.5357142857142908,6.392133837772798,6.843995459244416,3.421997729622208,28.499848843195824,-0.8854560256532101,0.464723172043768,49.0,1,49.0,0.0
SKU_003,44,155.0,0.0,140.5,54.25,-1.7857142857142851,5.994789404140899,6.843995459244416,3.421997729622208,28.499848843195824,-0.822983865893657,0.5680647467311548,67.0,1,52.0,0.0
SKU_003,45,140.5,0.0,141.5,53.375,-1.464285714285715,5.743202503830071,6.843995459244416,3.421997729622208,28.499848843195824,-0.7485107481711011,0.6631226582407952,25.5,1,39.0,0.0
SKU_003,46,142.5,0.0,144.0,50.0,-1.309523809523811,5.244044240850758,6.843995459244416,3.421997729622208,28.499848843195824,-0.6631226582407955,0.7485107481711007,51.5,1,47.0,0.0
SKU_003,47,150.5,0.0,112.0,49.875,-1.7738095238095253,5.301827515112124,6.843995459244416,3.421997729622208,28.499848843195824,-0.5680647467311559,0.8229838658936564,35.0,1,59.0,0.0
SKU_003,48,133.0,0.0,102.5,50.125,-0.25000000000000056,5.666513478321568,6.843995459244416,3.421997729622208,28.499848843195824,-0.4647231720437684,0.88545602565321,16.0,1,43.0,0.0
SKU_003,49,142.5,0.0,93.0,48.75,-0.42857142857142966,5.889609494694874,6.843995459244416,3.421997729622208,28.499848843195824,-0.35460488704253595,0.9350162426854147,42.0,1,42.0,0.0
SKU_003,50,146.5,0.0,68.0,47.25,-0.4285714285714321,5.889609494694874,6.843995459244416,3.421997729622208,28.499848843195824,-0.2393156642875578,0.970941817426052,10.0,1,31.0,0.0
SKU_003,51,121.5,0.0,96.0,45.25,-1.8095238095238138,7.980444849756184,6.843995459244416,3.421997729622208,28.499848843195824,-0.12053668025532363,0.992708874098054,44.0,1,41.0,0.0
SKU_003,52,120.5,0.0,95.5,44.25,-1.7619047619047603,7.949056547792323,6.843995459244416,3.421997729622208,28.499848843195824,0.0,1.0,41.5,1,43.0,0.0
SKU_003,53,102.5,0.0,85.5,43.125,-1.0357142857142856,7.389815626928726,6.843995459244416,3.421997729622208,28.499848843195824,0.12053668025532305,0.992708874098054,0.0,0,28.0,0.0
SKU_003,54,113.5,0.0,77.0,41.75,-2.738095238095239,8.898735865278843,6.843995459244416,3.421997729622208,28.499848843195824,0.23931566428755774,0.970941817426052,35.5,1,33.0,0.0
SKU_003,55,115.0,0.0,63.5,40.0,-2.90476190476191,9.069178573608527,6.843995459244416,3.421997729622208,28.499848843195824,0.3546048870425356,0.9350162426854148,28.0,1,40.0,0.0
SKU_003,56,92.0,0.0,79.0,37.625,-0.8690476190476236,5.61109392186586,6.843995459244416,3.421997729622208,28.499848843195824,0.4647231720437685,0.8854560256532099,15.5,1,23.0,0.0
SKU_003,57,96.5,0.0,91.0,35.125,-1.5119047619047608,6.954090522850562,6.843995459244416,3.421997729622208,28.499848843195824,0.5680647467311558,0.8229838658936564,47.5,1,31.0,0.0
SKU_003,58,99.5,0.0,89.5,33.75,-1.1190476190476206,6.53356717268599,6.843995459244416,3.421997729622208,28.499848843195824,0.6631226582407952,0.7485107481711011,26.5,1,25.0,0.0
SKU_003,59,80.0,0.0,122.5,33.0,-2.142857142857144,7.123903424387503,6.843995459244416,3.421997729622208,28.499848843195824,0.7485107481711011,0.6631226582407953,48.5,1,35.0,0.0
SKU_003,60,93.5,0.0,95.5,32.25,-1.1190476190476197,6.53356717268599,6.843995459244416,3.421997729622208,28.499848843195824,0.8229838658936564,0.5680647467311559,20.5,1,34.0,0.0
SKU_003,61,88.0,0.0,110.0,31.125,0.17857142857142622,5.23061898822692,6.843995459244416,3.421997729622208,28.499848843195824,0.8854560256532099,0.4647231720437686,41.0,1,32.0,0.0
SKU_003,62,102.5,0.0,82.0,31.625,-0.08333333333333608,5.0974871260259205,6.843995459244416,3.421997729622208,28.499848843195824,0.9350162426854148,0.35460488704253557,20.5,1,34.0,0.0
SKU_003,63,97.0,0.0,83.0,31.75,0.26190476190476025,5.141740950300783,6.843995459244416,3.421997729622208,28.499848843195824,0.970941817426052,0.23931566428755804,21.5,1,26.0,0.0
SKU_003,64,98.0,0.0,101.5,30.0,0.6666666666666646,4.358898943540674,6.843995459244416,3.421997729622208,28.499848843195824,0.992708874098054,0.120536680255323,59.5,1,40.0,0.0
SKU_003,65,95.5,0.0,111.5,32.125,0.7499999999999989,4.567206476611277,6.843995459244416,3.421997729622208,28.499848843195824,1.0,-1.6081226496766366e-16,30.5,1,23.0,0.0
SKU_003,66,86.0,0.0,140.5,31.125,-0.130952380952382,5.4872010169119925,6.843995459244416,3.421997729622208,28.499848843195824,0.992708874098054,-0.12053668025532288,50.5,1,31.0,0.0
SKU_003,67,106.5,0.0,132.0,31.875,-0.7976190476190488,4.985917668794783,6.843995459244416,3.421997729622208,28.499848843195824,0.9709418174260521,-0.2393156642875575,51.0,1,39.0,0.0
SKU_003,68,92.0,0.0,146.5,32.375,0.1309523809523795,5.452923527796809,6.843995459244416,3.421997729622208,28.499848843195824,0.9350162426854148,-0.35460488704253545,45.0,1,45.0,0.0
SKU_003,69,106.5,0.0,142.5,33.75,1.3571428571428577,6.887488656977955,6.843995459244416,3.421997729622208,28.499848843195824,0.8854560256532099,-0.4647231720437685,46.5,1,36.0,0.0
SKU_003,70,118.5,0.0,138.0,34.25,1.357142857142857,6.887488656977955,6.843995459244416,3.421997729622208,28.499848843195824,0.8229838658936565,-0.5680647467311557,46.5,1,39.0,0.0
SKU_003,71,124.5,0.0,141.0,34.875,1.7261904761904736,7.0611171212493,6.843995459244416,3.421997729622208,28.499848843195824,0.7485107481711013,-0.663122658240795,48.0,1,39.0,0.0
SKU_003,72,119.0,0.0,158.5,36.5,1.1190476190476193,6.284902544988268,6.843995459244416,3.421997729622208,28.499848843195824,0.6631226582407952,-0.7485107481711012,64.0,1,52.0,0.0
SKU_003,73,124.5,0.0,153.0,38.0,2.785714285714284,8.108637370113428,6.843995459244416,3.421997729622208,28.499848843195824,0.5680647467311558,-0.8229838658936564,41.0,1,41.0,0.0
SKU_003,74,127.5,0.0,172.5,40.25,1.4285714285714262,5.80409338312195,6.843995459244416,3.421997729622208,28.499848843195824,0.46472317204376906,-0.8854560256532096,67.5,1,45.0,0.0
SKU_003,75,144.5,0.0,172.0,42.0,0.8333333333333316,4.769696007084728,6.843995459244416,3.421997729622208,28.499848843195824,0.35460488704253584,-0.9350162426854147,63.5,1,47.0,0.0
SKU_003,76,133.5,0.0,190.5,43.0,0.9285714285714273,4.873397172404482,6.843995459244416,3.421997729622208,28.499848843195824,0.23931566428755768,-0.970941817426052,59.5,1,52.0,0.0
SKU_003,77,145.0,0.0,168.5,43.875,1.892857142857141,5.71046189025021,6.843995459244416,3.421997729622208,28.499848843195824,0.12053668025532308,-0.992708874098054,45.5,1,56.0,0.0
SKU_003,78,152.5,0.0,147.5,46.375,2.0595238095238066,6.081478027585071,6.843995459244416,3.421997729622208,28.499848843195824,-3.216245299353273e-16,-1.0,42.5,1,56.0,0.0
SKU_003,79,160.0,0.0,123.5,48.5,2.071428571428569,6.103277807866851,6.843995459244416,3.421997729622208,28.499848843195824,-0.12053668025532283,-0.992708874098054,35.5,1,52.0,0.0
SKU_003,80,160.5,0.0,123.0,50.125,1.3452380952380918,4.985917668794783,6.843995459244416,3.421997729622208,28.499848843195824,-0.23931566428755743,-0.9709418174260521,45.0,1,45.0,0.0
SKU_003,81,156.0,0.0,124.5,49.25,1.119047619047617,5.190134873006674,6.843995459244416,3.421997729622208,28.499848843195824,-0.3546048870425356,-0.9350162426854148,44.0,1,47.0,0.0
SKU_003,82,146.5,0.0,128.0,50.0,0.04761904761904436,4.301162633521313,6.843995459244416,3.421997729622208,28.499848843195824,-0.46472317204376806,-0.8854560256532101,39.0,1,45.0,0.0
SKU_003,83,139.5,0.0,148.5,50.0,-0.904761904761906,4.301162633521313,6.843995459244416,3.421997729622208,28.499848843195824,-0.5680647467311556,-0.8229838658936566,65.5,1,52.0,0.0
SKU_003,84,140.5,0.0,153.5,50.625,-1.0595238095238098,4.181432170919432,6.843995459244416,3.421997729622208,28.499848843195824,-0.663122658240795,-0.7485107481711013,49.0,1,43.0,0.0
SKU_003,85,136.5,0.0,169.5,49.5,-1.5476190476190488,4.8218253804964775,6.843995459244416,3.421997729622208,28.499848843195824,-0.7485107481711011,-0.6631226582407952,55.0,1,43.0,0.0
SKU_003,86,148.0,0.0,182.0,47.875,-1.3928571428571461,4.5397549493337195,6.843995459244416,3.421997729622208,28.499848843195824,-0.8229838658936564,-0.5680647467311559,78.0,1,54.0,0.0
SKU_003,87,141.0,0.0,199.5,47.625,-0.011904761904760332,4.121210380458634,6.843995459244416,3.421997729622208,28.499848843195824,-0.8854560256532096,-0.4647231720437691,66.5,1,56.0,0.0
SKU_003,88,145.0,0.0,215.0,48.125,1.154761904761906,4.807221130757353,6.843995459244416,3.421997729622208,28.499848843195824,-0.9350162426854147,-0.3546048870425359,70.5,1,51.0,0.0
SKU_003,89,164.0,0.0,191.5,48.875,1.0595238095238089,4.728570079844435,6.843995459244416,3.421997729622208,28.499848843195824,-0.970941817426052,-0.23931566428755774,54.5,1,59.0,0.0
SKU_003,90,169.5,0.0,171.0,50.375,1.7023809523809539,5.6995065575889985,6.843995459244416,3.421997729622208,28.499848843195824,-0.992708874098054,-0.12053668025532357,46.0,1,61.0,0.0
SKU_003,91,171.0,0.0,142.5,52.375,2.0119047619047588,6.243746871871088,6.843995459244416,3.421997729622208,28.499848843195824,-1.0,-1.8369701987210297e-16,42.0,1,69.0,0.0
SKU_003,92,177.5,0.0,104.5,54.5,3.357142857142856,8.306623862918075,6.843995459244416,3.421997729622208,28.499848843195824,-0.992708874098054,0.1205366802553232,16.5,1,48.0,0.0
SKU_003,93,174.5,0.0,119.5,55.125,1.5833333333333293,7.573597229850555,6.843995459244416,3.421997729622208,28.499848843195824,-0.9709418174260521,0.23931566428755738,61.0,1,49.0,0.0
SKU_003,94,173.5,0.0,102.5,55.875,-0.2261904761904789,6.565772993334448,6.843995459244416,3.421997729622208,28.499848843195824,-0.9350162426854148,0.35460488704253557,25.0,1,43.0,0.0
SKU_003,95,142.0,0.0,119.0,54.5,-1.499999999999999,7.842193570679061,6.843995459244416,3.421997729622208,28.499848843195824,-0.8854560256532101,0.464723172043768,33.0,1,48.0,0.0
SKU_003,96,147.0,0.0,111.0,53.5,-1.8809523809523823,8.093207028119323,6.843995459244416,3.421997729622208,28.499848843195824,-0.822983865893657,0.5680647467311548,53.0,1,56.0,0.0
SKU_003,97,135.0,0.0,114.0,54.125,-1.9404761904761902,8.069038046756255,6.843995459244416,3.421997729622208,28.499848843195824,-0.7485107481711011,0.6631226582407952,28.0,1,37.0,0.0
SKU_003,98,135.0,0.0,117.0,51.375,-2.8452380952380967,9.551668702378658,6.843995459244416,3.421997729622208,28.499848843195824,-0.6631226582407955,0.7485107481711007,36.0,1,33.0,0.0
SKU_003,99,142.0,0.0,119.0,47.875,-3.3452380952380953,10.469449603489192,6.843995459244416,3.421997729622208,28.499848843195824,-0.5680647467311559,0.8229838658936564,55.0,1,46.0,0.0
SKU_003,100,120.0,0.0,146.39999999999998,45.0,-1.2380952380952426,6.782329983125268,6.843995459244416,3.421997729622208,28.499848843195824,-0.4647231720437684,0.88545602565321,55.39999999999998,1,50.0,0.0
SKU_003,101,117.0,0.0,110.39999999999998,45.25,-0.5000000000000019,6.923691212063114,6.843995459244416,3.421997729622208,28.499848843195824,-0.35460488704253595,0.9350162426854147,0.0,0,39.0,0.0
SKU_003,102,133.0,0.0,55.39999999999998,44.0,-0.6190476190476231,7.035623639735144,6.843995459244416,3.421997729622208,28.499848843195824,-0.2393156642875578,0.970941817426052,0.0,0,39.0,0.0
SKU_003,103,146.39999999999998,0.0,0.0,43.5,-1.1428571428571417,7.22841614740048,6.843995459244416,3.421997729622208,28.499848843195824,-0.12053668025532363,0.992708874098054,0.0,0,42.0,0.0
SKU_004,0,113.91654062556199,0.0,30.083459374438007,33.4791351563905,0.0,0.0,7.2585536266403,3.62927681332015,28.28944352554445,0.0,1.0,30.083459374438007,1,20.0,0.0
SKU_004,1,88.91654062556199,0.0,80.58345937443801,20.0,0.0,0.0,7.2585536266403,3.62927681332015,28.28944352554445,0.12053668025532305,0.992708874098054,50.5,1,25.0,0.0
SKU_004,2,63.91654062556199,0.0,111.58345937443801,22.5,4.999999999999997,2.5,7.2585536266403,3.62927681332015,28.28944352554445,0.23931566428755774,0.970941817426052,31.0,1,25.0,0.0
SKU_004,3,37.91654062556199,0.0,128.583459374438,23.333333333333332,2.4999999999999973,2.3570226039551585,7.2585536266403,3.62927681332015,28.28944352554445,0.3546048870425356,0.9350162426854148,17.0,1,26.0,0.0
SKU_004,4,31.0,0.0,134.0,24.0,1.8000000000000005,2.345207879911715,7.2585536266403,3.62927681332015,28.28944352554445,0.4647231720437685,0.8854560256532099,35.5,1,37.0,0.0
SKU_004,5,52.5,0.0,103.5,26.6,3.4999999999999973,5.607138307550474,7.2585536266403,3.62927681332015,28.28944352554445,0.5680647467311558,0.8229838658936564,20.0,1,29.0,0.0
SKU_004,6,64.5,0.0,96.0,27.0,2.342857142857141,5.196152422706632,7.2585536266403,3.62927681332015,28.28944352554445,0.6631226582407952,0.7485107481711011,23.5,1,19.0,0.0
SKU_004,7,56.5,0.0,128.0,25.857142857142858,0.607142857142858,5.565931353936617,7.2585536266403,3.62927681332015,28.28944352554445,0.7485107481711011,0.6631226582407953,49.0,1,25.0,0.0
SKU_004,8,61.0,0.0,131.0,25.75,0.33333333333333237,5.2141634036535525,7.2585536266403,3.62927681332015,28.28944352554445,0.8229838658936564,0.5680647467311559,38.5,1,31.0,0.0
SKU_004,9,49.0,0.0,140.0,27.125,0.15476190476190335,4.960783708246107,7.2585536266403,3.62927681332015,28.28944352554445,0.8854560256532099,0.4647231720437686,29.0,1,32.0,0.0
SKU_004,10,37.5,0.0,141.0,28.0,0.33333333333333276,5.123475382979799,7.2585536266403,3.62927681332015,28.28944352554445,0.9350162426854148,0.35460488704253557,24.5,1,35.0,0.0
SKU_004,11,56.5,0.0,117.5,29.25,0.5952380952380931,5.448623679425842,7.2585536266403,3.62927681332015,28.28944352554445,0.970941817426052,0.23931566428755804,25.5,1,30.0,0.0
SKU_004,12,66.0,0.0,106.5,29.75,0.3095238095238088,5.3091901453988255,7.2585536266403,3.62927681332015,28.28944352554445,0.992708874098054,0.120536680255323,27.5,1,29.0,0.0
SKU_004,13,70.0,0.0,119.0,28.75,1.0238095238095226,4.548351349665063,7.2585536266403,3.62927681332015,28.28944352554445,1.0,-1.6081226496766366e-16,41.5,1,25.0,0.0
SKU_004,14,62.5,0.0,135.5,28.25,0.7380952380952375,4.710360920354193,7.2585536266403,3.62927681332015,28.28944352554445,0.992708874098054,-0.12053668025532288,41.0,1,32.0,0.0
SKU_004,15,59.0,0.0,155.5,29.875,0.05952380952380653,3.2572035551988456,7.2585536266403,3.62927681332015,28.28944352554445,0.9709418174260521,-0.2393156642875575,45.5,1,29.0,0.0
SKU_004,16,46.5,0.0,195.0,30.375,-0.5357142857142858,2.7357585785299112,7.2585536266403,3.62927681332015,28.28944352554445,0.9350162426854148,-0.35460488704253545,67.0,1,40.0,0.0
SKU_004,17,57.0,0.0,168.0,31.5,0.3333333333333302,4.2130748865881795,7.2585536266403,3.62927681332015,28.28944352554445,0.8854560256532099,-0.4647231720437685,14.5,1,31.0,0.0
SKU_004,18,55.0,0.0,198.5,31.375,0.3452380952380953,4.211220131980754,7.2585536266403,3.62927681332015,28.28944352554445,0.8229838658936565,-0.5680647467311557,71.5,1,43.0,0.0
SKU_004,19,53.5,0.0,198.5,32.375,1.7023809523809512,5.655473012931809,7.2585536266403,3.62927681332015,28.28944352554445,0.7485107481711013,-0.663122658240795,45.5,1,47.0,0.0
SKU_004,20,91.5,0.0,177.0,34.5,2.666666666666664,7.314369419163897,7.2585536266403,3.62927681332015,28.28944352554445,0.6631226582407952,-0.7485107481711012,45.5,1,29.0,0.0
SKU_004,21,56.0,0.0,247.0,34.5,1.6190476190476173,7.314369419163897,7.2585536266403,3.62927681332015,28.28944352554445,0.5680647467311558,-0.8229838658936564,84.5,1,50.0,0.0
SKU_004,22,85.5,0.0,190.5,37.625,1.892857142857142,7.904705876881189,7.2585536266403,3.62927681332015,28.28944352554445,0.46472317204376906,-0.8854560256532096,15.0,1,42.0,0.0
SKU_004,23,73.0,0.0,197.0,38.875,1.6547619047619047,7.704503553117489,7.2585536266403,3.62927681332015,28.28944352554445,0.35460488704253584,-0.9350162426854147,52.0,1,58.0,0.0
SKU_004,24,66.5,0.0,200.5,42.5,2.190476190476188,8.930285549745875,7.2585536266403,3.62927681332015,28.28944352554445,0.23931566428755768,-0.970941817426052,49.0,1,52.0,0.0
SKU_004,25,119.0,0.0,127.0,44.0,2.7142857142857153,9.38083151964686,7.2585536266403,3.62927681332015,28.28944352554445,0.12053668025532308,-0.992708874098054,11.0,1,32.0,0.0
SKU_004,26,96.0,0.0,148.5,44.125,0.3214285714285705,9.211914838946353,7.2585536266403,3.62927681332015,28.28944352554445,-3.216245299353273e-16,-1.0,36.5,1,38.0,0.0
SKU_004,27,92.0,0.0,179.5,43.5,-0.30952380952381064,9.433981132056603,7.2585536266403,3.62927681332015,28.28944352554445,-0.12053668025532283,-0.992708874098054,83.0,1,56.0,0.0
SKU_004,28,103.0,0.0,161.0,44.625,1.1071428571428554,10.282722159039405,7.2585536266403,3.62927681332015,28.28944352554445,-0.23931566428755743,-0.9709418174260521,30.5,1,38.0,0.0
SKU_004,29,83.0,0.0,187.0,45.75,-1.1190476190476193,8.912771734987944,7.2585536266403,3.62927681332015,28.28944352554445,-0.3546048870425356,-0.9350162426854148,37.0,1,31.0,0.0
SKU_004,30,63.5,0.0,218.5,43.375,-1.8928571428571448,9.9365172470036,7.2585536266403,3.62927681332015,28.28944352554445,-0.46472317204376806,-0.8854560256532101,68.0,1,56.0,0.0
SKU_004,31,95.5,0.0,174.5,45.125,-0.9880952380952397,10.740548170368214,7.2585536266403,3.62927681332015,28.28944352554445,-0.5680647467311556,-0.8229838658936566,39.0,1,51.0,0.0
SKU_004,32,84.0,0.0,175.5,44.25,0.8809523809523806,9.908960591303208,7.2585536266403,3.62927681332015,28.28944352554445,-0.663122658240795,-0.7485107481711013,31.5,1,42.0,0.0
SKU_004,33,82.0,0.0,188.0,43.0,1.5238095238095228,9.473647660748208,7.2585536266403,3.62927681332015,28.28944352554445,-0.7485107481711011,-0.6631226582407952,49.5,1,39.0,0.0
SKU_004,34,102.0,0.0,169.5,43.875,0.011904761904758384,8.709728755822422,7.2585536266403,3.62927681332015,28.28944352554445,-0.8229838658936564,-0.5680647467311559,49.5,1,48.0,0.0
SKU_004,35,97.0,0.0,155.0,45.125,-0.2738095238095248,8.491723912139395,7.2585536266403,3.62927681332015,28.28944352554445,-0.8854560256532096,-0.4647231720437691,24.5,1,44.0,0.0
SKU_004,36,79.5,0.0,162.0,43.625,0.7976190476190474,7.431983248097374,7.2585536266403,3.62927681332015,28.28944352554445,-0.9350162426854147,-0.3546048870425359,38.5,1,49.0,0.0
SKU_004,37,89.0,0.0,124.0,45.0,0.6428571428571396,7.280109889280518,7.2585536266403,3.62927681332015,28.28944352554445,-0.970941817426052,-0.23931566428755774,11.5,1,40.0,0.0
SKU_004,38,103.5,0.0,103.5,46.125,-1.273809523809523,5.509934210133547,7.2585536266403,3.62927681332015,28.28944352554445,-0.992708874098054,-0.12053668025532357,29.0,1,35.0,0.0
SKU_004,39,91.0,0.0,122.0,43.5,-1.1428571428571417,5.172040216394301,7.2585536266403,3.62927681332015,28.28944352554445,-1.0,-1.8369701987210297e-16,43.0,1,37.0,0.0
SKU_004,40,99.5,0.0,107.5,41.75,-0.880952380952383,4.683748498798798,7.2585536266403,3.62927681332015,28.28944352554445,-0.992708874098054,0.1205366802553232,24.0,1,30.0,0.0
SKU_004,41,75.0,0.0,135.0,40.25,-1.8333333333333313,6.077622890571609,7.2585536266403,3.62927681332015,28.28944352554445,-0.9709418174260521,0.23931566428755738,39.0,1,36.0,0.0
SKU_004,42,65.0,0.0,118.0,39.875,-2.3214285714285747,6.233728819895841,7.2585536266403,3.62927681332015,28.28944352554445,-0.9350162426854148,0.35460488704253557,12.0,1,39.0,0.0
SKU_004,43,75.0,0.0,99.0,38.75,-1.5238095238095233,5.425633603552677,7.2585536266403,3.62927681332015,28.28944352554445,-0.8854560256532101,0.464723172043768,24.0,1,33.0,0.0
SKU_004,44,67.0,0.0,95.0,37.375,-1.440476190476192,5.31360282670807,7.2585536266403,3.62927681332015,28.28944352554445,-0.822983865893657,0.5680647467311548,20.0,1,32.0,0.0
SKU_004,45,88.0,0.0,56.0,35.25,-0.642857142857146,3.2307119958300214,7.2585536266403,3.62927681332015,28.28944352554445,-0.7485107481711011,0.6631226582407952,0.0,0,18.0,0.0
SKU_004,46,67.0,0.0,81.5,32.5,-1.5714285714285727,6.103277807866851,7.2585536266403,3.62927681332015,28.28944352554445,-0.6631226582407955,0.7485107481711007,37.5,1,33.0,0.0
SKU_004,47,66.0,0.0,76.5,32.25,-1.261904761904764,6.036348233824818,7.2585536266403,3.62927681332015,28.28944352554445,-0.5680647467311559,0.8229838658936564,19.0,1,25.0,0.0
SKU_004,48,70.0,0.0,74.0,30.75,-1.3571428571428588,6.15934249737746,7.2585536266403,3.62927681332015,28.28944352554445,-0.4647231720437684,0.88545602565321,17.5,1,16.0,0.0
SKU_004,49,45.0,0.0,99.0,29.0,-2.6666666666666687,7.874007874011811,7.2585536266403,3.62927681332015,28.28944352554445,-0.35460488704253595,0.9350162426854147,25.0,1,25.0,0.0
SKU_004,50,53.5,0.0,92.0,27.625,-2.2500000000000018,7.482270711488592,7.2585536266403,3.62927681332015,28.28944352554445,-0.2393156642875578,0.970941817426052,30.5,1,29.0,0.0
SKU_004,51,46.5,0.0,88.5,26.375,-0.9166666666666679,6.203577596838779,7.2585536266403,3.62927681332015,28.28944352554445,-0.12053668025532363,0.992708874098054,15.5,1,26.0,0.0
SKU_004,52,48.0,0.0,85.5,25.5,-0.23809523809523858,5.678908345800274,7.2585536266403,3.62927681332015,28.28944352554445,0.0,1.0,14.5,1,16.0,0.0
SKU_004,53,47.0,0.0,107.5,23.5,-0.3333333333333345,5.852349955359813,7.2585536266403,3.62927681332015,28.28944352554445,0.12053668025532305,0.992708874098054,47.0,1,26.0,0.0
SKU_004,54,55.5,0.0,111.0,24.5,-0.7142857142857147,5.5,7.2585536266403,3.62927681332015,28.28944352554445,0.23931566428755774,0.970941817426052,34.0,1,22.0,0.0
SKU_004,55,46.0,0.0,137.0,23.125,-0.011904761904762282,4.484347778663024,7.2585536266403,3.62927681332015,28.28944352554445,0.3546048870425356,0.9350162426854148,41.5,1,25.0,0.0
SKU_004,56,30.5,0.0,151.0,23.125,0.345238095238094,4.484347778663024,7.2585536266403,3.62927681332015,28.28944352554445,0.4647231720437685,0.8854560256532099,28.5,1,30.0,0.0
SKU_004,57,43.5,0.0,133.5,24.875,0.15476190476190393,4.075460096725276,7.2585536266403,3.62927681332015,28.28944352554445,0.5680647467311558,0.8229838658936564,29.5,1,34.0,0.0
SKU_004,58,44.5,0.0,128.0,26.0,0.9285714285714266,5.07444578254611,7.2585536266403,3.62927681332015,28.28944352554445,0.6631226582407952,0.7485107481711011,28.5,1,33.0,0.0
SKU_004,59,62.0,0.0,100.0,26.5,1.8333333333333333,5.522680508593631,7.2585536266403,3.62927681332015,28.28944352554445,0.7485107481711011,0.6631226582407953,13.5,1,24.0,0.0
SKU_004,60,63.5,0.0,119.5,26.25,1.5714285714285712,5.584576975922169,7.2585536266403,3.62927681332015,28.28944352554445,0.8229838658936564,0.5680647467311559,48.0,1,27.0,0.0
SKU_004,61,62.0,0.0,136.0,27.625,0.5357142857142836,4.02919036532155,7.2585536266403,3.62927681332015,28.28944352554445,0.8854560256532099,0.4647231720437686,46.0,1,31.0,0.0
SKU_004,62,64.5,0.0,156.0,28.25,0.6428571428571412,4.115519408288582,7.2585536266403,3.62927681332015,28.28944352554445,0.9350162426854148,0.35460488704253557,48.5,1,26.0,0.0
SKU_004,63,40.0,0.0,213.5,28.75,-0.21428571428571624,3.526683994916471,7.2585536266403,3.62927681332015,28.28944352554445,0.970941817426052,0.23931566428755804,71.0,1,38.0,0.0
SKU_004,64,51.0,0.0,219.0,30.375,0.15476190476190407,4.328322423295196,7.2585536266403,3.62927681332015,28.28944352554445,0.992708874098054,0.120536680255323,53.5,1,37.0,0.0
SKU_004,65,51.0,0.0,187.5,31.25,0.6666666666666656,4.841229182759271,7.2585536266403,3.62927681332015,28.28944352554445,1.0,-1.6081226496766366e-16,14.5,1,46.0,0.0
SKU_004,66,51.5,0.0,181.0,32.75,2.1904761904761902,6.887488656977955,7.2585536266403,3.62927681332015,28.28944352554445,0.992708874098054,-0.12053668025532288,42.0,1,48.0,0.0
SKU_004,67,73.5,0.0,151.5,34.625,3.488095238095237,8.543089312420888,7.2585536266403,3.62927681332015,28.28944352554445,0.9709418174260521,-0.2393156642875575,41.5,1,49.0,0.0
SKU_004,68,111.0,0.0,100.5,37.75,3.5476190476190474,8.656644846590392,7.2585536266403,3.62927681332015,28.28944352554445,0.9350162426854148,-0.35460488704253545,2.5,1,16.0,0.0
SKU_004,69,83.5,0.0,171.5,36.375,0.583333333333333,10.850547221223453,7.2585536266403,3.62927681332015,28.28944352554445,0.8854560256532099,-0.4647231720437685,85.5,1,42.0,0.0
SKU_004,70,82.5,0.0,160.5,37.75,0.47619047619047544,10.779030568655049,7.2585536266403,3.62927681332015,28.28944352554445,0.8229838658936565,-0.5680647467311557,31.0,1,43.0,0.0
SKU_004,71,84.0,0.0,162.0,39.875,-0.3452380952380957,9.892389751723291,7.2585536266403,3.62927681332015,28.28944352554445,0.7485107481711013,-0.663122658240795,43.0,1,40.0,0.0
SKU_004,72,41.5,0.0,222.5,40.125,-0.5357142857142851,9.867085435932943,7.2585536266403,3.62927681332015,28.28944352554445,0.6631226582407952,-0.7485107481711012,63.0,1,45.0,0.0
SKU_004,73,93.0,0.0,172.5,41.125,-0.46428571428571513,9.905017667828766,7.2585536266403,3.62927681332015,28.28944352554445,0.5680647467311558,-0.8229838658936564,35.5,1,34.0,0.0
SKU_004,74,79.0,0.0,188.0,39.625,-0.5357142857142883,9.96164519544839,7.2585536266403,3.62927681332015,28.28944352554445,0.46472317204376906,-0.8854560256532096,46.5,1,45.0,0.0
SKU_004,75,70.0,0.0,180.5,39.25,0.8095238095238089,9.692135987490063,7.2585536266403,3.62927681332015,28.28944352554445,0.35460488704253584,-0.9350162426854147,35.5,1,52.0,0.0
SKU_004,76,87.0,0.0,171.0,39.625,2.916666666666664,10.111101572034572,7.2585536266403,3.62927681332015,28.28944352554445,0.23931566428755768,-0.970941817426052,53.5,1,46.0,0.0
SKU_004,77,87.5,0.0,167.5,43.375,0.9166666666666633,4.846067993745032,7.2585536266403,3.62927681332015,28.28944352554445,0.12053668025532308,-0.992708874098054,32.0,1,35.0,0.0
SKU_004,78,100.0,0.0,159.5,42.5,0.07142857142856858,5.5901699437494745,7.2585536266403,3.62927681332015,28.28944352554445,-3.216245299353273e-16,-1.0,38.5,1,34.0,0.0
SKU_004,79,78.5,0.0,205.0,41.375,-0.5833333333333347,6.243746871871088,7.2585536266403,3.62927681332015,28.28944352554445,-0.12053668025532283,-0.992708874098054,81.0,1,57.0,0.0
SKU_004,80,88.0,0.0,167.0,43.5,0.5714285714285696,8.04673846971554,7.2585536266403,3.62927681332015,28.28944352554445,-0.23931566428755743,-0.9709418174260521,15.5,1,44.0,0.0
SKU_004,81,82.0,0.0,167.0,43.375,0.7738095238095215,8.030216373174511,7.2585536266403,3.62927681332015,28.28944352554445,-0.3546048870425356,-0.9350162426854148,32.0,1,38.0,0.0
SKU_004,82,70.5,0.0,186.0,43.875,-0.6785714285714303,7.540515565927836,7.2585536266403,3.62927681332015,28.28944352554445,-0.46472317204376806,-0.8854560256532101,57.5,1,50.0,0.0
SKU_004,83,113.5,0.0,126.5,44.5,-0.047619047619050024,7.810249675906654,7.2585536266403,3.62927681332015,28.28944352554445,-0.5680647467311556,-0.8229838658936566,21.5,1,38.0,0.0
SKU_004,84,89.0,0.0,155.5,42.75,0.21428571428571394,7.495832175282475,7.2585536266403,3.62927681332015,28.28944352554445,-0.663122658240795,-0.7485107481711013,44.5,1,40.0,0.0
SKU_004,85,78.0,0.0,174.0,42.0,0.333333333333332,7.433034373659253,7.2585536266403,3.62927681332015,28.28944352554445,-0.7485107481711011,-0.6631226582407952,50.5,1,43.0,0.0
SKU_004,86,96.5,0.0,157.0,43.0,-0.3333333333333349,6.946221994724902,7.2585536266403,3.62927681332015,28.28944352554445,-0.8229838658936564,-0.5680647467311559,40.5,1,39.0,0.0
SKU_004,87,77.0,0.0,170.5,43.625,-1.6309523809523832,6.303520841561484,7.2585536266403,3.62927681332015,28.28944352554445,-0.8854560256532096,-0.4647231720437691,35.0,1,41.0,0.0
SKU_004,88,76.5,0.0,154.5,41.625,-0.416666666666669,3.7728470681966426,7.2585536266403,3.62927681332015,28.28944352554445,-0.9350162426854147,-0.3546048870425359,28.5,1,45.0,0.0
SKU_004,89,83.0,0.0,152.5,41.75,0.11904761904761792,3.8649062084350767,7.2585536266403,3.62927681332015,28.28944352554445,-0.970941817426052,-0.23931566428755774,48.5,1,44.0,0.0
SKU_004,90,88.5,0.0,153.0,42.5,-0.09523809523809648,3.640054944640259,7.2585536266403,3.62927681332015,28.28944352554445,-0.992708874098054,-0.12053668025532357,41.0,1,35.0,0.0
SKU_004,91,93.5,0.0,136.0,40.625,0.08333333333333051,3.119995993587171,7.2585536266403,3.62927681332015,28.28944352554445,-1.0,-1.8369701987210297e-16,18.0,1,30.0,0.0
SKU_004,92,74.0,0.0,169.0,39.625,-1.0833333333333357,4.688749833377763,7.2585536266403,3.62927681332015,28.28944352554445,-0.992708874098054,0.1205366802553232,61.5,1,48.0,0.0
SKU_004,93,74.5,0.0,138.5,40.625,-0.34523809523809745,5.452923527796809,7.2585536266403,3.62927681332015,28.28944352554445,-0.9709418174260521,0.23931566428755738,18.0,1,48.0,0.0
SKU_004,94,88.5,0.0,97.5,41.25,0.5238095238095216,5.952940449895329,7.2585536266403,3.62927681332015,28.28944352554445,-0.9350162426854148,0.35460488704253557,0.0,0,27.0,0.0
SKU_004,95,67.5,0.0,120.0,39.75,-0.9047619047619081,7.611668673819165,7.2585536266403,3.62927681332015,28.28944352554445,-0.8854560256532101,0.464723172043768,40.5,1,39.0,0.0
SKU_004,96,101.0,0.0,73.0,39.5,-0.8333333333333379,7.599342076785332,7.2585536266403,3.62927681332015,28.28944352554445,-0.822983865893657,0.5680647467311548,14.5,1,28.0,0.0
SKU_004,97,91.0,0.0,86.0,37.375,-1.2023809523809526,8.123076695439973,7.2585536266403,3.62927681332015,28.28944352554445,-0.7485107481711011,0.6631226582407952,31.0,1,28.0,0.0
SKU_004,98,61.0,0.0,108.5,35.375,-1.2738095238095248,8.214887400323878,7.2585536266403,3.62927681332015,28.28944352554445,-0.6631226582407955,0.7485107481711007,22.5,1,30.0,0.0
SKU_004,99,71.5,0.0,89.0,34.75,-1.7619047619047652,8.407585860400118,7.2585536266403,3.62927681332015,28.28944352554445,-0.5680647467311559,0.8229838658936564,21.0,1,30.0,0.0
SKU_004,100,56.0,0.0,119.19999999999999,34.75,-2.6666666666666683,8.407585860400118,7.2585536266403,3.62927681332015,28.28944352554445,-0.4647231720437684,0.88545602565321,44.69999999999999,1,30.0,0.0
SKU_004,101,64.0,0.0,88.19999999999999,32.5,-1.6428571428571466,6.819090848492928,7.2585536266403,3.62927681332015,28.28944352554445,-0.35460488704253595,0.9350162426854147,0.0,0,23.0,0.0
SKU_004,102,62.5,0.0,65.69999999999999,29.375,-0.7738095238095257,4.240798863421843,7.2585536266403,3.62927681332015,28.28944352554445,-0.2393156642875578,0.970941817426052,0.0,0,24.0,0.0
SKU_004,103,50.5,0.0,44.69999999999999,29.0,-1.4761904761904774,4.55521678957215,7.2585536266403,3.62927681332015,28.28944352554445,-0.12053668025532363,0.992708874098054,0.0,0,33.0,0.0
SKU_005,0,294.1522297232945,0.0,178.8477702767055,97.03805743082363,0.0,0.0,5.251429765342412,2.625714882671206,44.59571980498444,0.0,1.0,178.8477702767055,1,94.0,0.0
SKU_005,1,191.1522297232945,0.0,266.3477702767055,94.0,0.0,0.0,5.251429765342412,2.625714882671206,44.59571980498444,0.12053668025532305,0.992708874098054,87.5,1,103.0,0.0
SKU_005,2,103.15222972329451,0.0,328.3477702767055,98.5,8.999999999999993,4.5,5.251429765342412,2.625714882671206,44.59571980498444,0.23931566428755774,0.970941817426052,62.0,1,88.0,0.0
SKU_005,3,191.0,0.0,277.5,95.0,-3.0000000000000093,6.164414002968976,5.251429765342412,2.625714882671206,44.59571980498444,0.3546048870425356,0.9350162426854148,128.0,1,91.0,0.0
SKU_005,4,209.5,0.0,263.0,94.0,-2.3999999999999884,5.612486080160912,5.251429765342412,2.625714882671206,44.59571980498444,0.4647231720437685,0.8854560256532099,73.0,1,69.0,0.0
SKU_005,5,152.5,0.0,344.0,89.0,-6.2,11.189280584559492,5.251429765342412,2.625714882671206,44.59571980498444,0.5680647467311558,0.8229838658936564,143.0,1,119.0,0.0
SKU_005,6,180.5,0.0,252.5,94.0,0.7428571428571361,15.14375558880073,5.251429765342412,2.625714882671206,44.59571980498444,0.6631226582407952,0.7485107481711011,36.5,1,100.0,0.0
SKU_005,7,172.5,0.0,196.0,94.85714285714286,1.107142857142857,14.176727120063173,5.251429765342412,2.625714882671206,44.59571980498444,0.7485107481711011,0.6631226582407953,16.5,1,81.0,0.0
SKU_005,8,222.5,0.0,133.5,93.125,-0.41666666666667496,14.030658395100353,5.251429765342412,2.625714882671206,44.59571980498444,0.8229838658936564,0.5680647467311559,80.5,1,93.0,0.0
SKU_005,9,215.0,0.0,97.0,93.0,-0.3333333333333332,14.026760139105537,5.251429765342412,2.625714882671206,44.59571980498444,0.8854560256532099,0.4647231720437686,0.0,0,44.0,0.0
SKU_005,10,148.5,0.0,192.0,85.625,-3.345238095238094,20.736064597700306,5.251429765342412,2.625714882671206,44.59571980498444,0.9350162426854148,0.35460488704253557,111.5,1,83.0,0.0
SKU_005,11,177.0,0.0,159.0,85.0,-3.309523809523812,20.73041244162788,5.251429765342412,2.625714882671206,44.59571980498444,0.970941817426052,0.23931566428755804,47.5,1,52.0,0.0
SKU_005,12,115.0,0.0,233.0,80.125,-5.4166666666666705,23.186404960666067,5.251429765342412,2.625714882671206,44.59571980498444,0.992708874098054,0.120536680255323,74.0,1,62.0,0.0
SKU_005,13,136.5,0.0,200.5,79.25,-8.11904761904762,23.71576479896864,5.251429765342412,2.625714882671206,44.59571980498444,1.0,-1.6081226496766366e-16,79.0,1,90.0,0.0
SKU_005,14,124.0,0.0,172.0,75.625,-2.9642857142857153,19.13725097813163,5.251429765342412,2.625714882671206,44.59571980498444,0.992708874098054,-0.12053668025532288,19.0,1,60.0,0.0
SKU_005,15,138.0,0.0,193.0,70.625,-1.6547619047619098,17.247735358591285,5.251429765342412,2.625714882671206,44.59571980498444,0.9709418174260521,-0.2393156642875575,95.0,1,60.0,0.0
SKU_005,16,173.0,0.0,153.5,68.0,-1.4285714285714262,17.066048165876012,5.251429765342412,2.625714882671206,44.59571980498444,0.9350162426854148,-0.35460488704253545,39.5,1,44.0,0.0
SKU_005,17,92.0,0.0,281.0,61.875,-0.7500000000000008,15.735608504280982,5.251429765342412,2.625714882671206,44.59571980498444,0.8854560256532099,-0.4647231720437685,146.5,1,100.0,0.0
SKU_005,18,137.0,0.0,205.0,68.875,0.5119047619047628,18.448831263795547,5.251429765342412,2.625714882671206,44.59571980498444,0.8229838658936565,-0.5680647467311557,19.0,1,50.0,0.0
SKU_005,19,105.5,0.0,272.5,64.75,0.45238095238095055,18.518571759182727,5.251429765342412,2.625714882671206,44.59571980498444,0.7485107481711013,-0.663122658240795,107.0,1,71.0,0.0
SKU_005,20,169.0,0.0,214.5,67.125,-0.3928571428571473,17.940439654590406,5.251429765342412,2.625714882671206,44.59571980498444,0.6631226582407952,-0.7485107481711012,88.5,1,83.0,0.0
SKU_005,21,116.0,0.0,254.5,69.75,0.38095238095237605,18.525320510047862,5.251429765342412,2.625714882671206,44.59571980498444,0.5680647467311558,-0.8229838658936564,59.0,1,72.0,0.0
SKU_005,22,145.0,0.0,239.0,67.5,2.738095238095234,16.95582495781317,5.251429765342412,2.625714882671206,44.59571980498444,0.46472317204376906,-0.8854560256532096,91.5,1,78.0,0.0
SKU_005,23,165.5,0.0,219.0,69.75,2.809523809523807,17.005513811702368,5.251429765342412,2.625714882671206,44.59571980498444,0.35460488704253584,-0.9350162426854147,68.5,1,68.0,0.0
SKU_005,24,137.5,0.0,284.5,70.75,1.619047619047615,16.63392617513977,5.251429765342412,2.625714882671206,44.59571980498444,0.23931566428755768,-0.970941817426052,124.5,1,87.0,0.0
SKU_005,25,160.0,0.0,266.5,76.125,0.10714285714285417,13.83327058218699,5.251429765342412,2.625714882671206,44.59571980498444,0.12053668025532308,-0.992708874098054,73.5,1,69.0,0.0
SKU_005,26,131.5,0.0,336.0,72.25,2.071428571428569,10.556396165358706,5.251429765342412,2.625714882671206,44.59571980498444,-3.216245299353273e-16,-1.0,138.0,1,97.0,0.0
SKU_005,27,171.0,0.0,297.5,78.125,1.7499999999999962,9.571278650211788,5.251429765342412,2.625714882671206,44.59571980498444,-0.12053668025532283,-0.992708874098054,86.0,1,85.0,0.0
SKU_005,28,144.5,0.0,367.5,79.875,1.559523809523807,9.386659416427124,5.251429765342412,2.625714882671206,44.59571980498444,-0.23931566428755743,-0.9709418174260521,143.5,1,100.0,0.0
SKU_005,29,193.5,0.0,349.5,82.0,3.571428571428567,11.532562594670797,5.251429765342412,2.625714882671206,44.59571980498444,-0.3546048870425356,-0.9350162426854148,120.0,1,89.0,0.0
SKU_005,30,164.5,0.0,442.0,84.125,3.083333333333333,11.050311081594039,5.251429765342412,2.625714882671206,44.59571980498444,-0.46472317204376806,-0.8854560256532101,178.5,1,115.0,0.0
SKU_005,31,196.0,0.0,409.5,88.75,5.000000000000001,14.669270602180601,5.251429765342412,2.625714882671206,44.59571980498444,-0.5680647467311556,-0.8229838658936566,111.0,1,112.0,0.0
SKU_005,32,178.0,0.0,417.0,94.25,4.7142857142857135,14.095655359010449,5.251429765342412,2.625714882671206,44.59571980498444,-0.663122658240795,-0.7485107481711013,127.5,1,138.0,0.0
